(Generated by PartKam Version 0.05)

G21 G90 G40

(follow path 1)
G0 Z15
T0 M6
G17
M3
G0 X124.98832487309645 Y62.66548223350254
G1 Z-0.5 F800
G2 X123.79187817258882 Y49.99492385786802 I-67.61928934010152 J0 F1500
G2 X120.4238578680203 Y38.74111675126903 I-56.60659898477157 J10.796954314720812
G2 X114.84517766497461 Y28.401015228426395 I-53.23857868020305 J22.053299492385786
G2 X106.73350253807106 Y18.596446700507613 I-55.923857868020306 J38.00761421319797
G2 X96.92893401015228 Y10.48477157360406 I-47.81218274111676 J47.81218274111676
G2 X86.59137055837563 Y4.906091370558376 I-32.390862944162436 J47.65989847715736
G2 X75.33502538071066 Y1.5406091370558375 I-22.053299492385786 J53.23857868020305
G2 X62.664974619289346 Y0.3426395939086294 I-12.670050761421319 J66.42131979695432
G2 X49.99492385786802 Y1.5406091370558375 I0 J67.61928934010152
G2 X38.74111675126903 Y4.906091370558376 I10.796954314720812 J56.60659898477157
G2 X28.401015228426395 Y10.48477157360406 I22.053299492385786 J53.23857868020305
G2 X18.596446700507613 Y18.596446700507613 I38.00761421319797 J55.923857868020306
G2 X10.48477157360406 Y28.401015228426395 I47.81218274111676 J47.81218274111676
G2 X4.906091370558376 Y38.74111675126903 I47.65989847715736 J32.390862944162436
G2 X1.5406091370558375 Y49.99492385786802 I53.23857868020305 J22.053299492385786
G2 X0.3426395939086294 Y62.664974619289346 I66.42131979695432 J12.670050761421319
G2 X1.5406091370558375 Y75.33502538071066 I67.61928934010152 J0
G2 X4.906091370558376 Y86.59137055837563 I56.60659898477157 J-10.796954314720812
G2 X10.48477157360406 Y96.92893401015228 I53.23857868020305 J-22.053299492385786
G2 X18.596446700507613 Y106.73350253807106 I55.923857868020306 J-38.00761421319797
G2 X28.401015228426395 Y114.84517766497461 I47.81218274111676 J-47.81218274111676
G2 X38.74111675126903 Y120.4238578680203 I32.390862944162436 J-47.65989847715736
G2 X49.99492385786802 Y123.79187817258882 I22.053299492385786 J-53.23857868020305
G2 X62.664974619289346 Y124.98730964467006 I12.670050761421319 J-66.42131979695432
G2 X75.33502538071066 Y123.79187817258882 I0 J-67.61928934010152
G2 X86.59137055837563 Y120.4238578680203 I-10.796954314720812 J-56.60659898477157
G2 X96.92893401015228 Y114.84517766497461 I-22.053299492385786 J-53.23857868020305
G2 X106.73350253807106 Y106.73350253807106 I-38.00761421319797 J-55.923857868020306
G2 X114.84517766497461 Y96.92893401015228 I-47.81218274111676 J-47.81218274111676
G2 X120.4238578680203 Y86.59137055837563 I-47.65989847715736 J-32.390862944162436
G2 X123.79187817258882 Y75.33502538071066 I-53.23857868020305 J-22.053299492385786
G2 X124.98730964467006 Y62.664974619289346 I-66.42131979695432 J-12.670050761421319
G0 Z15
G0 X124.98832487309645 Y62.66548223350254
G1 Z-1 F800
G2 X123.79187817258882 Y49.99492385786802 I-67.61928934010152 J0 F1500
G2 X120.4238578680203 Y38.74111675126903 I-56.60659898477157 J10.796954314720812
G2 X114.84517766497461 Y28.401015228426395 I-53.23857868020305 J22.053299492385786
G2 X106.73350253807106 Y18.596446700507613 I-55.923857868020306 J38.00761421319797
G2 X96.92893401015228 Y10.48477157360406 I-47.81218274111676 J47.81218274111676
G2 X86.59137055837563 Y4.906091370558376 I-32.390862944162436 J47.65989847715736
G2 X75.33502538071066 Y1.5406091370558375 I-22.053299492385786 J53.23857868020305
G2 X62.664974619289346 Y0.3426395939086294 I-12.670050761421319 J66.42131979695432
G2 X49.99492385786802 Y1.5406091370558375 I0 J67.61928934010152
G2 X38.74111675126903 Y4.906091370558376 I10.796954314720812 J56.60659898477157
G2 X28.401015228426395 Y10.48477157360406 I22.053299492385786 J53.23857868020305
G2 X18.596446700507613 Y18.596446700507613 I38.00761421319797 J55.923857868020306
G2 X10.48477157360406 Y28.401015228426395 I47.81218274111676 J47.81218274111676
G2 X4.906091370558376 Y38.74111675126903 I47.65989847715736 J32.390862944162436
G2 X1.5406091370558375 Y49.99492385786802 I53.23857868020305 J22.053299492385786
G2 X0.3426395939086294 Y62.664974619289346 I66.42131979695432 J12.670050761421319
G2 X1.5406091370558375 Y75.33502538071066 I67.61928934010152 J0
G2 X4.906091370558376 Y86.59137055837563 I56.60659898477157 J-10.796954314720812
G2 X10.48477157360406 Y96.92893401015228 I53.23857868020305 J-22.053299492385786
G2 X18.596446700507613 Y106.73350253807106 I55.923857868020306 J-38.00761421319797
G2 X28.401015228426395 Y114.84517766497461 I47.81218274111676 J-47.81218274111676
G2 X38.74111675126903 Y120.4238578680203 I32.390862944162436 J-47.65989847715736
G2 X49.99492385786802 Y123.79187817258882 I22.053299492385786 J-53.23857868020305
G2 X62.664974619289346 Y124.98730964467006 I12.670050761421319 J-66.42131979695432
G2 X75.33502538071066 Y123.79187817258882 I0 J-67.61928934010152
G2 X86.59137055837563 Y120.4238578680203 I-10.796954314720812 J-56.60659898477157
G2 X96.92893401015228 Y114.84517766497461 I-22.053299492385786 J-53.23857868020305
G2 X106.73350253807106 Y106.73350253807106 I-38.00761421319797 J-55.923857868020306
G2 X114.84517766497461 Y96.92893401015228 I-47.81218274111676 J-47.81218274111676
G2 X120.4238578680203 Y86.59137055837563 I-47.65989847715736 J-32.390862944162436
G2 X123.79187817258882 Y75.33502538071066 I-53.23857868020305 J-22.053299492385786
G2 X124.98730964467006 Y62.664974619289346 I-66.42131979695432 J-12.670050761421319
G0 Z15
G0 X124.98832487309645 Y62.66548223350254
G1 Z-1.5 F800
G2 X123.79187817258882 Y49.99492385786802 I-67.61928934010152 J0 F1500
G2 X120.4238578680203 Y38.74111675126903 I-56.60659898477157 J10.796954314720812
G2 X114.84517766497461 Y28.401015228426395 I-53.23857868020305 J22.053299492385786
G2 X106.73350253807106 Y18.596446700507613 I-55.923857868020306 J38.00761421319797
G2 X96.92893401015228 Y10.48477157360406 I-47.81218274111676 J47.81218274111676
G2 X86.59137055837563 Y4.906091370558376 I-32.390862944162436 J47.65989847715736
G2 X75.33502538071066 Y1.5406091370558375 I-22.053299492385786 J53.23857868020305
G2 X62.664974619289346 Y0.3426395939086294 I-12.670050761421319 J66.42131979695432
G2 X49.99492385786802 Y1.5406091370558375 I0 J67.61928934010152
G2 X38.74111675126903 Y4.906091370558376 I10.796954314720812 J56.60659898477157
G2 X28.401015228426395 Y10.48477157360406 I22.053299492385786 J53.23857868020305
G2 X18.596446700507613 Y18.596446700507613 I38.00761421319797 J55.923857868020306
G2 X10.48477157360406 Y28.401015228426395 I47.81218274111676 J47.81218274111676
G2 X4.906091370558376 Y38.74111675126903 I47.65989847715736 J32.390862944162436
G2 X1.5406091370558375 Y49.99492385786802 I53.23857868020305 J22.053299492385786
G2 X0.3426395939086294 Y62.664974619289346 I66.42131979695432 J12.670050761421319
G2 X1.5406091370558375 Y75.33502538071066 I67.61928934010152 J0
G2 X4.906091370558376 Y86.59137055837563 I56.60659898477157 J-10.796954314720812
G2 X10.48477157360406 Y96.92893401015228 I53.23857868020305 J-22.053299492385786
G2 X18.596446700507613 Y106.73350253807106 I55.923857868020306 J-38.00761421319797
G2 X28.401015228426395 Y114.84517766497461 I47.81218274111676 J-47.81218274111676
G2 X38.74111675126903 Y120.4238578680203 I32.390862944162436 J-47.65989847715736
G2 X49.99492385786802 Y123.79187817258882 I22.053299492385786 J-53.23857868020305
G2 X62.664974619289346 Y124.98730964467006 I12.670050761421319 J-66.42131979695432
G2 X75.33502538071066 Y123.79187817258882 I0 J-67.61928934010152
G2 X86.59137055837563 Y120.4238578680203 I-10.796954314720812 J-56.60659898477157
G2 X96.92893401015228 Y114.84517766497461 I-22.053299492385786 J-53.23857868020305
G2 X106.73350253807106 Y106.73350253807106 I-38.00761421319797 J-55.923857868020306
G2 X114.84517766497461 Y96.92893401015228 I-47.81218274111676 J-47.81218274111676
G2 X120.4238578680203 Y86.59137055837563 I-47.65989847715736 J-32.390862944162436
G2 X123.79187817258882 Y75.33502538071066 I-53.23857868020305 J-22.053299492385786
G2 X124.98730964467006 Y62.664974619289346 I-66.42131979695432 J-12.670050761421319
G0 Z15
G0 X124.98832487309645 Y62.66548223350254
G1 Z-2 F800
G2 X123.79187817258882 Y49.99492385786802 I-67.61928934010152 J0 F1500
G2 X120.4238578680203 Y38.74111675126903 I-56.60659898477157 J10.796954314720812
G2 X114.84517766497461 Y28.401015228426395 I-53.23857868020305 J22.053299492385786
G2 X106.73350253807106 Y18.596446700507613 I-55.923857868020306 J38.00761421319797
G2 X96.92893401015228 Y10.48477157360406 I-47.81218274111676 J47.81218274111676
G2 X86.59137055837563 Y4.906091370558376 I-32.390862944162436 J47.65989847715736
G2 X75.33502538071066 Y1.5406091370558375 I-22.053299492385786 J53.23857868020305
G2 X62.664974619289346 Y0.3426395939086294 I-12.670050761421319 J66.42131979695432
G2 X49.99492385786802 Y1.5406091370558375 I0 J67.61928934010152
G2 X38.74111675126903 Y4.906091370558376 I10.796954314720812 J56.60659898477157
G2 X28.401015228426395 Y10.48477157360406 I22.053299492385786 J53.23857868020305
G2 X18.596446700507613 Y18.596446700507613 I38.00761421319797 J55.923857868020306
G2 X10.48477157360406 Y28.401015228426395 I47.81218274111676 J47.81218274111676
G2 X4.906091370558376 Y38.74111675126903 I47.65989847715736 J32.390862944162436
G2 X1.5406091370558375 Y49.99492385786802 I53.23857868020305 J22.053299492385786
G2 X0.3426395939086294 Y62.664974619289346 I66.42131979695432 J12.670050761421319
G2 X1.5406091370558375 Y75.33502538071066 I67.61928934010152 J0
G2 X4.906091370558376 Y86.59137055837563 I56.60659898477157 J-10.796954314720812
G2 X10.48477157360406 Y96.92893401015228 I53.23857868020305 J-22.053299492385786
G2 X18.596446700507613 Y106.73350253807106 I55.923857868020306 J-38.00761421319797
G2 X28.401015228426395 Y114.84517766497461 I47.81218274111676 J-47.81218274111676
G2 X38.74111675126903 Y120.4238578680203 I32.390862944162436 J-47.65989847715736
G2 X49.99492385786802 Y123.79187817258882 I22.053299492385786 J-53.23857868020305
G2 X62.664974619289346 Y124.98730964467006 I12.670050761421319 J-66.42131979695432
G2 X75.33502538071066 Y123.79187817258882 I0 J-67.61928934010152
G2 X86.59137055837563 Y120.4238578680203 I-10.796954314720812 J-56.60659898477157
G2 X96.92893401015228 Y114.84517766497461 I-22.053299492385786 J-53.23857868020305
G2 X106.73350253807106 Y106.73350253807106 I-38.00761421319797 J-55.923857868020306
G2 X114.84517766497461 Y96.92893401015228 I-47.81218274111676 J-47.81218274111676
G2 X120.4238578680203 Y86.59137055837563 I-47.65989847715736 J-32.390862944162436
G2 X123.79187817258882 Y75.33502538071066 I-53.23857868020305 J-22.053299492385786
G2 X124.98730964467006 Y62.664974619289346 I-66.42131979695432 J-12.670050761421319
G0 Z15
G0 X124.98832487309645 Y62.66548223350254
G1 Z-2.5 F800
G2 X123.79187817258882 Y49.99492385786802 I-67.61928934010152 J0 F1500
G2 X120.4238578680203 Y38.74111675126903 I-56.60659898477157 J10.796954314720812
G2 X114.84517766497461 Y28.401015228426395 I-53.23857868020305 J22.053299492385786
G2 X106.73350253807106 Y18.596446700507613 I-55.923857868020306 J38.00761421319797
G2 X96.92893401015228 Y10.48477157360406 I-47.81218274111676 J47.81218274111676
G2 X86.59137055837563 Y4.906091370558376 I-32.390862944162436 J47.65989847715736
G2 X75.33502538071066 Y1.5406091370558375 I-22.053299492385786 J53.23857868020305
G2 X62.664974619289346 Y0.3426395939086294 I-12.670050761421319 J66.42131979695432
G2 X49.99492385786802 Y1.5406091370558375 I0 J67.61928934010152
G2 X38.74111675126903 Y4.906091370558376 I10.796954314720812 J56.60659898477157
G2 X28.401015228426395 Y10.48477157360406 I22.053299492385786 J53.23857868020305
G2 X18.596446700507613 Y18.596446700507613 I38.00761421319797 J55.923857868020306
G2 X10.48477157360406 Y28.401015228426395 I47.81218274111676 J47.81218274111676
G2 X4.906091370558376 Y38.74111675126903 I47.65989847715736 J32.390862944162436
G2 X1.5406091370558375 Y49.99492385786802 I53.23857868020305 J22.053299492385786
G2 X0.3426395939086294 Y62.664974619289346 I66.42131979695432 J12.670050761421319
G2 X1.5406091370558375 Y75.33502538071066 I67.61928934010152 J0
G2 X4.906091370558376 Y86.59137055837563 I56.60659898477157 J-10.796954314720812
G2 X10.48477157360406 Y96.92893401015228 I53.23857868020305 J-22.053299492385786
G2 X18.596446700507613 Y106.73350253807106 I55.923857868020306 J-38.00761421319797
G2 X28.401015228426395 Y114.84517766497461 I47.81218274111676 J-47.81218274111676
G2 X38.74111675126903 Y120.4238578680203 I32.390862944162436 J-47.65989847715736
G2 X49.99492385786802 Y123.79187817258882 I22.053299492385786 J-53.23857868020305
G2 X62.664974619289346 Y124.98730964467006 I12.670050761421319 J-66.42131979695432
G2 X75.33502538071066 Y123.79187817258882 I0 J-67.61928934010152
G2 X86.59137055837563 Y120.4238578680203 I-10.796954314720812 J-56.60659898477157
G2 X96.92893401015228 Y114.84517766497461 I-22.053299492385786 J-53.23857868020305
G2 X106.73350253807106 Y106.73350253807106 I-38.00761421319797 J-55.923857868020306
G2 X114.84517766497461 Y96.92893401015228 I-47.81218274111676 J-47.81218274111676
G2 X120.4238578680203 Y86.59137055837563 I-47.65989847715736 J-32.390862944162436
G2 X123.79187817258882 Y75.33502538071066 I-53.23857868020305 J-22.053299492385786
G2 X124.98730964467006 Y62.664974619289346 I-66.42131979695432 J-12.670050761421319
G0 Z15
G0 X124.98832487309645 Y62.66548223350254
G1 Z-3 F800
G2 X123.79187817258882 Y49.99492385786802 I-67.61928934010152 J0 F1500
G2 X120.4238578680203 Y38.74111675126903 I-56.60659898477157 J10.796954314720812
G2 X114.84517766497461 Y28.401015228426395 I-53.23857868020305 J22.053299492385786
G2 X106.73350253807106 Y18.596446700507613 I-55.923857868020306 J38.00761421319797
G2 X96.92893401015228 Y10.48477157360406 I-47.81218274111676 J47.81218274111676
G2 X86.59137055837563 Y4.906091370558376 I-32.390862944162436 J47.65989847715736
G2 X75.33502538071066 Y1.5406091370558375 I-22.053299492385786 J53.23857868020305
G2 X62.664974619289346 Y0.3426395939086294 I-12.670050761421319 J66.42131979695432
G2 X49.99492385786802 Y1.5406091370558375 I0 J67.61928934010152
G2 X38.74111675126903 Y4.906091370558376 I10.796954314720812 J56.60659898477157
G2 X28.401015228426395 Y10.48477157360406 I22.053299492385786 J53.23857868020305
G2 X18.596446700507613 Y18.596446700507613 I38.00761421319797 J55.923857868020306
G2 X10.48477157360406 Y28.401015228426395 I47.81218274111676 J47.81218274111676
G2 X4.906091370558376 Y38.74111675126903 I47.65989847715736 J32.390862944162436
G2 X1.5406091370558375 Y49.99492385786802 I53.23857868020305 J22.053299492385786
G2 X0.3426395939086294 Y62.664974619289346 I66.42131979695432 J12.670050761421319
G2 X1.5406091370558375 Y75.33502538071066 I67.61928934010152 J0
G2 X4.906091370558376 Y86.59137055837563 I56.60659898477157 J-10.796954314720812
G2 X10.48477157360406 Y96.92893401015228 I53.23857868020305 J-22.053299492385786
G2 X18.596446700507613 Y106.73350253807106 I55.923857868020306 J-38.00761421319797
G2 X28.401015228426395 Y114.84517766497461 I47.81218274111676 J-47.81218274111676
G2 X38.74111675126903 Y120.4238578680203 I32.390862944162436 J-47.65989847715736
G2 X49.99492385786802 Y123.79187817258882 I22.053299492385786 J-53.23857868020305
G2 X62.664974619289346 Y124.98730964467006 I12.670050761421319 J-66.42131979695432
G2 X75.33502538071066 Y123.79187817258882 I0 J-67.61928934010152
G2 X86.59137055837563 Y120.4238578680203 I-10.796954314720812 J-56.60659898477157
G2 X96.92893401015228 Y114.84517766497461 I-22.053299492385786 J-53.23857868020305
G2 X106.73350253807106 Y106.73350253807106 I-38.00761421319797 J-55.923857868020306
G2 X114.84517766497461 Y96.92893401015228 I-47.81218274111676 J-47.81218274111676
G2 X120.4238578680203 Y86.59137055837563 I-47.65989847715736 J-32.390862944162436
G2 X123.79187817258882 Y75.33502538071066 I-53.23857868020305 J-22.053299492385786
G2 X124.98730964467006 Y62.664974619289346 I-66.42131979695432 J-12.670050761421319
G0 Z15
G0 X124.98832487309645 Y62.66548223350254
G1 Z-3.5 F800
G2 X123.79187817258882 Y49.99492385786802 I-67.61928934010152 J0 F1500
G2 X120.4238578680203 Y38.74111675126903 I-56.60659898477157 J10.796954314720812
G2 X114.84517766497461 Y28.401015228426395 I-53.23857868020305 J22.053299492385786
G2 X106.73350253807106 Y18.596446700507613 I-55.923857868020306 J38.00761421319797
G2 X96.92893401015228 Y10.48477157360406 I-47.81218274111676 J47.81218274111676
G2 X86.59137055837563 Y4.906091370558376 I-32.390862944162436 J47.65989847715736
G2 X75.33502538071066 Y1.5406091370558375 I-22.053299492385786 J53.23857868020305
G2 X62.664974619289346 Y0.3426395939086294 I-12.670050761421319 J66.42131979695432
G2 X49.99492385786802 Y1.5406091370558375 I0 J67.61928934010152
G2 X38.74111675126903 Y4.906091370558376 I10.796954314720812 J56.60659898477157
G2 X28.401015228426395 Y10.48477157360406 I22.053299492385786 J53.23857868020305
G2 X18.596446700507613 Y18.596446700507613 I38.00761421319797 J55.923857868020306
G2 X10.48477157360406 Y28.401015228426395 I47.81218274111676 J47.81218274111676
G2 X4.906091370558376 Y38.74111675126903 I47.65989847715736 J32.390862944162436
G2 X1.5406091370558375 Y49.99492385786802 I53.23857868020305 J22.053299492385786
G2 X0.3426395939086294 Y62.664974619289346 I66.42131979695432 J12.670050761421319
G2 X1.5406091370558375 Y75.33502538071066 I67.61928934010152 J0
G2 X4.906091370558376 Y86.59137055837563 I56.60659898477157 J-10.796954314720812
G2 X10.48477157360406 Y96.92893401015228 I53.23857868020305 J-22.053299492385786
G2 X18.596446700507613 Y106.73350253807106 I55.923857868020306 J-38.00761421319797
G2 X28.401015228426395 Y114.84517766497461 I47.81218274111676 J-47.81218274111676
G2 X38.74111675126903 Y120.4238578680203 I32.390862944162436 J-47.65989847715736
G2 X49.99492385786802 Y123.79187817258882 I22.053299492385786 J-53.23857868020305
G2 X62.664974619289346 Y124.98730964467006 I12.670050761421319 J-66.42131979695432
G2 X75.33502538071066 Y123.79187817258882 I0 J-67.61928934010152
G2 X86.59137055837563 Y120.4238578680203 I-10.796954314720812 J-56.60659898477157
G2 X96.92893401015228 Y114.84517766497461 I-22.053299492385786 J-53.23857868020305
G2 X106.73350253807106 Y106.73350253807106 I-38.00761421319797 J-55.923857868020306
G2 X114.84517766497461 Y96.92893401015228 I-47.81218274111676 J-47.81218274111676
G2 X120.4238578680203 Y86.59137055837563 I-47.65989847715736 J-32.390862944162436
G2 X123.79187817258882 Y75.33502538071066 I-53.23857868020305 J-22.053299492385786
G2 X124.98730964467006 Y62.664974619289346 I-66.42131979695432 J-12.670050761421319
G0 Z15
G0 X124.98832487309645 Y62.66548223350254
G1 Z-4 F800
G2 X123.79187817258882 Y49.99492385786802 I-67.61928934010152 J0 F1500
G2 X120.4238578680203 Y38.74111675126903 I-56.60659898477157 J10.796954314720812
G2 X114.84517766497461 Y28.401015228426395 I-53.23857868020305 J22.053299492385786
G2 X106.73350253807106 Y18.596446700507613 I-55.923857868020306 J38.00761421319797
G2 X96.92893401015228 Y10.48477157360406 I-47.81218274111676 J47.81218274111676
G2 X86.59137055837563 Y4.906091370558376 I-32.390862944162436 J47.65989847715736
G2 X75.33502538071066 Y1.5406091370558375 I-22.053299492385786 J53.23857868020305
G2 X62.664974619289346 Y0.3426395939086294 I-12.670050761421319 J66.42131979695432
G2 X49.99492385786802 Y1.5406091370558375 I0 J67.61928934010152
G2 X38.74111675126903 Y4.906091370558376 I10.796954314720812 J56.60659898477157
G2 X28.401015228426395 Y10.48477157360406 I22.053299492385786 J53.23857868020305
G2 X18.596446700507613 Y18.596446700507613 I38.00761421319797 J55.923857868020306
G2 X10.48477157360406 Y28.401015228426395 I47.81218274111676 J47.81218274111676
G2 X4.906091370558376 Y38.74111675126903 I47.65989847715736 J32.390862944162436
G2 X1.5406091370558375 Y49.99492385786802 I53.23857868020305 J22.053299492385786
G2 X0.3426395939086294 Y62.664974619289346 I66.42131979695432 J12.670050761421319
G2 X1.5406091370558375 Y75.33502538071066 I67.61928934010152 J0
G2 X4.906091370558376 Y86.59137055837563 I56.60659898477157 J-10.796954314720812
G2 X10.48477157360406 Y96.92893401015228 I53.23857868020305 J-22.053299492385786
G2 X18.596446700507613 Y106.73350253807106 I55.923857868020306 J-38.00761421319797
G2 X28.401015228426395 Y114.84517766497461 I47.81218274111676 J-47.81218274111676
G2 X38.74111675126903 Y120.4238578680203 I32.390862944162436 J-47.65989847715736
G2 X49.99492385786802 Y123.79187817258882 I22.053299492385786 J-53.23857868020305
G2 X62.664974619289346 Y124.98730964467006 I12.670050761421319 J-66.42131979695432
G2 X75.33502538071066 Y123.79187817258882 I0 J-67.61928934010152
G2 X86.59137055837563 Y120.4238578680203 I-10.796954314720812 J-56.60659898477157
G2 X96.92893401015228 Y114.84517766497461 I-22.053299492385786 J-53.23857868020305
G2 X106.73350253807106 Y106.73350253807106 I-38.00761421319797 J-55.923857868020306
G2 X114.84517766497461 Y96.92893401015228 I-47.81218274111676 J-47.81218274111676
G2 X120.4238578680203 Y86.59137055837563 I-47.65989847715736 J-32.390862944162436
G2 X123.79187817258882 Y75.33502538071066 I-53.23857868020305 J-22.053299492385786
G2 X124.98730964467006 Y62.664974619289346 I-66.42131979695432 J-12.670050761421319
G0 Z15
G0 X124.98832487309645 Y62.66548223350254
G1 Z-4.5 F800
G2 X123.79187817258882 Y49.99492385786802 I-67.61928934010152 J0 F1500
G2 X120.4238578680203 Y38.74111675126903 I-56.60659898477157 J10.796954314720812
G2 X114.84517766497461 Y28.401015228426395 I-53.23857868020305 J22.053299492385786
G2 X106.73350253807106 Y18.596446700507613 I-55.923857868020306 J38.00761421319797
G2 X96.92893401015228 Y10.48477157360406 I-47.81218274111676 J47.81218274111676
G2 X86.59137055837563 Y4.906091370558376 I-32.390862944162436 J47.65989847715736
G2 X75.33502538071066 Y1.5406091370558375 I-22.053299492385786 J53.23857868020305
G2 X62.664974619289346 Y0.3426395939086294 I-12.670050761421319 J66.42131979695432
G2 X49.99492385786802 Y1.5406091370558375 I0 J67.61928934010152
G2 X38.74111675126903 Y4.906091370558376 I10.796954314720812 J56.60659898477157
G2 X28.401015228426395 Y10.48477157360406 I22.053299492385786 J53.23857868020305
G2 X18.596446700507613 Y18.596446700507613 I38.00761421319797 J55.923857868020306
G2 X10.48477157360406 Y28.401015228426395 I47.81218274111676 J47.81218274111676
G2 X4.906091370558376 Y38.74111675126903 I47.65989847715736 J32.390862944162436
G2 X1.5406091370558375 Y49.99492385786802 I53.23857868020305 J22.053299492385786
G2 X0.3426395939086294 Y62.664974619289346 I66.42131979695432 J12.670050761421319
G2 X1.5406091370558375 Y75.33502538071066 I67.61928934010152 J0
G2 X4.906091370558376 Y86.59137055837563 I56.60659898477157 J-10.796954314720812
G2 X10.48477157360406 Y96.92893401015228 I53.23857868020305 J-22.053299492385786
G2 X18.596446700507613 Y106.73350253807106 I55.923857868020306 J-38.00761421319797
G2 X28.401015228426395 Y114.84517766497461 I47.81218274111676 J-47.81218274111676
G2 X38.74111675126903 Y120.4238578680203 I32.390862944162436 J-47.65989847715736
G2 X49.99492385786802 Y123.79187817258882 I22.053299492385786 J-53.23857868020305
G2 X62.664974619289346 Y124.98730964467006 I12.670050761421319 J-66.42131979695432
G2 X75.33502538071066 Y123.79187817258882 I0 J-67.61928934010152
G2 X86.59137055837563 Y120.4238578680203 I-10.796954314720812 J-56.60659898477157
G2 X96.92893401015228 Y114.84517766497461 I-22.053299492385786 J-53.23857868020305
G2 X106.73350253807106 Y106.73350253807106 I-38.00761421319797 J-55.923857868020306
G2 X114.84517766497461 Y96.92893401015228 I-47.81218274111676 J-47.81218274111676
G2 X120.4238578680203 Y86.59137055837563 I-47.65989847715736 J-32.390862944162436
G2 X123.79187817258882 Y75.33502538071066 I-53.23857868020305 J-22.053299492385786
G2 X124.98730964467006 Y62.664974619289346 I-66.42131979695432 J-12.670050761421319
G0 Z15
G0 X124.98832487309645 Y62.66548223350254
G1 Z-5 F800
G2 X123.79187817258882 Y49.99492385786802 I-67.61928934010152 J0 F1500
G2 X120.4238578680203 Y38.74111675126903 I-56.60659898477157 J10.796954314720812
G2 X114.84517766497461 Y28.401015228426395 I-53.23857868020305 J22.053299492385786
G2 X106.73350253807106 Y18.596446700507613 I-55.923857868020306 J38.00761421319797
G2 X96.92893401015228 Y10.48477157360406 I-47.81218274111676 J47.81218274111676
G2 X86.59137055837563 Y4.906091370558376 I-32.390862944162436 J47.65989847715736
G2 X75.33502538071066 Y1.5406091370558375 I-22.053299492385786 J53.23857868020305
G2 X62.664974619289346 Y0.3426395939086294 I-12.670050761421319 J66.42131979695432
G2 X49.99492385786802 Y1.5406091370558375 I0 J67.61928934010152
G2 X38.74111675126903 Y4.906091370558376 I10.796954314720812 J56.60659898477157
G2 X28.401015228426395 Y10.48477157360406 I22.053299492385786 J53.23857868020305
G2 X18.596446700507613 Y18.596446700507613 I38.00761421319797 J55.923857868020306
G2 X10.48477157360406 Y28.401015228426395 I47.81218274111676 J47.81218274111676
G2 X4.906091370558376 Y38.74111675126903 I47.65989847715736 J32.390862944162436
G2 X1.5406091370558375 Y49.99492385786802 I53.23857868020305 J22.053299492385786
G2 X0.3426395939086294 Y62.664974619289346 I66.42131979695432 J12.670050761421319
G2 X1.5406091370558375 Y75.33502538071066 I67.61928934010152 J0
G2 X4.906091370558376 Y86.59137055837563 I56.60659898477157 J-10.796954314720812
G2 X10.48477157360406 Y96.92893401015228 I53.23857868020305 J-22.053299492385786
G2 X18.596446700507613 Y106.73350253807106 I55.923857868020306 J-38.00761421319797
G2 X28.401015228426395 Y114.84517766497461 I47.81218274111676 J-47.81218274111676
G2 X38.74111675126903 Y120.4238578680203 I32.390862944162436 J-47.65989847715736
G2 X49.99492385786802 Y123.79187817258882 I22.053299492385786 J-53.23857868020305
G2 X62.664974619289346 Y124.98730964467006 I12.670050761421319 J-66.42131979695432
G2 X75.33502538071066 Y123.79187817258882 I0 J-67.61928934010152
G2 X86.59137055837563 Y120.4238578680203 I-10.796954314720812 J-56.60659898477157
G2 X96.92893401015228 Y114.84517766497461 I-22.053299492385786 J-53.23857868020305
G2 X106.73350253807106 Y106.73350253807106 I-38.00761421319797 J-55.923857868020306
G2 X114.84517766497461 Y96.92893401015228 I-47.81218274111676 J-47.81218274111676
G2 X120.4238578680203 Y86.59137055837563 I-47.65989847715736 J-32.390862944162436
G2 X123.79187817258882 Y75.33502538071066 I-53.23857868020305 J-22.053299492385786
G2 X124.98730964467006 Y62.664974619289346 I-66.42131979695432 J-12.670050761421319
G0 Z15
G0 X124.98832487309645 Y62.66548223350254
G1 Z-5.3 F800
G2 X123.79187817258882 Y49.99492385786802 I-67.61928934010152 J0 F1500
G2 X120.4238578680203 Y38.74111675126903 I-56.60659898477157 J10.796954314720812
G2 X114.84517766497461 Y28.401015228426395 I-53.23857868020305 J22.053299492385786
G2 X106.73350253807106 Y18.596446700507613 I-55.923857868020306 J38.00761421319797
G2 X96.92893401015228 Y10.48477157360406 I-47.81218274111676 J47.81218274111676
G2 X86.59137055837563 Y4.906091370558376 I-32.390862944162436 J47.65989847715736
G2 X75.33502538071066 Y1.5406091370558375 I-22.053299492385786 J53.23857868020305
G2 X62.664974619289346 Y0.3426395939086294 I-12.670050761421319 J66.42131979695432
G2 X49.99492385786802 Y1.5406091370558375 I0 J67.61928934010152
G2 X38.74111675126903 Y4.906091370558376 I10.796954314720812 J56.60659898477157
G2 X28.401015228426395 Y10.48477157360406 I22.053299492385786 J53.23857868020305
G2 X18.596446700507613 Y18.596446700507613 I38.00761421319797 J55.923857868020306
G2 X10.48477157360406 Y28.401015228426395 I47.81218274111676 J47.81218274111676
G2 X4.906091370558376 Y38.74111675126903 I47.65989847715736 J32.390862944162436
G2 X1.5406091370558375 Y49.99492385786802 I53.23857868020305 J22.053299492385786
G2 X0.3426395939086294 Y62.664974619289346 I66.42131979695432 J12.670050761421319
G2 X1.5406091370558375 Y75.33502538071066 I67.61928934010152 J0
G2 X4.906091370558376 Y86.59137055837563 I56.60659898477157 J-10.796954314720812
G2 X10.48477157360406 Y96.92893401015228 I53.23857868020305 J-22.053299492385786
G2 X18.596446700507613 Y106.73350253807106 I55.923857868020306 J-38.00761421319797
G2 X28.401015228426395 Y114.84517766497461 I47.81218274111676 J-47.81218274111676
G2 X38.74111675126903 Y120.4238578680203 I32.390862944162436 J-47.65989847715736
G2 X49.99492385786802 Y123.79187817258882 I22.053299492385786 J-53.23857868020305
G2 X62.664974619289346 Y124.98730964467006 I12.670050761421319 J-66.42131979695432
G2 X75.33502538071066 Y123.79187817258882 I0 J-67.61928934010152
G2 X86.59137055837563 Y120.4238578680203 I-10.796954314720812 J-56.60659898477157
G2 X96.92893401015228 Y114.84517766497461 I-22.053299492385786 J-53.23857868020305
G2 X106.73350253807106 Y106.73350253807106 I-38.00761421319797 J-55.923857868020306
G2 X114.84517766497461 Y96.92893401015228 I-47.81218274111676 J-47.81218274111676
G2 X120.4238578680203 Y86.59137055837563 I-47.65989847715736 J-32.390862944162436
G2 X123.79187817258882 Y75.33502538071066 I-53.23857868020305 J-22.053299492385786
G2 X124.98730964467006 Y62.664974619289346 I-66.42131979695432 J-12.670050761421319
G0 Z15
M5
M30
