(Generated by PartKam Version 0.05)

G21 G90 G40

(pocket 1)
G0 Z10
T0 M6
G17
M3
G0 X75.85837563451777 Y178.89213197969542
G1 Z-0.25 F600
G1 X75.85786802030456 Y75.73604060913706 F900
G1 X76.01522842639594 Y75.73604060913706
G1 X76.01522842639594 Y178.89340101522845
G1 X75.85786802030456 Y178.89340101522845
G1 X75.22335025380711 Y179.52715736040608 F900
G1 X75.22335025380711 Y75.1015228426396 F900
G1 X76.6497461928934 Y75.1015228426396
G1 X76.6497461928934 Y179.5279187817259
G1 X75.22335025380711 Y179.5279187817259
G1 X74.58832487309644 Y180.16218274111674 F900
G1 X74.58883248730965 Y74.46700507614213 F900
G1 X77.28426395939087 Y74.46700507614213
G1 X77.28426395939087 Y180.16243654822335
G1 X74.58883248730965 Y180.16243654822335
G1 X73.95329949238578 Y180.79720812182742 F900
G1 X73.95431472081218 Y73.82994923857868 F900
G1 X77.91878172588832 Y73.82994923857868
G1 X77.91878172588832 Y180.79695431472084
G1 X73.95431472081218 Y180.79695431472084
G1 X73.31827411167512 Y181.43223350253808 F900
G1 X73.31725888324873 Y73.19543147208121 F900
G1 X78.55329949238579 Y73.19543147208121
G1 X78.55329949238579 Y181.4314720812183
G1 X73.31725888324873 Y181.4314720812183
G1 X72.68350253807107 Y182.06725888324874 F900
G1 X72.68274111675127 Y72.56091370558376 F900
G1 X79.19035532994924 Y72.56091370558376
G1 X79.19035532994924 Y182.06598984771574
G1 X72.68274111675127 Y182.06598984771574
G1 X72.04847715736041 Y182.7022842639594 F900
G1 X72.0482233502538 Y71.92639593908629 F900
G1 X79.8248730964467 Y71.92639593908629
G1 X79.8248730964467 Y182.7030456852792
G1 X72.0482233502538 Y182.7030456852792
G1 X71.41345177664975 Y183.33730964467006 F900
G1 X71.41370558375635 Y71.29187817258884 F900
G1 X80.45939086294416 Y71.29187817258884
G1 X80.45939086294416 Y183.33756345177665
G1 X71.41370558375635 Y183.33756345177665
G1 X70.77842639593909 Y183.97233502538072 F900
G1 X70.77918781725887 Y70.65736040609137 F900
G1 X81.09390862944161 Y70.65736040609137
G1 X81.09390862944161 Y183.97208121827413
G1 X70.77918781725887 Y183.97208121827413
G1 X70.14340101522842 Y184.60710659898479 F900
G1 X70.14213197969542 Y70.02030456852792 F900
G1 X81.72842639593908 Y70.02030456852792
G1 X81.72842639593908 Y184.60659898477158
G1 X70.14213197969542 Y184.60659898477158
G1 X69.50837563451776 Y185.24213197969544 F900
G1 X69.50761421319797 Y69.38578680203045 F900
G1 X82.36548223350253 Y69.38578680203045
G1 X82.36548223350253 Y185.24111675126903
G1 X69.50761421319797 Y185.24111675126903
G1 X68.8733502538071 Y185.8771573604061 F900
G1 X68.87309644670052 Y68.751269035533 F900
G1 X83 Y68.751269035533
G1 X83 Y185.87817258883248
G1 X68.87309644670052 Y185.87817258883248
G1 X68.23832487309645 Y186.51218274111676 F900
G1 X68.23857868020305 Y68.11675126903553 F900
G1 X83.63451776649747 Y68.11675126903553
G1 X83.63451776649747 Y186.51269035532994
G1 X68.23857868020305 Y186.51269035532994
G1 X67.60329949238579 Y187.14720812182742 F900
G1 X67.60406091370558 Y67.48223350253807 F900
G1 X84.26903553299493 Y67.48223350253807
G1 X84.26903553299493 Y187.14720812182742
G1 X67.60406091370558 Y187.14720812182742
G1 X66.96827411167513 Y187.78223350253808 F900
G1 X66.96954314720811 Y66.84517766497461 F900
G1 X84.90355329949239 Y66.84517766497461
G1 X84.90355329949239 Y187.78172588832487
G1 X66.96954314720811 Y187.78172588832487
G1 X66.33350253807106 Y188.41725888324873 F900
G1 X66.33248730964466 Y66.21065989847716 F900
G1 X85.54060913705584 Y66.21065989847716
G1 X85.54060913705584 Y188.41624365482232
G1 X66.33248730964466 Y188.41624365482232
G1 X65.6984771573604 Y189.0522842639594 F900
G1 X65.69796954314721 Y65.5761421319797 F900
G1 X86.17512690355329 Y65.5761421319797
G1 X86.17512690355329 Y189.05329949238578
G1 X65.69796954314721 Y189.05329949238578
G1 X65.06345177664974 Y189.68730964467005 F900
G1 X65.06345177664974 Y64.94162436548224 F900
G1 X86.80964467005076 Y64.94162436548224
G1 X86.80964467005076 Y189.68781725888323
G1 X65.06345177664974 Y189.68781725888323
G1 X64.42842639593908 Y190.3223350253807 F900
G1 X64.42893401015229 Y64.30710659898477 F900
G1 X87.44416243654823 Y64.30710659898477
G1 X87.44416243654823 Y190.3223350253807
G1 X64.42893401015229 Y190.3223350253807
G1 X63.793401015228426 Y190.95710659898478 F900
G1 X63.79441624365482 Y63.67005076142132 F900
G1 X88.07868020304568 Y63.67005076142132
G1 X88.07868020304568 Y190.95685279187816
G1 X63.79441624365482 Y190.95685279187816
G1 X63.15837563451777 Y191.59213197969544 F900
G1 X63.15736040609137 Y63.035532994923855 F900
G1 X88.71573604060913 Y63.035532994923855
G1 X88.71573604060913 Y191.59137055837564
G1 X63.15736040609137 Y191.59137055837564
G1 X62.52335025380711 Y192.2271573604061 F900
G1 X62.522842639593904 Y62.401015228426395 F900
G1 X89.35025380710661 Y62.401015228426395
G1 X89.35025380710661 Y192.2284263959391
G1 X62.522842639593904 Y192.2284263959391
G1 X61.888324873096444 Y192.86218274111675 F900
G1 X61.88832487309645 Y61.766497461928935 F900
G1 X89.98477157360406 Y61.766497461928935
G1 X89.98477157360406 Y192.86294416243658
G1 X61.88832487309645 Y192.86294416243658
G1 X61.253299492385786 Y193.4972081218274 F900
G1 X61.253807106598984 Y61.131979695431475 F900
G1 X90.61928934010153 Y61.131979695431475
G1 X90.61928934010153 Y193.49746192893403
G1 X61.253807106598984 Y193.49746192893403
G1 X60.61827411167513 Y194.13223350253807 F900
G1 X60.61928934010152 Y60.494923857868024 F900
G1 X91.25380710659898 Y60.494923857868024
G1 X91.25380710659898 Y194.13197969543148
G1 X60.61928934010152 Y194.13197969543148
G1 X59.983502538071065 Y194.76725888324873 F900
G1 X59.982233502538065 Y59.86040609137056 F900
G1 X91.88832487309645 Y59.86040609137056
G1 X91.88832487309645 Y194.76649746192894
G1 X59.982233502538065 Y194.76649746192894
G1 X59.348477157360406 Y195.4022842639594 F900
G1 X59.347715736040605 Y59.2258883248731 F900
G1 X92.5253807106599 Y59.2258883248731
G1 X92.5253807106599 Y195.4010152284264
G1 X59.347715736040605 Y195.4010152284264
G1 X58.71345177664975 Y196.03730964467005 F900
G1 X58.713197969543145 Y58.59137055837564 F900
G1 X93.15989847715736 Y58.59137055837564
G1 X93.15989847715736 Y196.03807106598987
G1 X58.713197969543145 Y196.03807106598987
G1 X58.07842639593909 Y196.6723350253807 F900
G1 X58.078680203045685 Y57.95685279187818 F900
G1 X93.79441624365482 Y57.95685279187818
G1 X93.79441624365482 Y196.67258883248732
G1 X58.078680203045685 Y196.67258883248732
G1 X57.443401015228424 Y197.30710659898477 F900
G1 X57.444162436548226 Y57.32233502538071 F900
G1 X94.42893401015228 Y57.32233502538071
G1 X94.42893401015228 Y197.30710659898477
G1 X57.444162436548226 Y197.30710659898477
G1 X56.808375634517766 Y197.94213197969543 F900
G1 X56.80964467005076 Y56.68527918781726 F900
G1 X95.06345177664974 Y56.68527918781726
G1 X95.06345177664974 Y197.94162436548223
G1 X56.80964467005076 Y197.94162436548223
G1 X56.17335025380711 Y198.5771573604061 F900
G1 X56.17258883248731 Y56.05076142131979 F900
G1 X95.7005076142132 Y56.05076142131979
G1 X95.7005076142132 Y198.57614213197968
G1 X56.17258883248731 Y198.57614213197968
G1 X55.53832487309645 Y199.21218274111675 F900
G1 X55.53807106598985 Y55.41624365482234 F900
G1 X96.33502538071068 Y55.41624365482234
G1 X96.33502538071068 Y199.21319796954316
G1 X55.53807106598985 Y199.21319796954316
G1 X54.903299492385784 Y199.8472081218274 F900
G1 X54.90355329949239 Y54.78172588832487 F900
G1 X96.96954314720813 Y54.78172588832487
G1 X96.96954314720813 Y199.8477157360406
G1 X54.90355329949239 Y199.8477157360406
G1 X54.268274111675126 Y200.48223350253807 F900
G1 X54.26903553299493 Y54.14720812182742 F900
G1 X97.60406091370558 Y54.14720812182742
G1 X97.60406091370558 Y200.48223350253807
G1 X54.26903553299493 Y200.48223350253807
G1 X53.63350253807106 Y201.11725888324872 F900
G1 X53.63451776649746 Y53.51015228426397 F900
G1 X98.23857868020305 Y53.51015228426397
G1 X98.23857868020305 Y201.11675126903552
G1 X53.63451776649746 Y201.11675126903552
G1 X52.998477157360405 Y201.75228426395938 F900
G1 X52.99746192893401 Y52.87563451776649 F900
G1 X98.8756345177665 Y52.87563451776649
G1 X98.8756345177665 Y201.75126903553297
G1 X52.99746192893401 Y201.75126903553297
G1 X52.36345177664975 Y202.38730964467004 F900
G1 X52.36294416243655 Y52.24111675126903 F900
G1 X99.51015228426397 Y52.24111675126903
G1 X99.51015228426397 Y202.38832487309645
G1 X52.36294416243655 Y202.38832487309645
G1 X51.72842639593909 Y203.0223350253807 F900
G1 X51.72842639593909 Y51.60659898477157 F900
G1 X100.14467005076142 Y51.60659898477157
G1 X100.14467005076142 Y203.0228426395939
G1 X51.72842639593909 Y203.0228426395939
G1 X51.09340101522842 Y203.65710659898477 F900
G1 X51.09390862944163 Y50.97208121827411 F900
G1 X100.77918781725887 Y50.97208121827411
G1 X100.77918781725887 Y203.65736040609136
G1 X51.09390862944163 Y203.65736040609136
G1 X50.458375634517765 Y204.29213197969543 F900
G1 X50.45939086294417 Y50.33502538071066 F900
G1 X101.41370558375634 Y50.33502538071066
G1 X101.41370558375634 Y204.2918781725888
G1 X50.45939086294417 Y204.2918781725888
G1 X49.82335025380711 Y204.92715736040608 F900
G1 X49.82233502538071 Y49.700507614213194 F900
G1 X102.05076142131979 Y49.700507614213194
G1 X102.05076142131979 Y204.92639593908632
G1 X49.82233502538071 Y204.92639593908632
G1 X49.18832487309645 Y205.56218274111674 F900
G1 X49.18781725888324 Y49.065989847715734 F900
G1 X102.68527918781726 Y49.065989847715734
G1 X102.68527918781726 Y205.56345177664977
G1 X49.18781725888324 Y205.56345177664977
G1 X48.55329949238579 Y206.1972081218274 F900
G1 X48.55329949238579 Y48.431472081218274 F900
G1 X103.31979695431473 Y48.431472081218274
G1 X103.31979695431473 Y206.19796954314722
G1 X48.55329949238579 Y206.19796954314722
G1 X47.918274111675125 Y206.83223350253806 F900
G1 X47.91878172588832 Y47.796954314720814 F900
G1 X103.95431472081219 Y47.796954314720814
G1 X103.95431472081219 Y206.83248730964468
G1 X47.91878172588832 Y206.83248730964468
G1 X47.28350253807107 Y207.46725888324872 F900
G1 X47.28426395939087 Y47.15989847715736 F900
G1 X104.58883248730965 Y47.15989847715736
G1 X104.58883248730965 Y207.46700507614213
G1 X47.28426395939087 Y207.46700507614213
G1 X46.648477157360404 Y208.1022842639594 F900
G1 X46.64720812182742 Y46.5253807106599 F900
G1 X105.22335025380711 Y46.5253807106599
G1 X105.22335025380711 Y208.1015228426396
G1 X46.64720812182742 Y208.1015228426396
G1 X46.013451776649745 Y208.73730964467006 F900
G1 X46.012690355329944 Y45.890862944162436 F900
G1 X105.86040609137056 Y45.890862944162436
G1 X105.86040609137056 Y208.73604060913706
G1 X46.012690355329944 Y208.73604060913706
G1 X45.37842639593909 Y209.37233502538072 F900
G1 X45.378172588832484 Y45.256345177664976 F900
G1 X106.49492385786802 Y45.256345177664976
G1 X106.49492385786802 Y209.37309644670052
G1 X45.378172588832484 Y209.37309644670052
G1 X44.74340101522843 Y210.00710659898476 F900
G1 X44.743654822335024 Y44.621827411167516 F900
G1 X107.12944162436548 Y44.621827411167516
G1 X107.12944162436548 Y210.00761421319797
G1 X44.743654822335024 Y210.00761421319797
G1 X44.10837563451776 Y210.64213197969542 F900
G1 X44.109137055837564 Y43.987309644670056 F900
G1 X107.76395939086294 Y43.987309644670056
G1 X107.76395939086294 Y210.64213197969542
G1 X44.109137055837564 Y210.64213197969542
G1 X43.473350253807105 Y211.27715736040608 F900
G1 X43.4746192893401 Y43.350253807106604 F900
G1 X108.3984771573604 Y43.350253807106604
G1 X108.3984771573604 Y211.2766497461929
G1 X43.4746192893401 Y211.2766497461929
G1 X42.83832487309645 Y211.91218274111674 F900
G1 X42.837563451776646 Y42.71573604060913 F900
G1 X109.03553299492386 Y42.71573604060913
G1 X109.03553299492386 Y211.91116751269035
G1 X42.837563451776646 Y211.91116751269035
G1 X42.20329949238579 Y212.54720812182742 F900
G1 X42.203045685279186 Y42.08121827411168 F900
G1 X109.67005076142131 Y42.08121827411168
G1 X109.67005076142131 Y212.5482233502538
G1 X42.203045685279186 Y212.5482233502538
G1 X41.56827411167513 Y213.18223350253808 F900
G1 X41.568527918781726 Y41.44670050761421 F900
G1 X110.30456852791879 Y41.44670050761421
G1 X110.30456852791879 Y213.18274111675126
G1 X41.568527918781726 Y213.18274111675126
G1 X40.93350253807107 Y213.81725888324874 F900
G1 X40.934010152284266 Y40.81218274111676 F900
G1 X110.93908629441626 Y40.81218274111676
G1 X110.93908629441626 Y213.8172588832487
G1 X40.934010152284266 Y213.8172588832487
G1 X40.29847715736041 Y214.4522842639594 F900
G1 X40.299492385786806 Y40.175126903553306 F900
G1 X111.57360406091371 Y40.175126903553306
G1 X111.57360406091371 Y214.4517766497462
G1 X40.299492385786806 Y214.4517766497462
G1 X39.663451776649744 Y215.08730964467006 F900
G1 X39.66243654822335 Y39.54060913705584 F900
G1 X112.21065989847716 Y39.54060913705584
G1 X112.21065989847716 Y215.08629441624365
G1 X39.66243654822335 Y215.08629441624365
G1 X39.028426395939086 Y215.72233502538072 F900
G1 X39.02791878172589 Y38.90609137055838 F900
G1 X112.84517766497461 Y38.90609137055838
G1 X112.84517766497461 Y215.7233502538071
G1 X39.02791878172589 Y215.7233502538071
G1 X38.39340101522843 Y216.35710659898479 F900
G1 X38.39340101522843 Y38.27157360406091 F900
G1 X113.47969543147208 Y38.27157360406091
G1 X113.47969543147208 Y216.35786802030455
G1 X38.39340101522843 Y216.35786802030455
G1 X37.75837563451777 Y216.99213197969544 F900
G1 X37.75888324873097 Y37.63705583756345 F900
G1 X114.11421319796955 Y37.63705583756345
G1 X114.11421319796955 Y216.992385786802
G1 X37.75888324873097 Y216.992385786802
G1 X37.123350253807104 Y217.6271573604061 F900
G1 X37.1243654822335 Y37 F900
G1 X114.748730964467 Y37
G1 X114.748730964467 Y217.62690355329948
G1 X37.1243654822335 Y217.62690355329948
G1 X36.488324873096445 Y218.26218274111676 F900
G1 X36.48730964467005 Y36.36548223350254 F900
G1 X115.38324873096445 Y36.36548223350254
G1 X115.38324873096445 Y218.26142131979694
G1 X36.48730964467005 Y218.26142131979694
G1 X35.85329949238579 Y218.89720812182742 F900
G1 X35.85279187817259 Y35.73096446700508 F900
G1 X116.0203045685279 Y35.73096446700508
G1 X116.0203045685279 Y218.8984771573604
G1 X35.85279187817259 Y218.8984771573604
G1 X35.21827411167513 Y219.53223350253808 F900
G1 X35.21827411167513 Y35.09644670050761 F900
G1 X116.65482233502537 Y35.09644670050761
G1 X116.65482233502537 Y219.53299492385787
G1 X35.21827411167513 Y219.53299492385787
G1 X34.583502538071066 Y220.16725888324873 F900
G1 X34.58375634517766 Y34.46192893401015 F900
G1 X117.28934010152285 Y34.46192893401015
G1 X117.28934010152285 Y220.16751269035535
G1 X34.58375634517766 Y220.16751269035535
G1 X33.94847715736041 Y220.8022842639594 F900
G1 X33.9492385786802 Y33.8248730964467 F900
G1 X117.9238578680203 Y33.8248730964467
G1 X117.9238578680203 Y220.8020304568528
G1 X33.9492385786802 Y220.8020304568528
G1 X33.31345177664975 Y221.43730964467005 F900
G1 X33.31218274111675 Y33.190355329949234 F900
G1 X118.55837563451777 Y33.190355329949234
G1 X118.55837563451777 Y221.43654822335026
G1 X33.31218274111675 Y221.43654822335026
G1 X32.678426395939084 Y222.0723350253807 F900
G1 X32.67766497461929 Y32.555837563451774 F900
G1 X119.19543147208122 Y32.555837563451774
G1 X119.19543147208122 Y222.07106598984774
G1 X32.67766497461929 Y222.07106598984774
G1 X32.043401015228426 Y222.70710659898478 F900
G1 X32.04314720812183 Y31.921319796954315 F900
G1 X119.82994923857868 Y31.921319796954315
G1 X119.82994923857868 Y222.70812182741116
G1 X32.04314720812183 Y222.70812182741116
G1 X31.408375634517768 Y223.34213197969544 F900
G1 X31.408629441624363 Y31.286802030456855 F900
G1 X120.46446700507614 Y31.286802030456855
G1 X120.46446700507614 Y223.34263959390864
G1 X31.408629441624363 Y223.34263959390864
G1 X30.773350253807106 Y223.9771573604061 F900
G1 X30.774111675126903 Y30.652284263959395 F900
G1 X121.0989847715736 Y30.652284263959395
G1 X121.0989847715736 Y223.9771573604061
G1 X30.774111675126903 Y223.9771573604061
G1 X30.138324873096447 Y224.61218274111675 F900
G1 X30.13959390862944 Y30.015228426395943 F900
G1 X121.73350253807106 Y30.015228426395943
G1 X121.73350253807106 Y224.61167512690355
G1 X30.13959390862944 Y224.61167512690355
G1 X29.503299492385786 Y225.2472081218274 F900
G1 X29.502538071065988 Y29.380710659898476 F900
G1 X122.37055837563452 Y29.380710659898476
G1 X122.37055837563452 Y225.24619289340103
G1 X29.502538071065988 Y225.24619289340103
G1 X28.868274111675127 Y225.88223350253807 F900
G1 X28.868020304568528 Y28.746192893401016 F900
G1 X123.00507614213197 Y28.746192893401016
G1 X123.00507614213197 Y225.88324873096445
G1 X28.868020304568528 Y225.88324873096445
G1 X28.233502538071065 Y226.51725888324873 F900
G1 X28.233502538071065 Y28.111675126903553 F900
G1 X123.63959390862945 Y28.111675126903553
G1 X123.63959390862945 Y226.51776649746193
G1 X28.233502538071065 Y226.51776649746193
G1 X27.598477157360406 Y227.1522842639594 F900
G1 X27.598984771573605 Y27.477157360406093 F900
G1 X124.2741116751269 Y27.477157360406093
G1 X124.2741116751269 Y227.1522842639594
G1 X27.598984771573605 Y227.1522842639594
G1 X26.963451776649745 Y227.78730964467005 F900
G1 X26.96446700507614 Y26.84010152284264 F900
G1 X124.90862944162437 Y26.84010152284264
G1 X124.90862944162437 Y227.78680203045684
G1 X26.96446700507614 Y227.78680203045684
G0 Z10
G0 X75.85837563451777 Y178.89213197969542
G1 Z-0.5 F600
G1 X75.85786802030456 Y75.73604060913706 F900
G1 X76.01522842639594 Y75.73604060913706
G1 X76.01522842639594 Y178.89340101522845
G1 X75.85786802030456 Y178.89340101522845
G1 X75.22335025380711 Y179.52715736040608 F900
G1 X75.22335025380711 Y75.1015228426396 F900
G1 X76.6497461928934 Y75.1015228426396
G1 X76.6497461928934 Y179.5279187817259
G1 X75.22335025380711 Y179.5279187817259
G1 X74.58832487309644 Y180.16218274111674 F900
G1 X74.58883248730965 Y74.46700507614213 F900
G1 X77.28426395939087 Y74.46700507614213
G1 X77.28426395939087 Y180.16243654822335
G1 X74.58883248730965 Y180.16243654822335
G1 X73.95329949238578 Y180.79720812182742 F900
G1 X73.95431472081218 Y73.82994923857868 F900
G1 X77.91878172588832 Y73.82994923857868
G1 X77.91878172588832 Y180.79695431472084
G1 X73.95431472081218 Y180.79695431472084
G1 X73.31827411167512 Y181.43223350253808 F900
G1 X73.31725888324873 Y73.19543147208121 F900
G1 X78.55329949238579 Y73.19543147208121
G1 X78.55329949238579 Y181.4314720812183
G1 X73.31725888324873 Y181.4314720812183
G1 X72.68350253807107 Y182.06725888324874 F900
G1 X72.68274111675127 Y72.56091370558376 F900
G1 X79.19035532994924 Y72.56091370558376
G1 X79.19035532994924 Y182.06598984771574
G1 X72.68274111675127 Y182.06598984771574
G1 X72.04847715736041 Y182.7022842639594 F900
G1 X72.0482233502538 Y71.92639593908629 F900
G1 X79.8248730964467 Y71.92639593908629
G1 X79.8248730964467 Y182.7030456852792
G1 X72.0482233502538 Y182.7030456852792
G1 X71.41345177664975 Y183.33730964467006 F900
G1 X71.41370558375635 Y71.29187817258884 F900
G1 X80.45939086294416 Y71.29187817258884
G1 X80.45939086294416 Y183.33756345177665
G1 X71.41370558375635 Y183.33756345177665
G1 X70.77842639593909 Y183.97233502538072 F900
G1 X70.77918781725887 Y70.65736040609137 F900
G1 X81.09390862944161 Y70.65736040609137
G1 X81.09390862944161 Y183.97208121827413
G1 X70.77918781725887 Y183.97208121827413
G1 X70.14340101522842 Y184.60710659898479 F900
G1 X70.14213197969542 Y70.02030456852792 F900
G1 X81.72842639593908 Y70.02030456852792
G1 X81.72842639593908 Y184.60659898477158
G1 X70.14213197969542 Y184.60659898477158
G1 X69.50837563451776 Y185.24213197969544 F900
G1 X69.50761421319797 Y69.38578680203045 F900
G1 X82.36548223350253 Y69.38578680203045
G1 X82.36548223350253 Y185.24111675126903
G1 X69.50761421319797 Y185.24111675126903
G1 X68.8733502538071 Y185.8771573604061 F900
G1 X68.87309644670052 Y68.751269035533 F900
G1 X83 Y68.751269035533
G1 X83 Y185.87817258883248
G1 X68.87309644670052 Y185.87817258883248
G1 X68.23832487309645 Y186.51218274111676 F900
G1 X68.23857868020305 Y68.11675126903553 F900
G1 X83.63451776649747 Y68.11675126903553
G1 X83.63451776649747 Y186.51269035532994
G1 X68.23857868020305 Y186.51269035532994
G1 X67.60329949238579 Y187.14720812182742 F900
G1 X67.60406091370558 Y67.48223350253807 F900
G1 X84.26903553299493 Y67.48223350253807
G1 X84.26903553299493 Y187.14720812182742
G1 X67.60406091370558 Y187.14720812182742
G1 X66.96827411167513 Y187.78223350253808 F900
G1 X66.96954314720811 Y66.84517766497461 F900
G1 X84.90355329949239 Y66.84517766497461
G1 X84.90355329949239 Y187.78172588832487
G1 X66.96954314720811 Y187.78172588832487
G1 X66.33350253807106 Y188.41725888324873 F900
G1 X66.33248730964466 Y66.21065989847716 F900
G1 X85.54060913705584 Y66.21065989847716
G1 X85.54060913705584 Y188.41624365482232
G1 X66.33248730964466 Y188.41624365482232
G1 X65.6984771573604 Y189.0522842639594 F900
G1 X65.69796954314721 Y65.5761421319797 F900
G1 X86.17512690355329 Y65.5761421319797
G1 X86.17512690355329 Y189.05329949238578
G1 X65.69796954314721 Y189.05329949238578
G1 X65.06345177664974 Y189.68730964467005 F900
G1 X65.06345177664974 Y64.94162436548224 F900
G1 X86.80964467005076 Y64.94162436548224
G1 X86.80964467005076 Y189.68781725888323
G1 X65.06345177664974 Y189.68781725888323
G1 X64.42842639593908 Y190.3223350253807 F900
G1 X64.42893401015229 Y64.30710659898477 F900
G1 X87.44416243654823 Y64.30710659898477
G1 X87.44416243654823 Y190.3223350253807
G1 X64.42893401015229 Y190.3223350253807
G1 X63.793401015228426 Y190.95710659898478 F900
G1 X63.79441624365482 Y63.67005076142132 F900
G1 X88.07868020304568 Y63.67005076142132
G1 X88.07868020304568 Y190.95685279187816
G1 X63.79441624365482 Y190.95685279187816
G1 X63.15837563451777 Y191.59213197969544 F900
G1 X63.15736040609137 Y63.035532994923855 F900
G1 X88.71573604060913 Y63.035532994923855
G1 X88.71573604060913 Y191.59137055837564
G1 X63.15736040609137 Y191.59137055837564
G1 X62.52335025380711 Y192.2271573604061 F900
G1 X62.522842639593904 Y62.401015228426395 F900
G1 X89.35025380710661 Y62.401015228426395
G1 X89.35025380710661 Y192.2284263959391
G1 X62.522842639593904 Y192.2284263959391
G1 X61.888324873096444 Y192.86218274111675 F900
G1 X61.88832487309645 Y61.766497461928935 F900
G1 X89.98477157360406 Y61.766497461928935
G1 X89.98477157360406 Y192.86294416243658
G1 X61.88832487309645 Y192.86294416243658
G1 X61.253299492385786 Y193.4972081218274 F900
G1 X61.253807106598984 Y61.131979695431475 F900
G1 X90.61928934010153 Y61.131979695431475
G1 X90.61928934010153 Y193.49746192893403
G1 X61.253807106598984 Y193.49746192893403
G1 X60.61827411167513 Y194.13223350253807 F900
G1 X60.61928934010152 Y60.494923857868024 F900
G1 X91.25380710659898 Y60.494923857868024
G1 X91.25380710659898 Y194.13197969543148
G1 X60.61928934010152 Y194.13197969543148
G1 X59.983502538071065 Y194.76725888324873 F900
G1 X59.982233502538065 Y59.86040609137056 F900
G1 X91.88832487309645 Y59.86040609137056
G1 X91.88832487309645 Y194.76649746192894
G1 X59.982233502538065 Y194.76649746192894
G1 X59.348477157360406 Y195.4022842639594 F900
G1 X59.347715736040605 Y59.2258883248731 F900
G1 X92.5253807106599 Y59.2258883248731
G1 X92.5253807106599 Y195.4010152284264
G1 X59.347715736040605 Y195.4010152284264
G1 X58.71345177664975 Y196.03730964467005 F900
G1 X58.713197969543145 Y58.59137055837564 F900
G1 X93.15989847715736 Y58.59137055837564
G1 X93.15989847715736 Y196.03807106598987
G1 X58.713197969543145 Y196.03807106598987
G1 X58.07842639593909 Y196.6723350253807 F900
G1 X58.078680203045685 Y57.95685279187818 F900
G1 X93.79441624365482 Y57.95685279187818
G1 X93.79441624365482 Y196.67258883248732
G1 X58.078680203045685 Y196.67258883248732
G1 X57.443401015228424 Y197.30710659898477 F900
G1 X57.444162436548226 Y57.32233502538071 F900
G1 X94.42893401015228 Y57.32233502538071
G1 X94.42893401015228 Y197.30710659898477
G1 X57.444162436548226 Y197.30710659898477
G1 X56.808375634517766 Y197.94213197969543 F900
G1 X56.80964467005076 Y56.68527918781726 F900
G1 X95.06345177664974 Y56.68527918781726
G1 X95.06345177664974 Y197.94162436548223
G1 X56.80964467005076 Y197.94162436548223
G1 X56.17335025380711 Y198.5771573604061 F900
G1 X56.17258883248731 Y56.05076142131979 F900
G1 X95.7005076142132 Y56.05076142131979
G1 X95.7005076142132 Y198.57614213197968
G1 X56.17258883248731 Y198.57614213197968
G1 X55.53832487309645 Y199.21218274111675 F900
G1 X55.53807106598985 Y55.41624365482234 F900
G1 X96.33502538071068 Y55.41624365482234
G1 X96.33502538071068 Y199.21319796954316
G1 X55.53807106598985 Y199.21319796954316
G1 X54.903299492385784 Y199.8472081218274 F900
G1 X54.90355329949239 Y54.78172588832487 F900
G1 X96.96954314720813 Y54.78172588832487
G1 X96.96954314720813 Y199.8477157360406
G1 X54.90355329949239 Y199.8477157360406
G1 X54.268274111675126 Y200.48223350253807 F900
G1 X54.26903553299493 Y54.14720812182742 F900
G1 X97.60406091370558 Y54.14720812182742
G1 X97.60406091370558 Y200.48223350253807
G1 X54.26903553299493 Y200.48223350253807
G1 X53.63350253807106 Y201.11725888324872 F900
G1 X53.63451776649746 Y53.51015228426397 F900
G1 X98.23857868020305 Y53.51015228426397
G1 X98.23857868020305 Y201.11675126903552
G1 X53.63451776649746 Y201.11675126903552
G1 X52.998477157360405 Y201.75228426395938 F900
G1 X52.99746192893401 Y52.87563451776649 F900
G1 X98.8756345177665 Y52.87563451776649
G1 X98.8756345177665 Y201.75126903553297
G1 X52.99746192893401 Y201.75126903553297
G1 X52.36345177664975 Y202.38730964467004 F900
G1 X52.36294416243655 Y52.24111675126903 F900
G1 X99.51015228426397 Y52.24111675126903
G1 X99.51015228426397 Y202.38832487309645
G1 X52.36294416243655 Y202.38832487309645
G1 X51.72842639593909 Y203.0223350253807 F900
G1 X51.72842639593909 Y51.60659898477157 F900
G1 X100.14467005076142 Y51.60659898477157
G1 X100.14467005076142 Y203.0228426395939
G1 X51.72842639593909 Y203.0228426395939
G1 X51.09340101522842 Y203.65710659898477 F900
G1 X51.09390862944163 Y50.97208121827411 F900
G1 X100.77918781725887 Y50.97208121827411
G1 X100.77918781725887 Y203.65736040609136
G1 X51.09390862944163 Y203.65736040609136
G1 X50.458375634517765 Y204.29213197969543 F900
G1 X50.45939086294417 Y50.33502538071066 F900
G1 X101.41370558375634 Y50.33502538071066
G1 X101.41370558375634 Y204.2918781725888
G1 X50.45939086294417 Y204.2918781725888
G1 X49.82335025380711 Y204.92715736040608 F900
G1 X49.82233502538071 Y49.700507614213194 F900
G1 X102.05076142131979 Y49.700507614213194
G1 X102.05076142131979 Y204.92639593908632
G1 X49.82233502538071 Y204.92639593908632
G1 X49.18832487309645 Y205.56218274111674 F900
G1 X49.18781725888324 Y49.065989847715734 F900
G1 X102.68527918781726 Y49.065989847715734
G1 X102.68527918781726 Y205.56345177664977
G1 X49.18781725888324 Y205.56345177664977
G1 X48.55329949238579 Y206.1972081218274 F900
G1 X48.55329949238579 Y48.431472081218274 F900
G1 X103.31979695431473 Y48.431472081218274
G1 X103.31979695431473 Y206.19796954314722
G1 X48.55329949238579 Y206.19796954314722
G1 X47.918274111675125 Y206.83223350253806 F900
G1 X47.91878172588832 Y47.796954314720814 F900
G1 X103.95431472081219 Y47.796954314720814
G1 X103.95431472081219 Y206.83248730964468
G1 X47.91878172588832 Y206.83248730964468
G1 X47.28350253807107 Y207.46725888324872 F900
G1 X47.28426395939087 Y47.15989847715736 F900
G1 X104.58883248730965 Y47.15989847715736
G1 X104.58883248730965 Y207.46700507614213
G1 X47.28426395939087 Y207.46700507614213
G1 X46.648477157360404 Y208.1022842639594 F900
G1 X46.64720812182742 Y46.5253807106599 F900
G1 X105.22335025380711 Y46.5253807106599
G1 X105.22335025380711 Y208.1015228426396
G1 X46.64720812182742 Y208.1015228426396
G1 X46.013451776649745 Y208.73730964467006 F900
G1 X46.012690355329944 Y45.890862944162436 F900
G1 X105.86040609137056 Y45.890862944162436
G1 X105.86040609137056 Y208.73604060913706
G1 X46.012690355329944 Y208.73604060913706
G1 X45.37842639593909 Y209.37233502538072 F900
G1 X45.378172588832484 Y45.256345177664976 F900
G1 X106.49492385786802 Y45.256345177664976
G1 X106.49492385786802 Y209.37309644670052
G1 X45.378172588832484 Y209.37309644670052
G1 X44.74340101522843 Y210.00710659898476 F900
G1 X44.743654822335024 Y44.621827411167516 F900
G1 X107.12944162436548 Y44.621827411167516
G1 X107.12944162436548 Y210.00761421319797
G1 X44.743654822335024 Y210.00761421319797
G1 X44.10837563451776 Y210.64213197969542 F900
G1 X44.109137055837564 Y43.987309644670056 F900
G1 X107.76395939086294 Y43.987309644670056
G1 X107.76395939086294 Y210.64213197969542
G1 X44.109137055837564 Y210.64213197969542
G1 X43.473350253807105 Y211.27715736040608 F900
G1 X43.4746192893401 Y43.350253807106604 F900
G1 X108.3984771573604 Y43.350253807106604
G1 X108.3984771573604 Y211.2766497461929
G1 X43.4746192893401 Y211.2766497461929
G1 X42.83832487309645 Y211.91218274111674 F900
G1 X42.837563451776646 Y42.71573604060913 F900
G1 X109.03553299492386 Y42.71573604060913
G1 X109.03553299492386 Y211.91116751269035
G1 X42.837563451776646 Y211.91116751269035
G1 X42.20329949238579 Y212.54720812182742 F900
G1 X42.203045685279186 Y42.08121827411168 F900
G1 X109.67005076142131 Y42.08121827411168
G1 X109.67005076142131 Y212.5482233502538
G1 X42.203045685279186 Y212.5482233502538
G1 X41.56827411167513 Y213.18223350253808 F900
G1 X41.568527918781726 Y41.44670050761421 F900
G1 X110.30456852791879 Y41.44670050761421
G1 X110.30456852791879 Y213.18274111675126
G1 X41.568527918781726 Y213.18274111675126
G1 X40.93350253807107 Y213.81725888324874 F900
G1 X40.934010152284266 Y40.81218274111676 F900
G1 X110.93908629441626 Y40.81218274111676
G1 X110.93908629441626 Y213.8172588832487
G1 X40.934010152284266 Y213.8172588832487
G1 X40.29847715736041 Y214.4522842639594 F900
G1 X40.299492385786806 Y40.175126903553306 F900
G1 X111.57360406091371 Y40.175126903553306
G1 X111.57360406091371 Y214.4517766497462
G1 X40.299492385786806 Y214.4517766497462
G1 X39.663451776649744 Y215.08730964467006 F900
G1 X39.66243654822335 Y39.54060913705584 F900
G1 X112.21065989847716 Y39.54060913705584
G1 X112.21065989847716 Y215.08629441624365
G1 X39.66243654822335 Y215.08629441624365
G1 X39.028426395939086 Y215.72233502538072 F900
G1 X39.02791878172589 Y38.90609137055838 F900
G1 X112.84517766497461 Y38.90609137055838
G1 X112.84517766497461 Y215.7233502538071
G1 X39.02791878172589 Y215.7233502538071
G1 X38.39340101522843 Y216.35710659898479 F900
G1 X38.39340101522843 Y38.27157360406091 F900
G1 X113.47969543147208 Y38.27157360406091
G1 X113.47969543147208 Y216.35786802030455
G1 X38.39340101522843 Y216.35786802030455
G1 X37.75837563451777 Y216.99213197969544 F900
G1 X37.75888324873097 Y37.63705583756345 F900
G1 X114.11421319796955 Y37.63705583756345
G1 X114.11421319796955 Y216.992385786802
G1 X37.75888324873097 Y216.992385786802
G1 X37.123350253807104 Y217.6271573604061 F900
G1 X37.1243654822335 Y37 F900
G1 X114.748730964467 Y37
G1 X114.748730964467 Y217.62690355329948
G1 X37.1243654822335 Y217.62690355329948
G1 X36.488324873096445 Y218.26218274111676 F900
G1 X36.48730964467005 Y36.36548223350254 F900
G1 X115.38324873096445 Y36.36548223350254
G1 X115.38324873096445 Y218.26142131979694
G1 X36.48730964467005 Y218.26142131979694
G1 X35.85329949238579 Y218.89720812182742 F900
G1 X35.85279187817259 Y35.73096446700508 F900
G1 X116.0203045685279 Y35.73096446700508
G1 X116.0203045685279 Y218.8984771573604
G1 X35.85279187817259 Y218.8984771573604
G1 X35.21827411167513 Y219.53223350253808 F900
G1 X35.21827411167513 Y35.09644670050761 F900
G1 X116.65482233502537 Y35.09644670050761
G1 X116.65482233502537 Y219.53299492385787
G1 X35.21827411167513 Y219.53299492385787
G1 X34.583502538071066 Y220.16725888324873 F900
G1 X34.58375634517766 Y34.46192893401015 F900
G1 X117.28934010152285 Y34.46192893401015
G1 X117.28934010152285 Y220.16751269035535
G1 X34.58375634517766 Y220.16751269035535
G1 X33.94847715736041 Y220.8022842639594 F900
G1 X33.9492385786802 Y33.8248730964467 F900
G1 X117.9238578680203 Y33.8248730964467
G1 X117.9238578680203 Y220.8020304568528
G1 X33.9492385786802 Y220.8020304568528
G1 X33.31345177664975 Y221.43730964467005 F900
G1 X33.31218274111675 Y33.190355329949234 F900
G1 X118.55837563451777 Y33.190355329949234
G1 X118.55837563451777 Y221.43654822335026
G1 X33.31218274111675 Y221.43654822335026
G1 X32.678426395939084 Y222.0723350253807 F900
G1 X32.67766497461929 Y32.555837563451774 F900
G1 X119.19543147208122 Y32.555837563451774
G1 X119.19543147208122 Y222.07106598984774
G1 X32.67766497461929 Y222.07106598984774
G1 X32.043401015228426 Y222.70710659898478 F900
G1 X32.04314720812183 Y31.921319796954315 F900
G1 X119.82994923857868 Y31.921319796954315
G1 X119.82994923857868 Y222.70812182741116
G1 X32.04314720812183 Y222.70812182741116
G1 X31.408375634517768 Y223.34213197969544 F900
G1 X31.408629441624363 Y31.286802030456855 F900
G1 X120.46446700507614 Y31.286802030456855
G1 X120.46446700507614 Y223.34263959390864
G1 X31.408629441624363 Y223.34263959390864
G1 X30.773350253807106 Y223.9771573604061 F900
G1 X30.774111675126903 Y30.652284263959395 F900
G1 X121.0989847715736 Y30.652284263959395
G1 X121.0989847715736 Y223.9771573604061
G1 X30.774111675126903 Y223.9771573604061
G1 X30.138324873096447 Y224.61218274111675 F900
G1 X30.13959390862944 Y30.015228426395943 F900
G1 X121.73350253807106 Y30.015228426395943
G1 X121.73350253807106 Y224.61167512690355
G1 X30.13959390862944 Y224.61167512690355
G1 X29.503299492385786 Y225.2472081218274 F900
G1 X29.502538071065988 Y29.380710659898476 F900
G1 X122.37055837563452 Y29.380710659898476
G1 X122.37055837563452 Y225.24619289340103
G1 X29.502538071065988 Y225.24619289340103
G1 X28.868274111675127 Y225.88223350253807 F900
G1 X28.868020304568528 Y28.746192893401016 F900
G1 X123.00507614213197 Y28.746192893401016
G1 X123.00507614213197 Y225.88324873096445
G1 X28.868020304568528 Y225.88324873096445
G1 X28.233502538071065 Y226.51725888324873 F900
G1 X28.233502538071065 Y28.111675126903553 F900
G1 X123.63959390862945 Y28.111675126903553
G1 X123.63959390862945 Y226.51776649746193
G1 X28.233502538071065 Y226.51776649746193
G1 X27.598477157360406 Y227.1522842639594 F900
G1 X27.598984771573605 Y27.477157360406093 F900
G1 X124.2741116751269 Y27.477157360406093
G1 X124.2741116751269 Y227.1522842639594
G1 X27.598984771573605 Y227.1522842639594
G1 X26.963451776649745 Y227.78730964467005 F900
G1 X26.96446700507614 Y26.84010152284264 F900
G1 X124.90862944162437 Y26.84010152284264
G1 X124.90862944162437 Y227.78680203045684
G1 X26.96446700507614 Y227.78680203045684
G0 Z10
G0 X75.85837563451777 Y178.89213197969542
G1 Z-0.75 F600
G1 X75.85786802030456 Y75.73604060913706 F900
G1 X76.01522842639594 Y75.73604060913706
G1 X76.01522842639594 Y178.89340101522845
G1 X75.85786802030456 Y178.89340101522845
G1 X75.22335025380711 Y179.52715736040608 F900
G1 X75.22335025380711 Y75.1015228426396 F900
G1 X76.6497461928934 Y75.1015228426396
G1 X76.6497461928934 Y179.5279187817259
G1 X75.22335025380711 Y179.5279187817259
G1 X74.58832487309644 Y180.16218274111674 F900
G1 X74.58883248730965 Y74.46700507614213 F900
G1 X77.28426395939087 Y74.46700507614213
G1 X77.28426395939087 Y180.16243654822335
G1 X74.58883248730965 Y180.16243654822335
G1 X73.95329949238578 Y180.79720812182742 F900
G1 X73.95431472081218 Y73.82994923857868 F900
G1 X77.91878172588832 Y73.82994923857868
G1 X77.91878172588832 Y180.79695431472084
G1 X73.95431472081218 Y180.79695431472084
G1 X73.31827411167512 Y181.43223350253808 F900
G1 X73.31725888324873 Y73.19543147208121 F900
G1 X78.55329949238579 Y73.19543147208121
G1 X78.55329949238579 Y181.4314720812183
G1 X73.31725888324873 Y181.4314720812183
G1 X72.68350253807107 Y182.06725888324874 F900
G1 X72.68274111675127 Y72.56091370558376 F900
G1 X79.19035532994924 Y72.56091370558376
G1 X79.19035532994924 Y182.06598984771574
G1 X72.68274111675127 Y182.06598984771574
G1 X72.04847715736041 Y182.7022842639594 F900
G1 X72.0482233502538 Y71.92639593908629 F900
G1 X79.8248730964467 Y71.92639593908629
G1 X79.8248730964467 Y182.7030456852792
G1 X72.0482233502538 Y182.7030456852792
G1 X71.41345177664975 Y183.33730964467006 F900
G1 X71.41370558375635 Y71.29187817258884 F900
G1 X80.45939086294416 Y71.29187817258884
G1 X80.45939086294416 Y183.33756345177665
G1 X71.41370558375635 Y183.33756345177665
G1 X70.77842639593909 Y183.97233502538072 F900
G1 X70.77918781725887 Y70.65736040609137 F900
G1 X81.09390862944161 Y70.65736040609137
G1 X81.09390862944161 Y183.97208121827413
G1 X70.77918781725887 Y183.97208121827413
G1 X70.14340101522842 Y184.60710659898479 F900
G1 X70.14213197969542 Y70.02030456852792 F900
G1 X81.72842639593908 Y70.02030456852792
G1 X81.72842639593908 Y184.60659898477158
G1 X70.14213197969542 Y184.60659898477158
G1 X69.50837563451776 Y185.24213197969544 F900
G1 X69.50761421319797 Y69.38578680203045 F900
G1 X82.36548223350253 Y69.38578680203045
G1 X82.36548223350253 Y185.24111675126903
G1 X69.50761421319797 Y185.24111675126903
G1 X68.8733502538071 Y185.8771573604061 F900
G1 X68.87309644670052 Y68.751269035533 F900
G1 X83 Y68.751269035533
G1 X83 Y185.87817258883248
G1 X68.87309644670052 Y185.87817258883248
G1 X68.23832487309645 Y186.51218274111676 F900
G1 X68.23857868020305 Y68.11675126903553 F900
G1 X83.63451776649747 Y68.11675126903553
G1 X83.63451776649747 Y186.51269035532994
G1 X68.23857868020305 Y186.51269035532994
G1 X67.60329949238579 Y187.14720812182742 F900
G1 X67.60406091370558 Y67.48223350253807 F900
G1 X84.26903553299493 Y67.48223350253807
G1 X84.26903553299493 Y187.14720812182742
G1 X67.60406091370558 Y187.14720812182742
G1 X66.96827411167513 Y187.78223350253808 F900
G1 X66.96954314720811 Y66.84517766497461 F900
G1 X84.90355329949239 Y66.84517766497461
G1 X84.90355329949239 Y187.78172588832487
G1 X66.96954314720811 Y187.78172588832487
G1 X66.33350253807106 Y188.41725888324873 F900
G1 X66.33248730964466 Y66.21065989847716 F900
G1 X85.54060913705584 Y66.21065989847716
G1 X85.54060913705584 Y188.41624365482232
G1 X66.33248730964466 Y188.41624365482232
G1 X65.6984771573604 Y189.0522842639594 F900
G1 X65.69796954314721 Y65.5761421319797 F900
G1 X86.17512690355329 Y65.5761421319797
G1 X86.17512690355329 Y189.05329949238578
G1 X65.69796954314721 Y189.05329949238578
G1 X65.06345177664974 Y189.68730964467005 F900
G1 X65.06345177664974 Y64.94162436548224 F900
G1 X86.80964467005076 Y64.94162436548224
G1 X86.80964467005076 Y189.68781725888323
G1 X65.06345177664974 Y189.68781725888323
G1 X64.42842639593908 Y190.3223350253807 F900
G1 X64.42893401015229 Y64.30710659898477 F900
G1 X87.44416243654823 Y64.30710659898477
G1 X87.44416243654823 Y190.3223350253807
G1 X64.42893401015229 Y190.3223350253807
G1 X63.793401015228426 Y190.95710659898478 F900
G1 X63.79441624365482 Y63.67005076142132 F900
G1 X88.07868020304568 Y63.67005076142132
G1 X88.07868020304568 Y190.95685279187816
G1 X63.79441624365482 Y190.95685279187816
G1 X63.15837563451777 Y191.59213197969544 F900
G1 X63.15736040609137 Y63.035532994923855 F900
G1 X88.71573604060913 Y63.035532994923855
G1 X88.71573604060913 Y191.59137055837564
G1 X63.15736040609137 Y191.59137055837564
G1 X62.52335025380711 Y192.2271573604061 F900
G1 X62.522842639593904 Y62.401015228426395 F900
G1 X89.35025380710661 Y62.401015228426395
G1 X89.35025380710661 Y192.2284263959391
G1 X62.522842639593904 Y192.2284263959391
G1 X61.888324873096444 Y192.86218274111675 F900
G1 X61.88832487309645 Y61.766497461928935 F900
G1 X89.98477157360406 Y61.766497461928935
G1 X89.98477157360406 Y192.86294416243658
G1 X61.88832487309645 Y192.86294416243658
G1 X61.253299492385786 Y193.4972081218274 F900
G1 X61.253807106598984 Y61.131979695431475 F900
G1 X90.61928934010153 Y61.131979695431475
G1 X90.61928934010153 Y193.49746192893403
G1 X61.253807106598984 Y193.49746192893403
G1 X60.61827411167513 Y194.13223350253807 F900
G1 X60.61928934010152 Y60.494923857868024 F900
G1 X91.25380710659898 Y60.494923857868024
G1 X91.25380710659898 Y194.13197969543148
G1 X60.61928934010152 Y194.13197969543148
G1 X59.983502538071065 Y194.76725888324873 F900
G1 X59.982233502538065 Y59.86040609137056 F900
G1 X91.88832487309645 Y59.86040609137056
G1 X91.88832487309645 Y194.76649746192894
G1 X59.982233502538065 Y194.76649746192894
G1 X59.348477157360406 Y195.4022842639594 F900
G1 X59.347715736040605 Y59.2258883248731 F900
G1 X92.5253807106599 Y59.2258883248731
G1 X92.5253807106599 Y195.4010152284264
G1 X59.347715736040605 Y195.4010152284264
G1 X58.71345177664975 Y196.03730964467005 F900
G1 X58.713197969543145 Y58.59137055837564 F900
G1 X93.15989847715736 Y58.59137055837564
G1 X93.15989847715736 Y196.03807106598987
G1 X58.713197969543145 Y196.03807106598987
G1 X58.07842639593909 Y196.6723350253807 F900
G1 X58.078680203045685 Y57.95685279187818 F900
G1 X93.79441624365482 Y57.95685279187818
G1 X93.79441624365482 Y196.67258883248732
G1 X58.078680203045685 Y196.67258883248732
G1 X57.443401015228424 Y197.30710659898477 F900
G1 X57.444162436548226 Y57.32233502538071 F900
G1 X94.42893401015228 Y57.32233502538071
G1 X94.42893401015228 Y197.30710659898477
G1 X57.444162436548226 Y197.30710659898477
G1 X56.808375634517766 Y197.94213197969543 F900
G1 X56.80964467005076 Y56.68527918781726 F900
G1 X95.06345177664974 Y56.68527918781726
G1 X95.06345177664974 Y197.94162436548223
G1 X56.80964467005076 Y197.94162436548223
G1 X56.17335025380711 Y198.5771573604061 F900
G1 X56.17258883248731 Y56.05076142131979 F900
G1 X95.7005076142132 Y56.05076142131979
G1 X95.7005076142132 Y198.57614213197968
G1 X56.17258883248731 Y198.57614213197968
G1 X55.53832487309645 Y199.21218274111675 F900
G1 X55.53807106598985 Y55.41624365482234 F900
G1 X96.33502538071068 Y55.41624365482234
G1 X96.33502538071068 Y199.21319796954316
G1 X55.53807106598985 Y199.21319796954316
G1 X54.903299492385784 Y199.8472081218274 F900
G1 X54.90355329949239 Y54.78172588832487 F900
G1 X96.96954314720813 Y54.78172588832487
G1 X96.96954314720813 Y199.8477157360406
G1 X54.90355329949239 Y199.8477157360406
G1 X54.268274111675126 Y200.48223350253807 F900
G1 X54.26903553299493 Y54.14720812182742 F900
G1 X97.60406091370558 Y54.14720812182742
G1 X97.60406091370558 Y200.48223350253807
G1 X54.26903553299493 Y200.48223350253807
G1 X53.63350253807106 Y201.11725888324872 F900
G1 X53.63451776649746 Y53.51015228426397 F900
G1 X98.23857868020305 Y53.51015228426397
G1 X98.23857868020305 Y201.11675126903552
G1 X53.63451776649746 Y201.11675126903552
G1 X52.998477157360405 Y201.75228426395938 F900
G1 X52.99746192893401 Y52.87563451776649 F900
G1 X98.8756345177665 Y52.87563451776649
G1 X98.8756345177665 Y201.75126903553297
G1 X52.99746192893401 Y201.75126903553297
G1 X52.36345177664975 Y202.38730964467004 F900
G1 X52.36294416243655 Y52.24111675126903 F900
G1 X99.51015228426397 Y52.24111675126903
G1 X99.51015228426397 Y202.38832487309645
G1 X52.36294416243655 Y202.38832487309645
G1 X51.72842639593909 Y203.0223350253807 F900
G1 X51.72842639593909 Y51.60659898477157 F900
G1 X100.14467005076142 Y51.60659898477157
G1 X100.14467005076142 Y203.0228426395939
G1 X51.72842639593909 Y203.0228426395939
G1 X51.09340101522842 Y203.65710659898477 F900
G1 X51.09390862944163 Y50.97208121827411 F900
G1 X100.77918781725887 Y50.97208121827411
G1 X100.77918781725887 Y203.65736040609136
G1 X51.09390862944163 Y203.65736040609136
G1 X50.458375634517765 Y204.29213197969543 F900
G1 X50.45939086294417 Y50.33502538071066 F900
G1 X101.41370558375634 Y50.33502538071066
G1 X101.41370558375634 Y204.2918781725888
G1 X50.45939086294417 Y204.2918781725888
G1 X49.82335025380711 Y204.92715736040608 F900
G1 X49.82233502538071 Y49.700507614213194 F900
G1 X102.05076142131979 Y49.700507614213194
G1 X102.05076142131979 Y204.92639593908632
G1 X49.82233502538071 Y204.92639593908632
G1 X49.18832487309645 Y205.56218274111674 F900
G1 X49.18781725888324 Y49.065989847715734 F900
G1 X102.68527918781726 Y49.065989847715734
G1 X102.68527918781726 Y205.56345177664977
G1 X49.18781725888324 Y205.56345177664977
G1 X48.55329949238579 Y206.1972081218274 F900
G1 X48.55329949238579 Y48.431472081218274 F900
G1 X103.31979695431473 Y48.431472081218274
G1 X103.31979695431473 Y206.19796954314722
G1 X48.55329949238579 Y206.19796954314722
G1 X47.918274111675125 Y206.83223350253806 F900
G1 X47.91878172588832 Y47.796954314720814 F900
G1 X103.95431472081219 Y47.796954314720814
G1 X103.95431472081219 Y206.83248730964468
G1 X47.91878172588832 Y206.83248730964468
G1 X47.28350253807107 Y207.46725888324872 F900
G1 X47.28426395939087 Y47.15989847715736 F900
G1 X104.58883248730965 Y47.15989847715736
G1 X104.58883248730965 Y207.46700507614213
G1 X47.28426395939087 Y207.46700507614213
G1 X46.648477157360404 Y208.1022842639594 F900
G1 X46.64720812182742 Y46.5253807106599 F900
G1 X105.22335025380711 Y46.5253807106599
G1 X105.22335025380711 Y208.1015228426396
G1 X46.64720812182742 Y208.1015228426396
G1 X46.013451776649745 Y208.73730964467006 F900
G1 X46.012690355329944 Y45.890862944162436 F900
G1 X105.86040609137056 Y45.890862944162436
G1 X105.86040609137056 Y208.73604060913706
G1 X46.012690355329944 Y208.73604060913706
G1 X45.37842639593909 Y209.37233502538072 F900
G1 X45.378172588832484 Y45.256345177664976 F900
G1 X106.49492385786802 Y45.256345177664976
G1 X106.49492385786802 Y209.37309644670052
G1 X45.378172588832484 Y209.37309644670052
G1 X44.74340101522843 Y210.00710659898476 F900
G1 X44.743654822335024 Y44.621827411167516 F900
G1 X107.12944162436548 Y44.621827411167516
G1 X107.12944162436548 Y210.00761421319797
G1 X44.743654822335024 Y210.00761421319797
G1 X44.10837563451776 Y210.64213197969542 F900
G1 X44.109137055837564 Y43.987309644670056 F900
G1 X107.76395939086294 Y43.987309644670056
G1 X107.76395939086294 Y210.64213197969542
G1 X44.109137055837564 Y210.64213197969542
G1 X43.473350253807105 Y211.27715736040608 F900
G1 X43.4746192893401 Y43.350253807106604 F900
G1 X108.3984771573604 Y43.350253807106604
G1 X108.3984771573604 Y211.2766497461929
G1 X43.4746192893401 Y211.2766497461929
G1 X42.83832487309645 Y211.91218274111674 F900
G1 X42.837563451776646 Y42.71573604060913 F900
G1 X109.03553299492386 Y42.71573604060913
G1 X109.03553299492386 Y211.91116751269035
G1 X42.837563451776646 Y211.91116751269035
G1 X42.20329949238579 Y212.54720812182742 F900
G1 X42.203045685279186 Y42.08121827411168 F900
G1 X109.67005076142131 Y42.08121827411168
G1 X109.67005076142131 Y212.5482233502538
G1 X42.203045685279186 Y212.5482233502538
G1 X41.56827411167513 Y213.18223350253808 F900
G1 X41.568527918781726 Y41.44670050761421 F900
G1 X110.30456852791879 Y41.44670050761421
G1 X110.30456852791879 Y213.18274111675126
G1 X41.568527918781726 Y213.18274111675126
G1 X40.93350253807107 Y213.81725888324874 F900
G1 X40.934010152284266 Y40.81218274111676 F900
G1 X110.93908629441626 Y40.81218274111676
G1 X110.93908629441626 Y213.8172588832487
G1 X40.934010152284266 Y213.8172588832487
G1 X40.29847715736041 Y214.4522842639594 F900
G1 X40.299492385786806 Y40.175126903553306 F900
G1 X111.57360406091371 Y40.175126903553306
G1 X111.57360406091371 Y214.4517766497462
G1 X40.299492385786806 Y214.4517766497462
G1 X39.663451776649744 Y215.08730964467006 F900
G1 X39.66243654822335 Y39.54060913705584 F900
G1 X112.21065989847716 Y39.54060913705584
G1 X112.21065989847716 Y215.08629441624365
G1 X39.66243654822335 Y215.08629441624365
G1 X39.028426395939086 Y215.72233502538072 F900
G1 X39.02791878172589 Y38.90609137055838 F900
G1 X112.84517766497461 Y38.90609137055838
G1 X112.84517766497461 Y215.7233502538071
G1 X39.02791878172589 Y215.7233502538071
G1 X38.39340101522843 Y216.35710659898479 F900
G1 X38.39340101522843 Y38.27157360406091 F900
G1 X113.47969543147208 Y38.27157360406091
G1 X113.47969543147208 Y216.35786802030455
G1 X38.39340101522843 Y216.35786802030455
G1 X37.75837563451777 Y216.99213197969544 F900
G1 X37.75888324873097 Y37.63705583756345 F900
G1 X114.11421319796955 Y37.63705583756345
G1 X114.11421319796955 Y216.992385786802
G1 X37.75888324873097 Y216.992385786802
G1 X37.123350253807104 Y217.6271573604061 F900
G1 X37.1243654822335 Y37 F900
G1 X114.748730964467 Y37
G1 X114.748730964467 Y217.62690355329948
G1 X37.1243654822335 Y217.62690355329948
G1 X36.488324873096445 Y218.26218274111676 F900
G1 X36.48730964467005 Y36.36548223350254 F900
G1 X115.38324873096445 Y36.36548223350254
G1 X115.38324873096445 Y218.26142131979694
G1 X36.48730964467005 Y218.26142131979694
G1 X35.85329949238579 Y218.89720812182742 F900
G1 X35.85279187817259 Y35.73096446700508 F900
G1 X116.0203045685279 Y35.73096446700508
G1 X116.0203045685279 Y218.8984771573604
G1 X35.85279187817259 Y218.8984771573604
G1 X35.21827411167513 Y219.53223350253808 F900
G1 X35.21827411167513 Y35.09644670050761 F900
G1 X116.65482233502537 Y35.09644670050761
G1 X116.65482233502537 Y219.53299492385787
G1 X35.21827411167513 Y219.53299492385787
G1 X34.583502538071066 Y220.16725888324873 F900
G1 X34.58375634517766 Y34.46192893401015 F900
G1 X117.28934010152285 Y34.46192893401015
G1 X117.28934010152285 Y220.16751269035535
G1 X34.58375634517766 Y220.16751269035535
G1 X33.94847715736041 Y220.8022842639594 F900
G1 X33.9492385786802 Y33.8248730964467 F900
G1 X117.9238578680203 Y33.8248730964467
G1 X117.9238578680203 Y220.8020304568528
G1 X33.9492385786802 Y220.8020304568528
G1 X33.31345177664975 Y221.43730964467005 F900
G1 X33.31218274111675 Y33.190355329949234 F900
G1 X118.55837563451777 Y33.190355329949234
G1 X118.55837563451777 Y221.43654822335026
G1 X33.31218274111675 Y221.43654822335026
G1 X32.678426395939084 Y222.0723350253807 F900
G1 X32.67766497461929 Y32.555837563451774 F900
G1 X119.19543147208122 Y32.555837563451774
G1 X119.19543147208122 Y222.07106598984774
G1 X32.67766497461929 Y222.07106598984774
G1 X32.043401015228426 Y222.70710659898478 F900
G1 X32.04314720812183 Y31.921319796954315 F900
G1 X119.82994923857868 Y31.921319796954315
G1 X119.82994923857868 Y222.70812182741116
G1 X32.04314720812183 Y222.70812182741116
G1 X31.408375634517768 Y223.34213197969544 F900
G1 X31.408629441624363 Y31.286802030456855 F900
G1 X120.46446700507614 Y31.286802030456855
G1 X120.46446700507614 Y223.34263959390864
G1 X31.408629441624363 Y223.34263959390864
G1 X30.773350253807106 Y223.9771573604061 F900
G1 X30.774111675126903 Y30.652284263959395 F900
G1 X121.0989847715736 Y30.652284263959395
G1 X121.0989847715736 Y223.9771573604061
G1 X30.774111675126903 Y223.9771573604061
G1 X30.138324873096447 Y224.61218274111675 F900
G1 X30.13959390862944 Y30.015228426395943 F900
G1 X121.73350253807106 Y30.015228426395943
G1 X121.73350253807106 Y224.61167512690355
G1 X30.13959390862944 Y224.61167512690355
G1 X29.503299492385786 Y225.2472081218274 F900
G1 X29.502538071065988 Y29.380710659898476 F900
G1 X122.37055837563452 Y29.380710659898476
G1 X122.37055837563452 Y225.24619289340103
G1 X29.502538071065988 Y225.24619289340103
G1 X28.868274111675127 Y225.88223350253807 F900
G1 X28.868020304568528 Y28.746192893401016 F900
G1 X123.00507614213197 Y28.746192893401016
G1 X123.00507614213197 Y225.88324873096445
G1 X28.868020304568528 Y225.88324873096445
G1 X28.233502538071065 Y226.51725888324873 F900
G1 X28.233502538071065 Y28.111675126903553 F900
G1 X123.63959390862945 Y28.111675126903553
G1 X123.63959390862945 Y226.51776649746193
G1 X28.233502538071065 Y226.51776649746193
G1 X27.598477157360406 Y227.1522842639594 F900
G1 X27.598984771573605 Y27.477157360406093 F900
G1 X124.2741116751269 Y27.477157360406093
G1 X124.2741116751269 Y227.1522842639594
G1 X27.598984771573605 Y227.1522842639594
G1 X26.963451776649745 Y227.78730964467005 F900
G1 X26.96446700507614 Y26.84010152284264 F900
G1 X124.90862944162437 Y26.84010152284264
G1 X124.90862944162437 Y227.78680203045684
G1 X26.96446700507614 Y227.78680203045684
G0 Z10
G0 X75.85837563451777 Y178.89213197969542
G1 Z-1 F600
G1 X75.85786802030456 Y75.73604060913706 F900
G1 X76.01522842639594 Y75.73604060913706
G1 X76.01522842639594 Y178.89340101522845
G1 X75.85786802030456 Y178.89340101522845
G1 X75.22335025380711 Y179.52715736040608 F900
G1 X75.22335025380711 Y75.1015228426396 F900
G1 X76.6497461928934 Y75.1015228426396
G1 X76.6497461928934 Y179.5279187817259
G1 X75.22335025380711 Y179.5279187817259
G1 X74.58832487309644 Y180.16218274111674 F900
G1 X74.58883248730965 Y74.46700507614213 F900
G1 X77.28426395939087 Y74.46700507614213
G1 X77.28426395939087 Y180.16243654822335
G1 X74.58883248730965 Y180.16243654822335
G1 X73.95329949238578 Y180.79720812182742 F900
G1 X73.95431472081218 Y73.82994923857868 F900
G1 X77.91878172588832 Y73.82994923857868
G1 X77.91878172588832 Y180.79695431472084
G1 X73.95431472081218 Y180.79695431472084
G1 X73.31827411167512 Y181.43223350253808 F900
G1 X73.31725888324873 Y73.19543147208121 F900
G1 X78.55329949238579 Y73.19543147208121
G1 X78.55329949238579 Y181.4314720812183
G1 X73.31725888324873 Y181.4314720812183
G1 X72.68350253807107 Y182.06725888324874 F900
G1 X72.68274111675127 Y72.56091370558376 F900
G1 X79.19035532994924 Y72.56091370558376
G1 X79.19035532994924 Y182.06598984771574
G1 X72.68274111675127 Y182.06598984771574
G1 X72.04847715736041 Y182.7022842639594 F900
G1 X72.0482233502538 Y71.92639593908629 F900
G1 X79.8248730964467 Y71.92639593908629
G1 X79.8248730964467 Y182.7030456852792
G1 X72.0482233502538 Y182.7030456852792
G1 X71.41345177664975 Y183.33730964467006 F900
G1 X71.41370558375635 Y71.29187817258884 F900
G1 X80.45939086294416 Y71.29187817258884
G1 X80.45939086294416 Y183.33756345177665
G1 X71.41370558375635 Y183.33756345177665
G1 X70.77842639593909 Y183.97233502538072 F900
G1 X70.77918781725887 Y70.65736040609137 F900
G1 X81.09390862944161 Y70.65736040609137
G1 X81.09390862944161 Y183.97208121827413
G1 X70.77918781725887 Y183.97208121827413
G1 X70.14340101522842 Y184.60710659898479 F900
G1 X70.14213197969542 Y70.02030456852792 F900
G1 X81.72842639593908 Y70.02030456852792
G1 X81.72842639593908 Y184.60659898477158
G1 X70.14213197969542 Y184.60659898477158
G1 X69.50837563451776 Y185.24213197969544 F900
G1 X69.50761421319797 Y69.38578680203045 F900
G1 X82.36548223350253 Y69.38578680203045
G1 X82.36548223350253 Y185.24111675126903
G1 X69.50761421319797 Y185.24111675126903
G1 X68.8733502538071 Y185.8771573604061 F900
G1 X68.87309644670052 Y68.751269035533 F900
G1 X83 Y68.751269035533
G1 X83 Y185.87817258883248
G1 X68.87309644670052 Y185.87817258883248
G1 X68.23832487309645 Y186.51218274111676 F900
G1 X68.23857868020305 Y68.11675126903553 F900
G1 X83.63451776649747 Y68.11675126903553
G1 X83.63451776649747 Y186.51269035532994
G1 X68.23857868020305 Y186.51269035532994
G1 X67.60329949238579 Y187.14720812182742 F900
G1 X67.60406091370558 Y67.48223350253807 F900
G1 X84.26903553299493 Y67.48223350253807
G1 X84.26903553299493 Y187.14720812182742
G1 X67.60406091370558 Y187.14720812182742
G1 X66.96827411167513 Y187.78223350253808 F900
G1 X66.96954314720811 Y66.84517766497461 F900
G1 X84.90355329949239 Y66.84517766497461
G1 X84.90355329949239 Y187.78172588832487
G1 X66.96954314720811 Y187.78172588832487
G1 X66.33350253807106 Y188.41725888324873 F900
G1 X66.33248730964466 Y66.21065989847716 F900
G1 X85.54060913705584 Y66.21065989847716
G1 X85.54060913705584 Y188.41624365482232
G1 X66.33248730964466 Y188.41624365482232
G1 X65.6984771573604 Y189.0522842639594 F900
G1 X65.69796954314721 Y65.5761421319797 F900
G1 X86.17512690355329 Y65.5761421319797
G1 X86.17512690355329 Y189.05329949238578
G1 X65.69796954314721 Y189.05329949238578
G1 X65.06345177664974 Y189.68730964467005 F900
G1 X65.06345177664974 Y64.94162436548224 F900
G1 X86.80964467005076 Y64.94162436548224
G1 X86.80964467005076 Y189.68781725888323
G1 X65.06345177664974 Y189.68781725888323
G1 X64.42842639593908 Y190.3223350253807 F900
G1 X64.42893401015229 Y64.30710659898477 F900
G1 X87.44416243654823 Y64.30710659898477
G1 X87.44416243654823 Y190.3223350253807
G1 X64.42893401015229 Y190.3223350253807
G1 X63.793401015228426 Y190.95710659898478 F900
G1 X63.79441624365482 Y63.67005076142132 F900
G1 X88.07868020304568 Y63.67005076142132
G1 X88.07868020304568 Y190.95685279187816
G1 X63.79441624365482 Y190.95685279187816
G1 X63.15837563451777 Y191.59213197969544 F900
G1 X63.15736040609137 Y63.035532994923855 F900
G1 X88.71573604060913 Y63.035532994923855
G1 X88.71573604060913 Y191.59137055837564
G1 X63.15736040609137 Y191.59137055837564
G1 X62.52335025380711 Y192.2271573604061 F900
G1 X62.522842639593904 Y62.401015228426395 F900
G1 X89.35025380710661 Y62.401015228426395
G1 X89.35025380710661 Y192.2284263959391
G1 X62.522842639593904 Y192.2284263959391
G1 X61.888324873096444 Y192.86218274111675 F900
G1 X61.88832487309645 Y61.766497461928935 F900
G1 X89.98477157360406 Y61.766497461928935
G1 X89.98477157360406 Y192.86294416243658
G1 X61.88832487309645 Y192.86294416243658
G1 X61.253299492385786 Y193.4972081218274 F900
G1 X61.253807106598984 Y61.131979695431475 F900
G1 X90.61928934010153 Y61.131979695431475
G1 X90.61928934010153 Y193.49746192893403
G1 X61.253807106598984 Y193.49746192893403
G1 X60.61827411167513 Y194.13223350253807 F900
G1 X60.61928934010152 Y60.494923857868024 F900
G1 X91.25380710659898 Y60.494923857868024
G1 X91.25380710659898 Y194.13197969543148
G1 X60.61928934010152 Y194.13197969543148
G1 X59.983502538071065 Y194.76725888324873 F900
G1 X59.982233502538065 Y59.86040609137056 F900
G1 X91.88832487309645 Y59.86040609137056
G1 X91.88832487309645 Y194.76649746192894
G1 X59.982233502538065 Y194.76649746192894
G1 X59.348477157360406 Y195.4022842639594 F900
G1 X59.347715736040605 Y59.2258883248731 F900
G1 X92.5253807106599 Y59.2258883248731
G1 X92.5253807106599 Y195.4010152284264
G1 X59.347715736040605 Y195.4010152284264
G1 X58.71345177664975 Y196.03730964467005 F900
G1 X58.713197969543145 Y58.59137055837564 F900
G1 X93.15989847715736 Y58.59137055837564
G1 X93.15989847715736 Y196.03807106598987
G1 X58.713197969543145 Y196.03807106598987
G1 X58.07842639593909 Y196.6723350253807 F900
G1 X58.078680203045685 Y57.95685279187818 F900
G1 X93.79441624365482 Y57.95685279187818
G1 X93.79441624365482 Y196.67258883248732
G1 X58.078680203045685 Y196.67258883248732
G1 X57.443401015228424 Y197.30710659898477 F900
G1 X57.444162436548226 Y57.32233502538071 F900
G1 X94.42893401015228 Y57.32233502538071
G1 X94.42893401015228 Y197.30710659898477
G1 X57.444162436548226 Y197.30710659898477
G1 X56.808375634517766 Y197.94213197969543 F900
G1 X56.80964467005076 Y56.68527918781726 F900
G1 X95.06345177664974 Y56.68527918781726
G1 X95.06345177664974 Y197.94162436548223
G1 X56.80964467005076 Y197.94162436548223
G1 X56.17335025380711 Y198.5771573604061 F900
G1 X56.17258883248731 Y56.05076142131979 F900
G1 X95.7005076142132 Y56.05076142131979
G1 X95.7005076142132 Y198.57614213197968
G1 X56.17258883248731 Y198.57614213197968
G1 X55.53832487309645 Y199.21218274111675 F900
G1 X55.53807106598985 Y55.41624365482234 F900
G1 X96.33502538071068 Y55.41624365482234
G1 X96.33502538071068 Y199.21319796954316
G1 X55.53807106598985 Y199.21319796954316
G1 X54.903299492385784 Y199.8472081218274 F900
G1 X54.90355329949239 Y54.78172588832487 F900
G1 X96.96954314720813 Y54.78172588832487
G1 X96.96954314720813 Y199.8477157360406
G1 X54.90355329949239 Y199.8477157360406
G1 X54.268274111675126 Y200.48223350253807 F900
G1 X54.26903553299493 Y54.14720812182742 F900
G1 X97.60406091370558 Y54.14720812182742
G1 X97.60406091370558 Y200.48223350253807
G1 X54.26903553299493 Y200.48223350253807
G1 X53.63350253807106 Y201.11725888324872 F900
G1 X53.63451776649746 Y53.51015228426397 F900
G1 X98.23857868020305 Y53.51015228426397
G1 X98.23857868020305 Y201.11675126903552
G1 X53.63451776649746 Y201.11675126903552
G1 X52.998477157360405 Y201.75228426395938 F900
G1 X52.99746192893401 Y52.87563451776649 F900
G1 X98.8756345177665 Y52.87563451776649
G1 X98.8756345177665 Y201.75126903553297
G1 X52.99746192893401 Y201.75126903553297
G1 X52.36345177664975 Y202.38730964467004 F900
G1 X52.36294416243655 Y52.24111675126903 F900
G1 X99.51015228426397 Y52.24111675126903
G1 X99.51015228426397 Y202.38832487309645
G1 X52.36294416243655 Y202.38832487309645
G1 X51.72842639593909 Y203.0223350253807 F900
G1 X51.72842639593909 Y51.60659898477157 F900
G1 X100.14467005076142 Y51.60659898477157
G1 X100.14467005076142 Y203.0228426395939
G1 X51.72842639593909 Y203.0228426395939
G1 X51.09340101522842 Y203.65710659898477 F900
G1 X51.09390862944163 Y50.97208121827411 F900
G1 X100.77918781725887 Y50.97208121827411
G1 X100.77918781725887 Y203.65736040609136
G1 X51.09390862944163 Y203.65736040609136
G1 X50.458375634517765 Y204.29213197969543 F900
G1 X50.45939086294417 Y50.33502538071066 F900
G1 X101.41370558375634 Y50.33502538071066
G1 X101.41370558375634 Y204.2918781725888
G1 X50.45939086294417 Y204.2918781725888
G1 X49.82335025380711 Y204.92715736040608 F900
G1 X49.82233502538071 Y49.700507614213194 F900
G1 X102.05076142131979 Y49.700507614213194
G1 X102.05076142131979 Y204.92639593908632
G1 X49.82233502538071 Y204.92639593908632
G1 X49.18832487309645 Y205.56218274111674 F900
G1 X49.18781725888324 Y49.065989847715734 F900
G1 X102.68527918781726 Y49.065989847715734
G1 X102.68527918781726 Y205.56345177664977
G1 X49.18781725888324 Y205.56345177664977
G1 X48.55329949238579 Y206.1972081218274 F900
G1 X48.55329949238579 Y48.431472081218274 F900
G1 X103.31979695431473 Y48.431472081218274
G1 X103.31979695431473 Y206.19796954314722
G1 X48.55329949238579 Y206.19796954314722
G1 X47.918274111675125 Y206.83223350253806 F900
G1 X47.91878172588832 Y47.796954314720814 F900
G1 X103.95431472081219 Y47.796954314720814
G1 X103.95431472081219 Y206.83248730964468
G1 X47.91878172588832 Y206.83248730964468
G1 X47.28350253807107 Y207.46725888324872 F900
G1 X47.28426395939087 Y47.15989847715736 F900
G1 X104.58883248730965 Y47.15989847715736
G1 X104.58883248730965 Y207.46700507614213
G1 X47.28426395939087 Y207.46700507614213
G1 X46.648477157360404 Y208.1022842639594 F900
G1 X46.64720812182742 Y46.5253807106599 F900
G1 X105.22335025380711 Y46.5253807106599
G1 X105.22335025380711 Y208.1015228426396
G1 X46.64720812182742 Y208.1015228426396
G1 X46.013451776649745 Y208.73730964467006 F900
G1 X46.012690355329944 Y45.890862944162436 F900
G1 X105.86040609137056 Y45.890862944162436
G1 X105.86040609137056 Y208.73604060913706
G1 X46.012690355329944 Y208.73604060913706
G1 X45.37842639593909 Y209.37233502538072 F900
G1 X45.378172588832484 Y45.256345177664976 F900
G1 X106.49492385786802 Y45.256345177664976
G1 X106.49492385786802 Y209.37309644670052
G1 X45.378172588832484 Y209.37309644670052
G1 X44.74340101522843 Y210.00710659898476 F900
G1 X44.743654822335024 Y44.621827411167516 F900
G1 X107.12944162436548 Y44.621827411167516
G1 X107.12944162436548 Y210.00761421319797
G1 X44.743654822335024 Y210.00761421319797
G1 X44.10837563451776 Y210.64213197969542 F900
G1 X44.109137055837564 Y43.987309644670056 F900
G1 X107.76395939086294 Y43.987309644670056
G1 X107.76395939086294 Y210.64213197969542
G1 X44.109137055837564 Y210.64213197969542
G1 X43.473350253807105 Y211.27715736040608 F900
G1 X43.4746192893401 Y43.350253807106604 F900
G1 X108.3984771573604 Y43.350253807106604
G1 X108.3984771573604 Y211.2766497461929
G1 X43.4746192893401 Y211.2766497461929
G1 X42.83832487309645 Y211.91218274111674 F900
G1 X42.837563451776646 Y42.71573604060913 F900
G1 X109.03553299492386 Y42.71573604060913
G1 X109.03553299492386 Y211.91116751269035
G1 X42.837563451776646 Y211.91116751269035
G1 X42.20329949238579 Y212.54720812182742 F900
G1 X42.203045685279186 Y42.08121827411168 F900
G1 X109.67005076142131 Y42.08121827411168
G1 X109.67005076142131 Y212.5482233502538
G1 X42.203045685279186 Y212.5482233502538
G1 X41.56827411167513 Y213.18223350253808 F900
G1 X41.568527918781726 Y41.44670050761421 F900
G1 X110.30456852791879 Y41.44670050761421
G1 X110.30456852791879 Y213.18274111675126
G1 X41.568527918781726 Y213.18274111675126
G1 X40.93350253807107 Y213.81725888324874 F900
G1 X40.934010152284266 Y40.81218274111676 F900
G1 X110.93908629441626 Y40.81218274111676
G1 X110.93908629441626 Y213.8172588832487
G1 X40.934010152284266 Y213.8172588832487
G1 X40.29847715736041 Y214.4522842639594 F900
G1 X40.299492385786806 Y40.175126903553306 F900
G1 X111.57360406091371 Y40.175126903553306
G1 X111.57360406091371 Y214.4517766497462
G1 X40.299492385786806 Y214.4517766497462
G1 X39.663451776649744 Y215.08730964467006 F900
G1 X39.66243654822335 Y39.54060913705584 F900
G1 X112.21065989847716 Y39.54060913705584
G1 X112.21065989847716 Y215.08629441624365
G1 X39.66243654822335 Y215.08629441624365
G1 X39.028426395939086 Y215.72233502538072 F900
G1 X39.02791878172589 Y38.90609137055838 F900
G1 X112.84517766497461 Y38.90609137055838
G1 X112.84517766497461 Y215.7233502538071
G1 X39.02791878172589 Y215.7233502538071
G1 X38.39340101522843 Y216.35710659898479 F900
G1 X38.39340101522843 Y38.27157360406091 F900
G1 X113.47969543147208 Y38.27157360406091
G1 X113.47969543147208 Y216.35786802030455
G1 X38.39340101522843 Y216.35786802030455
G1 X37.75837563451777 Y216.99213197969544 F900
G1 X37.75888324873097 Y37.63705583756345 F900
G1 X114.11421319796955 Y37.63705583756345
G1 X114.11421319796955 Y216.992385786802
G1 X37.75888324873097 Y216.992385786802
G1 X37.123350253807104 Y217.6271573604061 F900
G1 X37.1243654822335 Y37 F900
G1 X114.748730964467 Y37
G1 X114.748730964467 Y217.62690355329948
G1 X37.1243654822335 Y217.62690355329948
G1 X36.488324873096445 Y218.26218274111676 F900
G1 X36.48730964467005 Y36.36548223350254 F900
G1 X115.38324873096445 Y36.36548223350254
G1 X115.38324873096445 Y218.26142131979694
G1 X36.48730964467005 Y218.26142131979694
G1 X35.85329949238579 Y218.89720812182742 F900
G1 X35.85279187817259 Y35.73096446700508 F900
G1 X116.0203045685279 Y35.73096446700508
G1 X116.0203045685279 Y218.8984771573604
G1 X35.85279187817259 Y218.8984771573604
G1 X35.21827411167513 Y219.53223350253808 F900
G1 X35.21827411167513 Y35.09644670050761 F900
G1 X116.65482233502537 Y35.09644670050761
G1 X116.65482233502537 Y219.53299492385787
G1 X35.21827411167513 Y219.53299492385787
G1 X34.583502538071066 Y220.16725888324873 F900
G1 X34.58375634517766 Y34.46192893401015 F900
G1 X117.28934010152285 Y34.46192893401015
G1 X117.28934010152285 Y220.16751269035535
G1 X34.58375634517766 Y220.16751269035535
G1 X33.94847715736041 Y220.8022842639594 F900
G1 X33.9492385786802 Y33.8248730964467 F900
G1 X117.9238578680203 Y33.8248730964467
G1 X117.9238578680203 Y220.8020304568528
G1 X33.9492385786802 Y220.8020304568528
G1 X33.31345177664975 Y221.43730964467005 F900
G1 X33.31218274111675 Y33.190355329949234 F900
G1 X118.55837563451777 Y33.190355329949234
G1 X118.55837563451777 Y221.43654822335026
G1 X33.31218274111675 Y221.43654822335026
G1 X32.678426395939084 Y222.0723350253807 F900
G1 X32.67766497461929 Y32.555837563451774 F900
G1 X119.19543147208122 Y32.555837563451774
G1 X119.19543147208122 Y222.07106598984774
G1 X32.67766497461929 Y222.07106598984774
G1 X32.043401015228426 Y222.70710659898478 F900
G1 X32.04314720812183 Y31.921319796954315 F900
G1 X119.82994923857868 Y31.921319796954315
G1 X119.82994923857868 Y222.70812182741116
G1 X32.04314720812183 Y222.70812182741116
G1 X31.408375634517768 Y223.34213197969544 F900
G1 X31.408629441624363 Y31.286802030456855 F900
G1 X120.46446700507614 Y31.286802030456855
G1 X120.46446700507614 Y223.34263959390864
G1 X31.408629441624363 Y223.34263959390864
G1 X30.773350253807106 Y223.9771573604061 F900
G1 X30.774111675126903 Y30.652284263959395 F900
G1 X121.0989847715736 Y30.652284263959395
G1 X121.0989847715736 Y223.9771573604061
G1 X30.774111675126903 Y223.9771573604061
G1 X30.138324873096447 Y224.61218274111675 F900
G1 X30.13959390862944 Y30.015228426395943 F900
G1 X121.73350253807106 Y30.015228426395943
G1 X121.73350253807106 Y224.61167512690355
G1 X30.13959390862944 Y224.61167512690355
G1 X29.503299492385786 Y225.2472081218274 F900
G1 X29.502538071065988 Y29.380710659898476 F900
G1 X122.37055837563452 Y29.380710659898476
G1 X122.37055837563452 Y225.24619289340103
G1 X29.502538071065988 Y225.24619289340103
G1 X28.868274111675127 Y225.88223350253807 F900
G1 X28.868020304568528 Y28.746192893401016 F900
G1 X123.00507614213197 Y28.746192893401016
G1 X123.00507614213197 Y225.88324873096445
G1 X28.868020304568528 Y225.88324873096445
G1 X28.233502538071065 Y226.51725888324873 F900
G1 X28.233502538071065 Y28.111675126903553 F900
G1 X123.63959390862945 Y28.111675126903553
G1 X123.63959390862945 Y226.51776649746193
G1 X28.233502538071065 Y226.51776649746193
G1 X27.598477157360406 Y227.1522842639594 F900
G1 X27.598984771573605 Y27.477157360406093 F900
G1 X124.2741116751269 Y27.477157360406093
G1 X124.2741116751269 Y227.1522842639594
G1 X27.598984771573605 Y227.1522842639594
G1 X26.963451776649745 Y227.78730964467005 F900
G1 X26.96446700507614 Y26.84010152284264 F900
G1 X124.90862944162437 Y26.84010152284264
G1 X124.90862944162437 Y227.78680203045684
G1 X26.96446700507614 Y227.78680203045684
G0 Z10
G0 X75.85837563451777 Y178.89213197969542
G1 Z-1.25 F600
G1 X75.85786802030456 Y75.73604060913706 F900
G1 X76.01522842639594 Y75.73604060913706
G1 X76.01522842639594 Y178.89340101522845
G1 X75.85786802030456 Y178.89340101522845
G1 X75.22335025380711 Y179.52715736040608 F900
G1 X75.22335025380711 Y75.1015228426396 F900
G1 X76.6497461928934 Y75.1015228426396
G1 X76.6497461928934 Y179.5279187817259
G1 X75.22335025380711 Y179.5279187817259
G1 X74.58832487309644 Y180.16218274111674 F900
G1 X74.58883248730965 Y74.46700507614213 F900
G1 X77.28426395939087 Y74.46700507614213
G1 X77.28426395939087 Y180.16243654822335
G1 X74.58883248730965 Y180.16243654822335
G1 X73.95329949238578 Y180.79720812182742 F900
G1 X73.95431472081218 Y73.82994923857868 F900
G1 X77.91878172588832 Y73.82994923857868
G1 X77.91878172588832 Y180.79695431472084
G1 X73.95431472081218 Y180.79695431472084
G1 X73.31827411167512 Y181.43223350253808 F900
G1 X73.31725888324873 Y73.19543147208121 F900
G1 X78.55329949238579 Y73.19543147208121
G1 X78.55329949238579 Y181.4314720812183
G1 X73.31725888324873 Y181.4314720812183
G1 X72.68350253807107 Y182.06725888324874 F900
G1 X72.68274111675127 Y72.56091370558376 F900
G1 X79.19035532994924 Y72.56091370558376
G1 X79.19035532994924 Y182.06598984771574
G1 X72.68274111675127 Y182.06598984771574
G1 X72.04847715736041 Y182.7022842639594 F900
G1 X72.0482233502538 Y71.92639593908629 F900
G1 X79.8248730964467 Y71.92639593908629
G1 X79.8248730964467 Y182.7030456852792
G1 X72.0482233502538 Y182.7030456852792
G1 X71.41345177664975 Y183.33730964467006 F900
G1 X71.41370558375635 Y71.29187817258884 F900
G1 X80.45939086294416 Y71.29187817258884
G1 X80.45939086294416 Y183.33756345177665
G1 X71.41370558375635 Y183.33756345177665
G1 X70.77842639593909 Y183.97233502538072 F900
G1 X70.77918781725887 Y70.65736040609137 F900
G1 X81.09390862944161 Y70.65736040609137
G1 X81.09390862944161 Y183.97208121827413
G1 X70.77918781725887 Y183.97208121827413
G1 X70.14340101522842 Y184.60710659898479 F900
G1 X70.14213197969542 Y70.02030456852792 F900
G1 X81.72842639593908 Y70.02030456852792
G1 X81.72842639593908 Y184.60659898477158
G1 X70.14213197969542 Y184.60659898477158
G1 X69.50837563451776 Y185.24213197969544 F900
G1 X69.50761421319797 Y69.38578680203045 F900
G1 X82.36548223350253 Y69.38578680203045
G1 X82.36548223350253 Y185.24111675126903
G1 X69.50761421319797 Y185.24111675126903
G1 X68.8733502538071 Y185.8771573604061 F900
G1 X68.87309644670052 Y68.751269035533 F900
G1 X83 Y68.751269035533
G1 X83 Y185.87817258883248
G1 X68.87309644670052 Y185.87817258883248
G1 X68.23832487309645 Y186.51218274111676 F900
G1 X68.23857868020305 Y68.11675126903553 F900
G1 X83.63451776649747 Y68.11675126903553
G1 X83.63451776649747 Y186.51269035532994
G1 X68.23857868020305 Y186.51269035532994
G1 X67.60329949238579 Y187.14720812182742 F900
G1 X67.60406091370558 Y67.48223350253807 F900
G1 X84.26903553299493 Y67.48223350253807
G1 X84.26903553299493 Y187.14720812182742
G1 X67.60406091370558 Y187.14720812182742
G1 X66.96827411167513 Y187.78223350253808 F900
G1 X66.96954314720811 Y66.84517766497461 F900
G1 X84.90355329949239 Y66.84517766497461
G1 X84.90355329949239 Y187.78172588832487
G1 X66.96954314720811 Y187.78172588832487
G1 X66.33350253807106 Y188.41725888324873 F900
G1 X66.33248730964466 Y66.21065989847716 F900
G1 X85.54060913705584 Y66.21065989847716
G1 X85.54060913705584 Y188.41624365482232
G1 X66.33248730964466 Y188.41624365482232
G1 X65.6984771573604 Y189.0522842639594 F900
G1 X65.69796954314721 Y65.5761421319797 F900
G1 X86.17512690355329 Y65.5761421319797
G1 X86.17512690355329 Y189.05329949238578
G1 X65.69796954314721 Y189.05329949238578
G1 X65.06345177664974 Y189.68730964467005 F900
G1 X65.06345177664974 Y64.94162436548224 F900
G1 X86.80964467005076 Y64.94162436548224
G1 X86.80964467005076 Y189.68781725888323
G1 X65.06345177664974 Y189.68781725888323
G1 X64.42842639593908 Y190.3223350253807 F900
G1 X64.42893401015229 Y64.30710659898477 F900
G1 X87.44416243654823 Y64.30710659898477
G1 X87.44416243654823 Y190.3223350253807
G1 X64.42893401015229 Y190.3223350253807
G1 X63.793401015228426 Y190.95710659898478 F900
G1 X63.79441624365482 Y63.67005076142132 F900
G1 X88.07868020304568 Y63.67005076142132
G1 X88.07868020304568 Y190.95685279187816
G1 X63.79441624365482 Y190.95685279187816
G1 X63.15837563451777 Y191.59213197969544 F900
G1 X63.15736040609137 Y63.035532994923855 F900
G1 X88.71573604060913 Y63.035532994923855
G1 X88.71573604060913 Y191.59137055837564
G1 X63.15736040609137 Y191.59137055837564
G1 X62.52335025380711 Y192.2271573604061 F900
G1 X62.522842639593904 Y62.401015228426395 F900
G1 X89.35025380710661 Y62.401015228426395
G1 X89.35025380710661 Y192.2284263959391
G1 X62.522842639593904 Y192.2284263959391
G1 X61.888324873096444 Y192.86218274111675 F900
G1 X61.88832487309645 Y61.766497461928935 F900
G1 X89.98477157360406 Y61.766497461928935
G1 X89.98477157360406 Y192.86294416243658
G1 X61.88832487309645 Y192.86294416243658
G1 X61.253299492385786 Y193.4972081218274 F900
G1 X61.253807106598984 Y61.131979695431475 F900
G1 X90.61928934010153 Y61.131979695431475
G1 X90.61928934010153 Y193.49746192893403
G1 X61.253807106598984 Y193.49746192893403
G1 X60.61827411167513 Y194.13223350253807 F900
G1 X60.61928934010152 Y60.494923857868024 F900
G1 X91.25380710659898 Y60.494923857868024
G1 X91.25380710659898 Y194.13197969543148
G1 X60.61928934010152 Y194.13197969543148
G1 X59.983502538071065 Y194.76725888324873 F900
G1 X59.982233502538065 Y59.86040609137056 F900
G1 X91.88832487309645 Y59.86040609137056
G1 X91.88832487309645 Y194.76649746192894
G1 X59.982233502538065 Y194.76649746192894
G1 X59.348477157360406 Y195.4022842639594 F900
G1 X59.347715736040605 Y59.2258883248731 F900
G1 X92.5253807106599 Y59.2258883248731
G1 X92.5253807106599 Y195.4010152284264
G1 X59.347715736040605 Y195.4010152284264
G1 X58.71345177664975 Y196.03730964467005 F900
G1 X58.713197969543145 Y58.59137055837564 F900
G1 X93.15989847715736 Y58.59137055837564
G1 X93.15989847715736 Y196.03807106598987
G1 X58.713197969543145 Y196.03807106598987
G1 X58.07842639593909 Y196.6723350253807 F900
G1 X58.078680203045685 Y57.95685279187818 F900
G1 X93.79441624365482 Y57.95685279187818
G1 X93.79441624365482 Y196.67258883248732
G1 X58.078680203045685 Y196.67258883248732
G1 X57.443401015228424 Y197.30710659898477 F900
G1 X57.444162436548226 Y57.32233502538071 F900
G1 X94.42893401015228 Y57.32233502538071
G1 X94.42893401015228 Y197.30710659898477
G1 X57.444162436548226 Y197.30710659898477
G1 X56.808375634517766 Y197.94213197969543 F900
G1 X56.80964467005076 Y56.68527918781726 F900
G1 X95.06345177664974 Y56.68527918781726
G1 X95.06345177664974 Y197.94162436548223
G1 X56.80964467005076 Y197.94162436548223
G1 X56.17335025380711 Y198.5771573604061 F900
G1 X56.17258883248731 Y56.05076142131979 F900
G1 X95.7005076142132 Y56.05076142131979
G1 X95.7005076142132 Y198.57614213197968
G1 X56.17258883248731 Y198.57614213197968
G1 X55.53832487309645 Y199.21218274111675 F900
G1 X55.53807106598985 Y55.41624365482234 F900
G1 X96.33502538071068 Y55.41624365482234
G1 X96.33502538071068 Y199.21319796954316
G1 X55.53807106598985 Y199.21319796954316
G1 X54.903299492385784 Y199.8472081218274 F900
G1 X54.90355329949239 Y54.78172588832487 F900
G1 X96.96954314720813 Y54.78172588832487
G1 X96.96954314720813 Y199.8477157360406
G1 X54.90355329949239 Y199.8477157360406
G1 X54.268274111675126 Y200.48223350253807 F900
G1 X54.26903553299493 Y54.14720812182742 F900
G1 X97.60406091370558 Y54.14720812182742
G1 X97.60406091370558 Y200.48223350253807
G1 X54.26903553299493 Y200.48223350253807
G1 X53.63350253807106 Y201.11725888324872 F900
G1 X53.63451776649746 Y53.51015228426397 F900
G1 X98.23857868020305 Y53.51015228426397
G1 X98.23857868020305 Y201.11675126903552
G1 X53.63451776649746 Y201.11675126903552
G1 X52.998477157360405 Y201.75228426395938 F900
G1 X52.99746192893401 Y52.87563451776649 F900
G1 X98.8756345177665 Y52.87563451776649
G1 X98.8756345177665 Y201.75126903553297
G1 X52.99746192893401 Y201.75126903553297
G1 X52.36345177664975 Y202.38730964467004 F900
G1 X52.36294416243655 Y52.24111675126903 F900
G1 X99.51015228426397 Y52.24111675126903
G1 X99.51015228426397 Y202.38832487309645
G1 X52.36294416243655 Y202.38832487309645
G1 X51.72842639593909 Y203.0223350253807 F900
G1 X51.72842639593909 Y51.60659898477157 F900
G1 X100.14467005076142 Y51.60659898477157
G1 X100.14467005076142 Y203.0228426395939
G1 X51.72842639593909 Y203.0228426395939
G1 X51.09340101522842 Y203.65710659898477 F900
G1 X51.09390862944163 Y50.97208121827411 F900
G1 X100.77918781725887 Y50.97208121827411
G1 X100.77918781725887 Y203.65736040609136
G1 X51.09390862944163 Y203.65736040609136
G1 X50.458375634517765 Y204.29213197969543 F900
G1 X50.45939086294417 Y50.33502538071066 F900
G1 X101.41370558375634 Y50.33502538071066
G1 X101.41370558375634 Y204.2918781725888
G1 X50.45939086294417 Y204.2918781725888
G1 X49.82335025380711 Y204.92715736040608 F900
G1 X49.82233502538071 Y49.700507614213194 F900
G1 X102.05076142131979 Y49.700507614213194
G1 X102.05076142131979 Y204.92639593908632
G1 X49.82233502538071 Y204.92639593908632
G1 X49.18832487309645 Y205.56218274111674 F900
G1 X49.18781725888324 Y49.065989847715734 F900
G1 X102.68527918781726 Y49.065989847715734
G1 X102.68527918781726 Y205.56345177664977
G1 X49.18781725888324 Y205.56345177664977
G1 X48.55329949238579 Y206.1972081218274 F900
G1 X48.55329949238579 Y48.431472081218274 F900
G1 X103.31979695431473 Y48.431472081218274
G1 X103.31979695431473 Y206.19796954314722
G1 X48.55329949238579 Y206.19796954314722
G1 X47.918274111675125 Y206.83223350253806 F900
G1 X47.91878172588832 Y47.796954314720814 F900
G1 X103.95431472081219 Y47.796954314720814
G1 X103.95431472081219 Y206.83248730964468
G1 X47.91878172588832 Y206.83248730964468
G1 X47.28350253807107 Y207.46725888324872 F900
G1 X47.28426395939087 Y47.15989847715736 F900
G1 X104.58883248730965 Y47.15989847715736
G1 X104.58883248730965 Y207.46700507614213
G1 X47.28426395939087 Y207.46700507614213
G1 X46.648477157360404 Y208.1022842639594 F900
G1 X46.64720812182742 Y46.5253807106599 F900
G1 X105.22335025380711 Y46.5253807106599
G1 X105.22335025380711 Y208.1015228426396
G1 X46.64720812182742 Y208.1015228426396
G1 X46.013451776649745 Y208.73730964467006 F900
G1 X46.012690355329944 Y45.890862944162436 F900
G1 X105.86040609137056 Y45.890862944162436
G1 X105.86040609137056 Y208.73604060913706
G1 X46.012690355329944 Y208.73604060913706
G1 X45.37842639593909 Y209.37233502538072 F900
G1 X45.378172588832484 Y45.256345177664976 F900
G1 X106.49492385786802 Y45.256345177664976
G1 X106.49492385786802 Y209.37309644670052
G1 X45.378172588832484 Y209.37309644670052
G1 X44.74340101522843 Y210.00710659898476 F900
G1 X44.743654822335024 Y44.621827411167516 F900
G1 X107.12944162436548 Y44.621827411167516
G1 X107.12944162436548 Y210.00761421319797
G1 X44.743654822335024 Y210.00761421319797
G1 X44.10837563451776 Y210.64213197969542 F900
G1 X44.109137055837564 Y43.987309644670056 F900
G1 X107.76395939086294 Y43.987309644670056
G1 X107.76395939086294 Y210.64213197969542
G1 X44.109137055837564 Y210.64213197969542
G1 X43.473350253807105 Y211.27715736040608 F900
G1 X43.4746192893401 Y43.350253807106604 F900
G1 X108.3984771573604 Y43.350253807106604
G1 X108.3984771573604 Y211.2766497461929
G1 X43.4746192893401 Y211.2766497461929
G1 X42.83832487309645 Y211.91218274111674 F900
G1 X42.837563451776646 Y42.71573604060913 F900
G1 X109.03553299492386 Y42.71573604060913
G1 X109.03553299492386 Y211.91116751269035
G1 X42.837563451776646 Y211.91116751269035
G1 X42.20329949238579 Y212.54720812182742 F900
G1 X42.203045685279186 Y42.08121827411168 F900
G1 X109.67005076142131 Y42.08121827411168
G1 X109.67005076142131 Y212.5482233502538
G1 X42.203045685279186 Y212.5482233502538
G1 X41.56827411167513 Y213.18223350253808 F900
G1 X41.568527918781726 Y41.44670050761421 F900
G1 X110.30456852791879 Y41.44670050761421
G1 X110.30456852791879 Y213.18274111675126
G1 X41.568527918781726 Y213.18274111675126
G1 X40.93350253807107 Y213.81725888324874 F900
G1 X40.934010152284266 Y40.81218274111676 F900
G1 X110.93908629441626 Y40.81218274111676
G1 X110.93908629441626 Y213.8172588832487
G1 X40.934010152284266 Y213.8172588832487
G1 X40.29847715736041 Y214.4522842639594 F900
G1 X40.299492385786806 Y40.175126903553306 F900
G1 X111.57360406091371 Y40.175126903553306
G1 X111.57360406091371 Y214.4517766497462
G1 X40.299492385786806 Y214.4517766497462
G1 X39.663451776649744 Y215.08730964467006 F900
G1 X39.66243654822335 Y39.54060913705584 F900
G1 X112.21065989847716 Y39.54060913705584
G1 X112.21065989847716 Y215.08629441624365
G1 X39.66243654822335 Y215.08629441624365
G1 X39.028426395939086 Y215.72233502538072 F900
G1 X39.02791878172589 Y38.90609137055838 F900
G1 X112.84517766497461 Y38.90609137055838
G1 X112.84517766497461 Y215.7233502538071
G1 X39.02791878172589 Y215.7233502538071
G1 X38.39340101522843 Y216.35710659898479 F900
G1 X38.39340101522843 Y38.27157360406091 F900
G1 X113.47969543147208 Y38.27157360406091
G1 X113.47969543147208 Y216.35786802030455
G1 X38.39340101522843 Y216.35786802030455
G1 X37.75837563451777 Y216.99213197969544 F900
G1 X37.75888324873097 Y37.63705583756345 F900
G1 X114.11421319796955 Y37.63705583756345
G1 X114.11421319796955 Y216.992385786802
G1 X37.75888324873097 Y216.992385786802
G1 X37.123350253807104 Y217.6271573604061 F900
G1 X37.1243654822335 Y37 F900
G1 X114.748730964467 Y37
G1 X114.748730964467 Y217.62690355329948
G1 X37.1243654822335 Y217.62690355329948
G1 X36.488324873096445 Y218.26218274111676 F900
G1 X36.48730964467005 Y36.36548223350254 F900
G1 X115.38324873096445 Y36.36548223350254
G1 X115.38324873096445 Y218.26142131979694
G1 X36.48730964467005 Y218.26142131979694
G1 X35.85329949238579 Y218.89720812182742 F900
G1 X35.85279187817259 Y35.73096446700508 F900
G1 X116.0203045685279 Y35.73096446700508
G1 X116.0203045685279 Y218.8984771573604
G1 X35.85279187817259 Y218.8984771573604
G1 X35.21827411167513 Y219.53223350253808 F900
G1 X35.21827411167513 Y35.09644670050761 F900
G1 X116.65482233502537 Y35.09644670050761
G1 X116.65482233502537 Y219.53299492385787
G1 X35.21827411167513 Y219.53299492385787
G1 X34.583502538071066 Y220.16725888324873 F900
G1 X34.58375634517766 Y34.46192893401015 F900
G1 X117.28934010152285 Y34.46192893401015
G1 X117.28934010152285 Y220.16751269035535
G1 X34.58375634517766 Y220.16751269035535
G1 X33.94847715736041 Y220.8022842639594 F900
G1 X33.9492385786802 Y33.8248730964467 F900
G1 X117.9238578680203 Y33.8248730964467
G1 X117.9238578680203 Y220.8020304568528
G1 X33.9492385786802 Y220.8020304568528
G1 X33.31345177664975 Y221.43730964467005 F900
G1 X33.31218274111675 Y33.190355329949234 F900
G1 X118.55837563451777 Y33.190355329949234
G1 X118.55837563451777 Y221.43654822335026
G1 X33.31218274111675 Y221.43654822335026
G1 X32.678426395939084 Y222.0723350253807 F900
G1 X32.67766497461929 Y32.555837563451774 F900
G1 X119.19543147208122 Y32.555837563451774
G1 X119.19543147208122 Y222.07106598984774
G1 X32.67766497461929 Y222.07106598984774
G1 X32.043401015228426 Y222.70710659898478 F900
G1 X32.04314720812183 Y31.921319796954315 F900
G1 X119.82994923857868 Y31.921319796954315
G1 X119.82994923857868 Y222.70812182741116
G1 X32.04314720812183 Y222.70812182741116
G1 X31.408375634517768 Y223.34213197969544 F900
G1 X31.408629441624363 Y31.286802030456855 F900
G1 X120.46446700507614 Y31.286802030456855
G1 X120.46446700507614 Y223.34263959390864
G1 X31.408629441624363 Y223.34263959390864
G1 X30.773350253807106 Y223.9771573604061 F900
G1 X30.774111675126903 Y30.652284263959395 F900
G1 X121.0989847715736 Y30.652284263959395
G1 X121.0989847715736 Y223.9771573604061
G1 X30.774111675126903 Y223.9771573604061
G1 X30.138324873096447 Y224.61218274111675 F900
G1 X30.13959390862944 Y30.015228426395943 F900
G1 X121.73350253807106 Y30.015228426395943
G1 X121.73350253807106 Y224.61167512690355
G1 X30.13959390862944 Y224.61167512690355
G1 X29.503299492385786 Y225.2472081218274 F900
G1 X29.502538071065988 Y29.380710659898476 F900
G1 X122.37055837563452 Y29.380710659898476
G1 X122.37055837563452 Y225.24619289340103
G1 X29.502538071065988 Y225.24619289340103
G1 X28.868274111675127 Y225.88223350253807 F900
G1 X28.868020304568528 Y28.746192893401016 F900
G1 X123.00507614213197 Y28.746192893401016
G1 X123.00507614213197 Y225.88324873096445
G1 X28.868020304568528 Y225.88324873096445
G1 X28.233502538071065 Y226.51725888324873 F900
G1 X28.233502538071065 Y28.111675126903553 F900
G1 X123.63959390862945 Y28.111675126903553
G1 X123.63959390862945 Y226.51776649746193
G1 X28.233502538071065 Y226.51776649746193
G1 X27.598477157360406 Y227.1522842639594 F900
G1 X27.598984771573605 Y27.477157360406093 F900
G1 X124.2741116751269 Y27.477157360406093
G1 X124.2741116751269 Y227.1522842639594
G1 X27.598984771573605 Y227.1522842639594
G1 X26.963451776649745 Y227.78730964467005 F900
G1 X26.96446700507614 Y26.84010152284264 F900
G1 X124.90862944162437 Y26.84010152284264
G1 X124.90862944162437 Y227.78680203045684
G1 X26.96446700507614 Y227.78680203045684
G0 Z10
G0 X75.85837563451777 Y178.89213197969542
G1 Z-1.5 F600
G1 X75.85786802030456 Y75.73604060913706 F900
G1 X76.01522842639594 Y75.73604060913706
G1 X76.01522842639594 Y178.89340101522845
G1 X75.85786802030456 Y178.89340101522845
G1 X75.22335025380711 Y179.52715736040608 F900
G1 X75.22335025380711 Y75.1015228426396 F900
G1 X76.6497461928934 Y75.1015228426396
G1 X76.6497461928934 Y179.5279187817259
G1 X75.22335025380711 Y179.5279187817259
G1 X74.58832487309644 Y180.16218274111674 F900
G1 X74.58883248730965 Y74.46700507614213 F900
G1 X77.28426395939087 Y74.46700507614213
G1 X77.28426395939087 Y180.16243654822335
G1 X74.58883248730965 Y180.16243654822335
G1 X73.95329949238578 Y180.79720812182742 F900
G1 X73.95431472081218 Y73.82994923857868 F900
G1 X77.91878172588832 Y73.82994923857868
G1 X77.91878172588832 Y180.79695431472084
G1 X73.95431472081218 Y180.79695431472084
G1 X73.31827411167512 Y181.43223350253808 F900
G1 X73.31725888324873 Y73.19543147208121 F900
G1 X78.55329949238579 Y73.19543147208121
G1 X78.55329949238579 Y181.4314720812183
G1 X73.31725888324873 Y181.4314720812183
G1 X72.68350253807107 Y182.06725888324874 F900
G1 X72.68274111675127 Y72.56091370558376 F900
G1 X79.19035532994924 Y72.56091370558376
G1 X79.19035532994924 Y182.06598984771574
G1 X72.68274111675127 Y182.06598984771574
G1 X72.04847715736041 Y182.7022842639594 F900
G1 X72.0482233502538 Y71.92639593908629 F900
G1 X79.8248730964467 Y71.92639593908629
G1 X79.8248730964467 Y182.7030456852792
G1 X72.0482233502538 Y182.7030456852792
G1 X71.41345177664975 Y183.33730964467006 F900
G1 X71.41370558375635 Y71.29187817258884 F900
G1 X80.45939086294416 Y71.29187817258884
G1 X80.45939086294416 Y183.33756345177665
G1 X71.41370558375635 Y183.33756345177665
G1 X70.77842639593909 Y183.97233502538072 F900
G1 X70.77918781725887 Y70.65736040609137 F900
G1 X81.09390862944161 Y70.65736040609137
G1 X81.09390862944161 Y183.97208121827413
G1 X70.77918781725887 Y183.97208121827413
G1 X70.14340101522842 Y184.60710659898479 F900
G1 X70.14213197969542 Y70.02030456852792 F900
G1 X81.72842639593908 Y70.02030456852792
G1 X81.72842639593908 Y184.60659898477158
G1 X70.14213197969542 Y184.60659898477158
G1 X69.50837563451776 Y185.24213197969544 F900
G1 X69.50761421319797 Y69.38578680203045 F900
G1 X82.36548223350253 Y69.38578680203045
G1 X82.36548223350253 Y185.24111675126903
G1 X69.50761421319797 Y185.24111675126903
G1 X68.8733502538071 Y185.8771573604061 F900
G1 X68.87309644670052 Y68.751269035533 F900
G1 X83 Y68.751269035533
G1 X83 Y185.87817258883248
G1 X68.87309644670052 Y185.87817258883248
G1 X68.23832487309645 Y186.51218274111676 F900
G1 X68.23857868020305 Y68.11675126903553 F900
G1 X83.63451776649747 Y68.11675126903553
G1 X83.63451776649747 Y186.51269035532994
G1 X68.23857868020305 Y186.51269035532994
G1 X67.60329949238579 Y187.14720812182742 F900
G1 X67.60406091370558 Y67.48223350253807 F900
G1 X84.26903553299493 Y67.48223350253807
G1 X84.26903553299493 Y187.14720812182742
G1 X67.60406091370558 Y187.14720812182742
G1 X66.96827411167513 Y187.78223350253808 F900
G1 X66.96954314720811 Y66.84517766497461 F900
G1 X84.90355329949239 Y66.84517766497461
G1 X84.90355329949239 Y187.78172588832487
G1 X66.96954314720811 Y187.78172588832487
G1 X66.33350253807106 Y188.41725888324873 F900
G1 X66.33248730964466 Y66.21065989847716 F900
G1 X85.54060913705584 Y66.21065989847716
G1 X85.54060913705584 Y188.41624365482232
G1 X66.33248730964466 Y188.41624365482232
G1 X65.6984771573604 Y189.0522842639594 F900
G1 X65.69796954314721 Y65.5761421319797 F900
G1 X86.17512690355329 Y65.5761421319797
G1 X86.17512690355329 Y189.05329949238578
G1 X65.69796954314721 Y189.05329949238578
G1 X65.06345177664974 Y189.68730964467005 F900
G1 X65.06345177664974 Y64.94162436548224 F900
G1 X86.80964467005076 Y64.94162436548224
G1 X86.80964467005076 Y189.68781725888323
G1 X65.06345177664974 Y189.68781725888323
G1 X64.42842639593908 Y190.3223350253807 F900
G1 X64.42893401015229 Y64.30710659898477 F900
G1 X87.44416243654823 Y64.30710659898477
G1 X87.44416243654823 Y190.3223350253807
G1 X64.42893401015229 Y190.3223350253807
G1 X63.793401015228426 Y190.95710659898478 F900
G1 X63.79441624365482 Y63.67005076142132 F900
G1 X88.07868020304568 Y63.67005076142132
G1 X88.07868020304568 Y190.95685279187816
G1 X63.79441624365482 Y190.95685279187816
G1 X63.15837563451777 Y191.59213197969544 F900
G1 X63.15736040609137 Y63.035532994923855 F900
G1 X88.71573604060913 Y63.035532994923855
G1 X88.71573604060913 Y191.59137055837564
G1 X63.15736040609137 Y191.59137055837564
G1 X62.52335025380711 Y192.2271573604061 F900
G1 X62.522842639593904 Y62.401015228426395 F900
G1 X89.35025380710661 Y62.401015228426395
G1 X89.35025380710661 Y192.2284263959391
G1 X62.522842639593904 Y192.2284263959391
G1 X61.888324873096444 Y192.86218274111675 F900
G1 X61.88832487309645 Y61.766497461928935 F900
G1 X89.98477157360406 Y61.766497461928935
G1 X89.98477157360406 Y192.86294416243658
G1 X61.88832487309645 Y192.86294416243658
G1 X61.253299492385786 Y193.4972081218274 F900
G1 X61.253807106598984 Y61.131979695431475 F900
G1 X90.61928934010153 Y61.131979695431475
G1 X90.61928934010153 Y193.49746192893403
G1 X61.253807106598984 Y193.49746192893403
G1 X60.61827411167513 Y194.13223350253807 F900
G1 X60.61928934010152 Y60.494923857868024 F900
G1 X91.25380710659898 Y60.494923857868024
G1 X91.25380710659898 Y194.13197969543148
G1 X60.61928934010152 Y194.13197969543148
G1 X59.983502538071065 Y194.76725888324873 F900
G1 X59.982233502538065 Y59.86040609137056 F900
G1 X91.88832487309645 Y59.86040609137056
G1 X91.88832487309645 Y194.76649746192894
G1 X59.982233502538065 Y194.76649746192894
G1 X59.348477157360406 Y195.4022842639594 F900
G1 X59.347715736040605 Y59.2258883248731 F900
G1 X92.5253807106599 Y59.2258883248731
G1 X92.5253807106599 Y195.4010152284264
G1 X59.347715736040605 Y195.4010152284264
G1 X58.71345177664975 Y196.03730964467005 F900
G1 X58.713197969543145 Y58.59137055837564 F900
G1 X93.15989847715736 Y58.59137055837564
G1 X93.15989847715736 Y196.03807106598987
G1 X58.713197969543145 Y196.03807106598987
G1 X58.07842639593909 Y196.6723350253807 F900
G1 X58.078680203045685 Y57.95685279187818 F900
G1 X93.79441624365482 Y57.95685279187818
G1 X93.79441624365482 Y196.67258883248732
G1 X58.078680203045685 Y196.67258883248732
G1 X57.443401015228424 Y197.30710659898477 F900
G1 X57.444162436548226 Y57.32233502538071 F900
G1 X94.42893401015228 Y57.32233502538071
G1 X94.42893401015228 Y197.30710659898477
G1 X57.444162436548226 Y197.30710659898477
G1 X56.808375634517766 Y197.94213197969543 F900
G1 X56.80964467005076 Y56.68527918781726 F900
G1 X95.06345177664974 Y56.68527918781726
G1 X95.06345177664974 Y197.94162436548223
G1 X56.80964467005076 Y197.94162436548223
G1 X56.17335025380711 Y198.5771573604061 F900
G1 X56.17258883248731 Y56.05076142131979 F900
G1 X95.7005076142132 Y56.05076142131979
G1 X95.7005076142132 Y198.57614213197968
G1 X56.17258883248731 Y198.57614213197968
G1 X55.53832487309645 Y199.21218274111675 F900
G1 X55.53807106598985 Y55.41624365482234 F900
G1 X96.33502538071068 Y55.41624365482234
G1 X96.33502538071068 Y199.21319796954316
G1 X55.53807106598985 Y199.21319796954316
G1 X54.903299492385784 Y199.8472081218274 F900
G1 X54.90355329949239 Y54.78172588832487 F900
G1 X96.96954314720813 Y54.78172588832487
G1 X96.96954314720813 Y199.8477157360406
G1 X54.90355329949239 Y199.8477157360406
G1 X54.268274111675126 Y200.48223350253807 F900
G1 X54.26903553299493 Y54.14720812182742 F900
G1 X97.60406091370558 Y54.14720812182742
G1 X97.60406091370558 Y200.48223350253807
G1 X54.26903553299493 Y200.48223350253807
G1 X53.63350253807106 Y201.11725888324872 F900
G1 X53.63451776649746 Y53.51015228426397 F900
G1 X98.23857868020305 Y53.51015228426397
G1 X98.23857868020305 Y201.11675126903552
G1 X53.63451776649746 Y201.11675126903552
G1 X52.998477157360405 Y201.75228426395938 F900
G1 X52.99746192893401 Y52.87563451776649 F900
G1 X98.8756345177665 Y52.87563451776649
G1 X98.8756345177665 Y201.75126903553297
G1 X52.99746192893401 Y201.75126903553297
G1 X52.36345177664975 Y202.38730964467004 F900
G1 X52.36294416243655 Y52.24111675126903 F900
G1 X99.51015228426397 Y52.24111675126903
G1 X99.51015228426397 Y202.38832487309645
G1 X52.36294416243655 Y202.38832487309645
G1 X51.72842639593909 Y203.0223350253807 F900
G1 X51.72842639593909 Y51.60659898477157 F900
G1 X100.14467005076142 Y51.60659898477157
G1 X100.14467005076142 Y203.0228426395939
G1 X51.72842639593909 Y203.0228426395939
G1 X51.09340101522842 Y203.65710659898477 F900
G1 X51.09390862944163 Y50.97208121827411 F900
G1 X100.77918781725887 Y50.97208121827411
G1 X100.77918781725887 Y203.65736040609136
G1 X51.09390862944163 Y203.65736040609136
G1 X50.458375634517765 Y204.29213197969543 F900
G1 X50.45939086294417 Y50.33502538071066 F900
G1 X101.41370558375634 Y50.33502538071066
G1 X101.41370558375634 Y204.2918781725888
G1 X50.45939086294417 Y204.2918781725888
G1 X49.82335025380711 Y204.92715736040608 F900
G1 X49.82233502538071 Y49.700507614213194 F900
G1 X102.05076142131979 Y49.700507614213194
G1 X102.05076142131979 Y204.92639593908632
G1 X49.82233502538071 Y204.92639593908632
G1 X49.18832487309645 Y205.56218274111674 F900
G1 X49.18781725888324 Y49.065989847715734 F900
G1 X102.68527918781726 Y49.065989847715734
G1 X102.68527918781726 Y205.56345177664977
G1 X49.18781725888324 Y205.56345177664977
G1 X48.55329949238579 Y206.1972081218274 F900
G1 X48.55329949238579 Y48.431472081218274 F900
G1 X103.31979695431473 Y48.431472081218274
G1 X103.31979695431473 Y206.19796954314722
G1 X48.55329949238579 Y206.19796954314722
G1 X47.918274111675125 Y206.83223350253806 F900
G1 X47.91878172588832 Y47.796954314720814 F900
G1 X103.95431472081219 Y47.796954314720814
G1 X103.95431472081219 Y206.83248730964468
G1 X47.91878172588832 Y206.83248730964468
G1 X47.28350253807107 Y207.46725888324872 F900
G1 X47.28426395939087 Y47.15989847715736 F900
G1 X104.58883248730965 Y47.15989847715736
G1 X104.58883248730965 Y207.46700507614213
G1 X47.28426395939087 Y207.46700507614213
G1 X46.648477157360404 Y208.1022842639594 F900
G1 X46.64720812182742 Y46.5253807106599 F900
G1 X105.22335025380711 Y46.5253807106599
G1 X105.22335025380711 Y208.1015228426396
G1 X46.64720812182742 Y208.1015228426396
G1 X46.013451776649745 Y208.73730964467006 F900
G1 X46.012690355329944 Y45.890862944162436 F900
G1 X105.86040609137056 Y45.890862944162436
G1 X105.86040609137056 Y208.73604060913706
G1 X46.012690355329944 Y208.73604060913706
G1 X45.37842639593909 Y209.37233502538072 F900
G1 X45.378172588832484 Y45.256345177664976 F900
G1 X106.49492385786802 Y45.256345177664976
G1 X106.49492385786802 Y209.37309644670052
G1 X45.378172588832484 Y209.37309644670052
G1 X44.74340101522843 Y210.00710659898476 F900
G1 X44.743654822335024 Y44.621827411167516 F900
G1 X107.12944162436548 Y44.621827411167516
G1 X107.12944162436548 Y210.00761421319797
G1 X44.743654822335024 Y210.00761421319797
G1 X44.10837563451776 Y210.64213197969542 F900
G1 X44.109137055837564 Y43.987309644670056 F900
G1 X107.76395939086294 Y43.987309644670056
G1 X107.76395939086294 Y210.64213197969542
G1 X44.109137055837564 Y210.64213197969542
G1 X43.473350253807105 Y211.27715736040608 F900
G1 X43.4746192893401 Y43.350253807106604 F900
G1 X108.3984771573604 Y43.350253807106604
G1 X108.3984771573604 Y211.2766497461929
G1 X43.4746192893401 Y211.2766497461929
G1 X42.83832487309645 Y211.91218274111674 F900
G1 X42.837563451776646 Y42.71573604060913 F900
G1 X109.03553299492386 Y42.71573604060913
G1 X109.03553299492386 Y211.91116751269035
G1 X42.837563451776646 Y211.91116751269035
G1 X42.20329949238579 Y212.54720812182742 F900
G1 X42.203045685279186 Y42.08121827411168 F900
G1 X109.67005076142131 Y42.08121827411168
G1 X109.67005076142131 Y212.5482233502538
G1 X42.203045685279186 Y212.5482233502538
G1 X41.56827411167513 Y213.18223350253808 F900
G1 X41.568527918781726 Y41.44670050761421 F900
G1 X110.30456852791879 Y41.44670050761421
G1 X110.30456852791879 Y213.18274111675126
G1 X41.568527918781726 Y213.18274111675126
G1 X40.93350253807107 Y213.81725888324874 F900
G1 X40.934010152284266 Y40.81218274111676 F900
G1 X110.93908629441626 Y40.81218274111676
G1 X110.93908629441626 Y213.8172588832487
G1 X40.934010152284266 Y213.8172588832487
G1 X40.29847715736041 Y214.4522842639594 F900
G1 X40.299492385786806 Y40.175126903553306 F900
G1 X111.57360406091371 Y40.175126903553306
