(Generated by PartKam Version 0.05)

G21 G90 G40

(pocket 1)
G0 Z10
T0 M6
G17
M3
G0 X74.58832487309644 Y180.16218274111674
G1 Z-0.25 F600
G1 X74.58883248730965 Y74.46700507614213 F1100
G1 X77.28426395939087 Y74.46700507614213
G1 X77.28426395939087 Y180.16243654822335
G1 X74.58883248730965 Y180.16243654822335
G1 X72.68350253807107 Y182.06725888324874 F1100
G1 X72.68274111675127 Y72.56091370558376 F1100
G1 X79.19035532994924 Y72.56091370558376
G1 X79.19035532994924 Y182.06598984771574
G1 X72.68274111675127 Y182.06598984771574
G1 X70.77842639593909 Y183.97233502538072 F1100
G1 X70.77918781725887 Y70.65736040609137 F1100
G1 X81.09390862944161 Y70.65736040609137
G1 X81.09390862944161 Y183.97208121827413
G1 X70.77918781725887 Y183.97208121827413
G1 X68.8733502538071 Y185.8771573604061 F1100
G1 X68.87309644670052 Y68.751269035533 F1100
G1 X83 Y68.751269035533
G1 X83 Y185.87817258883248
G1 X68.87309644670052 Y185.87817258883248
G1 X66.96827411167513 Y187.78223350253808 F1100
G1 X66.96954314720811 Y66.84517766497461 F1100
G1 X84.90355329949239 Y66.84517766497461
G1 X84.90355329949239 Y187.78172588832487
G1 X66.96954314720811 Y187.78172588832487
G1 X65.06345177664974 Y189.68730964467005 F1100
G1 X65.06345177664974 Y64.94162436548224 F1100
G1 X86.80964467005076 Y64.94162436548224
G1 X86.80964467005076 Y189.68781725888323
G1 X65.06345177664974 Y189.68781725888323
G1 X63.15837563451777 Y191.59213197969544 F1100
G1 X63.15736040609137 Y63.035532994923855 F1100
G1 X88.71573604060913 Y63.035532994923855
G1 X88.71573604060913 Y191.59137055837564
G1 X63.15736040609137 Y191.59137055837564
G1 X61.253299492385786 Y193.4972081218274 F1100
G1 X61.253807106598984 Y61.131979695431475 F1100
G1 X90.61928934010153 Y61.131979695431475
G1 X90.61928934010153 Y193.49746192893403
G1 X61.253807106598984 Y193.49746192893403
G1 X59.348477157360406 Y195.4022842639594 F1100
G1 X59.347715736040605 Y59.2258883248731 F1100
G1 X92.5253807106599 Y59.2258883248731
G1 X92.5253807106599 Y195.4010152284264
G1 X59.347715736040605 Y195.4010152284264
G1 X57.443401015228424 Y197.30710659898477 F1100
G1 X57.444162436548226 Y57.32233502538071 F1100
G1 X94.42893401015228 Y57.32233502538071
G1 X94.42893401015228 Y197.30710659898477
G1 X57.444162436548226 Y197.30710659898477
G1 X55.53832487309645 Y199.21218274111675 F1100
G1 X55.53807106598985 Y55.41624365482234 F1100
G1 X96.33502538071068 Y55.41624365482234
G1 X96.33502538071068 Y199.21319796954316
G1 X55.53807106598985 Y199.21319796954316
G1 X53.63350253807106 Y201.11725888324872 F1100
G1 X53.63451776649746 Y53.51015228426397 F1100
G1 X98.23857868020305 Y53.51015228426397
G1 X98.23857868020305 Y201.11675126903552
G1 X53.63451776649746 Y201.11675126903552
G1 X51.72842639593909 Y203.0223350253807 F1100
G1 X51.72842639593909 Y51.60659898477157 F1100
G1 X100.14467005076142 Y51.60659898477157
G1 X100.14467005076142 Y203.0228426395939
G1 X51.72842639593909 Y203.0228426395939
G1 X49.82335025380711 Y204.92715736040608 F1100
G1 X49.82233502538071 Y49.700507614213194 F1100
G1 X102.05076142131979 Y49.700507614213194
G1 X102.05076142131979 Y204.92639593908632
G1 X49.82233502538071 Y204.92639593908632
G1 X47.918274111675125 Y206.83223350253806 F1100
G1 X47.91878172588832 Y47.796954314720814 F1100
G1 X103.95431472081219 Y47.796954314720814
G1 X103.95431472081219 Y206.83248730964468
G1 X47.91878172588832 Y206.83248730964468
G1 X46.013451776649745 Y208.73730964467006 F1100
G1 X46.012690355329944 Y45.890862944162436 F1100
G1 X105.86040609137056 Y45.890862944162436
G1 X105.86040609137056 Y208.73604060913706
G1 X46.012690355329944 Y208.73604060913706
G1 X44.10837563451776 Y210.64213197969542 F1100
G1 X44.109137055837564 Y43.987309644670056 F1100
G1 X107.76395939086294 Y43.987309644670056
G1 X107.76395939086294 Y210.64213197969542
G1 X44.109137055837564 Y210.64213197969542
G1 X42.20329949238579 Y212.54720812182742 F1100
G1 X42.203045685279186 Y42.08121827411168 F1100
G1 X109.67005076142131 Y42.08121827411168
G1 X109.67005076142131 Y212.5482233502538
G1 X42.203045685279186 Y212.5482233502538
G1 X40.29847715736041 Y214.4522842639594 F1100
G1 X40.299492385786806 Y40.175126903553306 F1100
G1 X111.57360406091371 Y40.175126903553306
G1 X111.57360406091371 Y214.4517766497462
G1 X40.299492385786806 Y214.4517766497462
G1 X38.39340101522843 Y216.35710659898479 F1100
G1 X38.39340101522843 Y38.27157360406091 F1100
G1 X113.47969543147208 Y38.27157360406091
G1 X113.47969543147208 Y216.35786802030455
G1 X38.39340101522843 Y216.35786802030455
G1 X36.488324873096445 Y218.26218274111676 F1100
G1 X36.48730964467005 Y36.36548223350254 F1100
G1 X115.38324873096445 Y36.36548223350254
G1 X115.38324873096445 Y218.26142131979694
G1 X36.48730964467005 Y218.26142131979694
G1 X34.583502538071066 Y220.16725888324873 F1100
G1 X34.58375634517766 Y34.46192893401015 F1100
G1 X117.28934010152285 Y34.46192893401015
G1 X117.28934010152285 Y220.16751269035535
G1 X34.58375634517766 Y220.16751269035535
G1 X32.678426395939084 Y222.0723350253807 F1100
G1 X32.67766497461929 Y32.555837563451774 F1100
G1 X119.19543147208122 Y32.555837563451774
G1 X119.19543147208122 Y222.07106598984774
G1 X32.67766497461929 Y222.07106598984774
G1 X30.773350253807106 Y223.9771573604061 F1100
G1 X30.774111675126903 Y30.652284263959395 F1100
G1 X121.0989847715736 Y30.652284263959395
G1 X121.0989847715736 Y223.9771573604061
G1 X30.774111675126903 Y223.9771573604061
G1 X28.868274111675127 Y225.88223350253807 F1100
G1 X28.868020304568528 Y28.746192893401016 F1100
G1 X123.00507614213197 Y28.746192893401016
G1 X123.00507614213197 Y225.88324873096445
G1 X28.868020304568528 Y225.88324873096445
G1 X26.963451776649745 Y227.78730964467005 F1100
G1 X26.96446700507614 Y26.84010152284264 F1100
G1 X124.90862944162437 Y26.84010152284264
G1 X124.90862944162437 Y227.78680203045684
G1 X26.96446700507614 Y227.78680203045684
G0 Z10
G0 X74.58832487309644 Y180.16218274111674
G1 Z-0.5 F600
G1 X74.58883248730965 Y74.46700507614213 F1100
G1 X77.28426395939087 Y74.46700507614213
G1 X77.28426395939087 Y180.16243654822335
G1 X74.58883248730965 Y180.16243654822335
G1 X72.68350253807107 Y182.06725888324874 F1100
G1 X72.68274111675127 Y72.56091370558376 F1100
G1 X79.19035532994924 Y72.56091370558376
G1 X79.19035532994924 Y182.06598984771574
G1 X72.68274111675127 Y182.06598984771574
G1 X70.77842639593909 Y183.97233502538072 F1100
G1 X70.77918781725887 Y70.65736040609137 F1100
G1 X81.09390862944161 Y70.65736040609137
G1 X81.09390862944161 Y183.97208121827413
G1 X70.77918781725887 Y183.97208121827413
G1 X68.8733502538071 Y185.8771573604061 F1100
G1 X68.87309644670052 Y68.751269035533 F1100
G1 X83 Y68.751269035533
G1 X83 Y185.87817258883248
G1 X68.87309644670052 Y185.87817258883248
G1 X66.96827411167513 Y187.78223350253808 F1100
G1 X66.96954314720811 Y66.84517766497461 F1100
G1 X84.90355329949239 Y66.84517766497461
G1 X84.90355329949239 Y187.78172588832487
G1 X66.96954314720811 Y187.78172588832487
G1 X65.06345177664974 Y189.68730964467005 F1100
G1 X65.06345177664974 Y64.94162436548224 F1100
G1 X86.80964467005076 Y64.94162436548224
G1 X86.80964467005076 Y189.68781725888323
G1 X65.06345177664974 Y189.68781725888323
G1 X63.15837563451777 Y191.59213197969544 F1100
G1 X63.15736040609137 Y63.035532994923855 F1100
G1 X88.71573604060913 Y63.035532994923855
G1 X88.71573604060913 Y191.59137055837564
G1 X63.15736040609137 Y191.59137055837564
G1 X61.253299492385786 Y193.4972081218274 F1100
G1 X61.253807106598984 Y61.131979695431475 F1100
G1 X90.61928934010153 Y61.131979695431475
G1 X90.61928934010153 Y193.49746192893403
G1 X61.253807106598984 Y193.49746192893403
G1 X59.348477157360406 Y195.4022842639594 F1100
G1 X59.347715736040605 Y59.2258883248731 F1100
G1 X92.5253807106599 Y59.2258883248731
G1 X92.5253807106599 Y195.4010152284264
G1 X59.347715736040605 Y195.4010152284264
G1 X57.443401015228424 Y197.30710659898477 F1100
G1 X57.444162436548226 Y57.32233502538071 F1100
G1 X94.42893401015228 Y57.32233502538071
G1 X94.42893401015228 Y197.30710659898477
G1 X57.444162436548226 Y197.30710659898477
G1 X55.53832487309645 Y199.21218274111675 F1100
G1 X55.53807106598985 Y55.41624365482234 F1100
G1 X96.33502538071068 Y55.41624365482234
G1 X96.33502538071068 Y199.21319796954316
G1 X55.53807106598985 Y199.21319796954316
G1 X53.63350253807106 Y201.11725888324872 F1100
G1 X53.63451776649746 Y53.51015228426397 F1100
G1 X98.23857868020305 Y53.51015228426397
G1 X98.23857868020305 Y201.11675126903552
G1 X53.63451776649746 Y201.11675126903552
G1 X51.72842639593909 Y203.0223350253807 F1100
G1 X51.72842639593909 Y51.60659898477157 F1100
G1 X100.14467005076142 Y51.60659898477157
G1 X100.14467005076142 Y203.0228426395939
G1 X51.72842639593909 Y203.0228426395939
G1 X49.82335025380711 Y204.92715736040608 F1100
G1 X49.82233502538071 Y49.700507614213194 F1100
G1 X102.05076142131979 Y49.700507614213194
G1 X102.05076142131979 Y204.92639593908632
G1 X49.82233502538071 Y204.92639593908632
G1 X47.918274111675125 Y206.83223350253806 F1100
G1 X47.91878172588832 Y47.796954314720814 F1100
G1 X103.95431472081219 Y47.796954314720814
G1 X103.95431472081219 Y206.83248730964468
G1 X47.91878172588832 Y206.83248730964468
G1 X46.013451776649745 Y208.73730964467006 F1100
G1 X46.012690355329944 Y45.890862944162436 F1100
G1 X105.86040609137056 Y45.890862944162436
G1 X105.86040609137056 Y208.73604060913706
G1 X46.012690355329944 Y208.73604060913706
G1 X44.10837563451776 Y210.64213197969542 F1100
G1 X44.109137055837564 Y43.987309644670056 F1100
G1 X107.76395939086294 Y43.987309644670056
G1 X107.76395939086294 Y210.64213197969542
G1 X44.109137055837564 Y210.64213197969542
G1 X42.20329949238579 Y212.54720812182742 F1100
G1 X42.203045685279186 Y42.08121827411168 F1100
G1 X109.67005076142131 Y42.08121827411168
G1 X109.67005076142131 Y212.5482233502538
G1 X42.203045685279186 Y212.5482233502538
G1 X40.29847715736041 Y214.4522842639594 F1100
G1 X40.299492385786806 Y40.175126903553306 F1100
G1 X111.57360406091371 Y40.175126903553306
G1 X111.57360406091371 Y214.4517766497462
G1 X40.299492385786806 Y214.4517766497462
G1 X38.39340101522843 Y216.35710659898479 F1100
G1 X38.39340101522843 Y38.27157360406091 F1100
G1 X113.47969543147208 Y38.27157360406091
G1 X113.47969543147208 Y216.35786802030455
G1 X38.39340101522843 Y216.35786802030455
G1 X36.488324873096445 Y218.26218274111676 F1100
G1 X36.48730964467005 Y36.36548223350254 F1100
G1 X115.38324873096445 Y36.36548223350254
G1 X115.38324873096445 Y218.26142131979694
G1 X36.48730964467005 Y218.26142131979694
G1 X34.583502538071066 Y220.16725888324873 F1100
G1 X34.58375634517766 Y34.46192893401015 F1100
G1 X117.28934010152285 Y34.46192893401015
G1 X117.28934010152285 Y220.16751269035535
G1 X34.58375634517766 Y220.16751269035535
G1 X32.678426395939084 Y222.0723350253807 F1100
G1 X32.67766497461929 Y32.555837563451774 F1100
G1 X119.19543147208122 Y32.555837563451774
G1 X119.19543147208122 Y222.07106598984774
G1 X32.67766497461929 Y222.07106598984774
G1 X30.773350253807106 Y223.9771573604061 F1100
G1 X30.774111675126903 Y30.652284263959395 F1100
G1 X121.0989847715736 Y30.652284263959395
G1 X121.0989847715736 Y223.9771573604061
G1 X30.774111675126903 Y223.9771573604061
G1 X28.868274111675127 Y225.88223350253807 F1100
G1 X28.868020304568528 Y28.746192893401016 F1100
G1 X123.00507614213197 Y28.746192893401016
G1 X123.00507614213197 Y225.88324873096445
G1 X28.868020304568528 Y225.88324873096445
G1 X26.963451776649745 Y227.78730964467005 F1100
G1 X26.96446700507614 Y26.84010152284264 F1100
G1 X124.90862944162437 Y26.84010152284264
G1 X124.90862944162437 Y227.78680203045684
G1 X26.96446700507614 Y227.78680203045684
G0 Z10
G0 X74.58832487309644 Y180.16218274111674
G1 Z-0.75 F600
G1 X74.58883248730965 Y74.46700507614213 F1100
G1 X77.28426395939087 Y74.46700507614213
G1 X77.28426395939087 Y180.16243654822335
G1 X74.58883248730965 Y180.16243654822335
G1 X72.68350253807107 Y182.06725888324874 F1100
G1 X72.68274111675127 Y72.56091370558376 F1100
G1 X79.19035532994924 Y72.56091370558376
G1 X79.19035532994924 Y182.06598984771574
G1 X72.68274111675127 Y182.06598984771574
G1 X70.77842639593909 Y183.97233502538072 F1100
G1 X70.77918781725887 Y70.65736040609137 F1100
G1 X81.09390862944161 Y70.65736040609137
G1 X81.09390862944161 Y183.97208121827413
G1 X70.77918781725887 Y183.97208121827413
G1 X68.8733502538071 Y185.8771573604061 F1100
G1 X68.87309644670052 Y68.751269035533 F1100
G1 X83 Y68.751269035533
G1 X83 Y185.87817258883248
G1 X68.87309644670052 Y185.87817258883248
G1 X66.96827411167513 Y187.78223350253808 F1100
G1 X66.96954314720811 Y66.84517766497461 F1100
G1 X84.90355329949239 Y66.84517766497461
G1 X84.90355329949239 Y187.78172588832487
G1 X66.96954314720811 Y187.78172588832487
G1 X65.06345177664974 Y189.68730964467005 F1100
G1 X65.06345177664974 Y64.94162436548224 F1100
G1 X86.80964467005076 Y64.94162436548224
G1 X86.80964467005076 Y189.68781725888323
G1 X65.06345177664974 Y189.68781725888323
G1 X63.15837563451777 Y191.59213197969544 F1100
G1 X63.15736040609137 Y63.035532994923855 F1100
G1 X88.71573604060913 Y63.035532994923855
G1 X88.71573604060913 Y191.59137055837564
G1 X63.15736040609137 Y191.59137055837564
G1 X61.253299492385786 Y193.4972081218274 F1100
G1 X61.253807106598984 Y61.131979695431475 F1100
G1 X90.61928934010153 Y61.131979695431475
G1 X90.61928934010153 Y193.49746192893403
G1 X61.253807106598984 Y193.49746192893403
G1 X59.348477157360406 Y195.4022842639594 F1100
G1 X59.347715736040605 Y59.2258883248731 F1100
G1 X92.5253807106599 Y59.2258883248731
G1 X92.5253807106599 Y195.4010152284264
G1 X59.347715736040605 Y195.4010152284264
G1 X57.443401015228424 Y197.30710659898477 F1100
G1 X57.444162436548226 Y57.32233502538071 F1100
G1 X94.42893401015228 Y57.32233502538071
G1 X94.42893401015228 Y197.30710659898477
G1 X57.444162436548226 Y197.30710659898477
G1 X55.53832487309645 Y199.21218274111675 F1100
G1 X55.53807106598985 Y55.41624365482234 F1100
G1 X96.33502538071068 Y55.41624365482234
G1 X96.33502538071068 Y199.21319796954316
G1 X55.53807106598985 Y199.21319796954316
G1 X53.63350253807106 Y201.11725888324872 F1100
G1 X53.63451776649746 Y53.51015228426397 F1100
G1 X98.23857868020305 Y53.51015228426397
G1 X98.23857868020305 Y201.11675126903552
G1 X53.63451776649746 Y201.11675126903552
G1 X51.72842639593909 Y203.0223350253807 F1100
G1 X51.72842639593909 Y51.60659898477157 F1100
G1 X100.14467005076142 Y51.60659898477157
G1 X100.14467005076142 Y203.0228426395939
G1 X51.72842639593909 Y203.0228426395939
G1 X49.82335025380711 Y204.92715736040608 F1100
G1 X49.82233502538071 Y49.700507614213194 F1100
G1 X102.05076142131979 Y49.700507614213194
G1 X102.05076142131979 Y204.92639593908632
G1 X49.82233502538071 Y204.92639593908632
G1 X47.918274111675125 Y206.83223350253806 F1100
G1 X47.91878172588832 Y47.796954314720814 F1100
G1 X103.95431472081219 Y47.796954314720814
G1 X103.95431472081219 Y206.83248730964468
G1 X47.91878172588832 Y206.83248730964468
G1 X46.013451776649745 Y208.73730964467006 F1100
G1 X46.012690355329944 Y45.890862944162436 F1100
G1 X105.86040609137056 Y45.890862944162436
G1 X105.86040609137056 Y208.73604060913706
G1 X46.012690355329944 Y208.73604060913706
G1 X44.10837563451776 Y210.64213197969542 F1100
G1 X44.109137055837564 Y43.987309644670056 F1100
G1 X107.76395939086294 Y43.987309644670056
G1 X107.76395939086294 Y210.64213197969542
G1 X44.109137055837564 Y210.64213197969542
G1 X42.20329949238579 Y212.54720812182742 F1100
G1 X42.203045685279186 Y42.08121827411168 F1100
G1 X109.67005076142131 Y42.08121827411168
G1 X109.67005076142131 Y212.5482233502538
G1 X42.203045685279186 Y212.5482233502538
G1 X40.29847715736041 Y214.4522842639594 F1100
G1 X40.299492385786806 Y40.175126903553306 F1100
G1 X111.57360406091371 Y40.175126903553306
G1 X111.57360406091371 Y214.4517766497462
G1 X40.299492385786806 Y214.4517766497462
G1 X38.39340101522843 Y216.35710659898479 F1100
G1 X38.39340101522843 Y38.27157360406091 F1100
G1 X113.47969543147208 Y38.27157360406091
G1 X113.47969543147208 Y216.35786802030455
G1 X38.39340101522843 Y216.35786802030455
G1 X36.488324873096445 Y218.26218274111676 F1100
G1 X36.48730964467005 Y36.36548223350254 F1100
G1 X115.38324873096445 Y36.36548223350254
G1 X115.38324873096445 Y218.26142131979694
G1 X36.48730964467005 Y218.26142131979694
G1 X34.583502538071066 Y220.16725888324873 F1100
G1 X34.58375634517766 Y34.46192893401015 F1100
G1 X117.28934010152285 Y34.46192893401015
G1 X117.28934010152285 Y220.16751269035535
G1 X34.58375634517766 Y220.16751269035535
G1 X32.678426395939084 Y222.0723350253807 F1100
G1 X32.67766497461929 Y32.555837563451774 F1100
G1 X119.19543147208122 Y32.555837563451774
G1 X119.19543147208122 Y222.07106598984774
G1 X32.67766497461929 Y222.07106598984774
G1 X30.773350253807106 Y223.9771573604061 F1100
G1 X30.774111675126903 Y30.652284263959395 F1100
G1 X121.0989847715736 Y30.652284263959395
G1 X121.0989847715736 Y223.9771573604061
G1 X30.774111675126903 Y223.9771573604061
G1 X28.868274111675127 Y225.88223350253807 F1100
G1 X28.868020304568528 Y28.746192893401016 F1100
G1 X123.00507614213197 Y28.746192893401016
G1 X123.00507614213197 Y225.88324873096445
G1 X28.868020304568528 Y225.88324873096445
G1 X26.963451776649745 Y227.78730964467005 F1100
G1 X26.96446700507614 Y26.84010152284264 F1100
G1 X124.90862944162437 Y26.84010152284264
G1 X124.90862944162437 Y227.78680203045684
G1 X26.96446700507614 Y227.78680203045684
G0 Z10
G0 X74.58832487309644 Y180.16218274111674
G1 Z-1 F600
G1 X74.58883248730965 Y74.46700507614213 F1100
G1 X77.28426395939087 Y74.46700507614213
G1 X77.28426395939087 Y180.16243654822335
G1 X74.58883248730965 Y180.16243654822335
G1 X72.68350253807107 Y182.06725888324874 F1100
G1 X72.68274111675127 Y72.56091370558376 F1100
G1 X79.19035532994924 Y72.56091370558376
G1 X79.19035532994924 Y182.06598984771574
G1 X72.68274111675127 Y182.06598984771574
G1 X70.77842639593909 Y183.97233502538072 F1100
G1 X70.77918781725887 Y70.65736040609137 F1100
G1 X81.09390862944161 Y70.65736040609137
G1 X81.09390862944161 Y183.97208121827413
G1 X70.77918781725887 Y183.97208121827413
G1 X68.8733502538071 Y185.8771573604061 F1100
G1 X68.87309644670052 Y68.751269035533 F1100
G1 X83 Y68.751269035533
G1 X83 Y185.87817258883248
G1 X68.87309644670052 Y185.87817258883248
G1 X66.96827411167513 Y187.78223350253808 F1100
G1 X66.96954314720811 Y66.84517766497461 F1100
G1 X84.90355329949239 Y66.84517766497461
G1 X84.90355329949239 Y187.78172588832487
G1 X66.96954314720811 Y187.78172588832487
G1 X65.06345177664974 Y189.68730964467005 F1100
G1 X65.06345177664974 Y64.94162436548224 F1100
G1 X86.80964467005076 Y64.94162436548224
G1 X86.80964467005076 Y189.68781725888323
G1 X65.06345177664974 Y189.68781725888323
G1 X63.15837563451777 Y191.59213197969544 F1100
G1 X63.15736040609137 Y63.035532994923855 F1100
G1 X88.71573604060913 Y63.035532994923855
G1 X88.71573604060913 Y191.59137055837564
G1 X63.15736040609137 Y191.59137055837564
G1 X61.253299492385786 Y193.4972081218274 F1100
G1 X61.253807106598984 Y61.131979695431475 F1100
G1 X90.61928934010153 Y61.131979695431475
G1 X90.61928934010153 Y193.49746192893403
G1 X61.253807106598984 Y193.49746192893403
G1 X59.348477157360406 Y195.4022842639594 F1100
G1 X59.347715736040605 Y59.2258883248731 F1100
G1 X92.5253807106599 Y59.2258883248731
G1 X92.5253807106599 Y195.4010152284264
G1 X59.347715736040605 Y195.4010152284264
G1 X57.443401015228424 Y197.30710659898477 F1100
G1 X57.444162436548226 Y57.32233502538071 F1100
G1 X94.42893401015228 Y57.32233502538071
G1 X94.42893401015228 Y197.30710659898477
G1 X57.444162436548226 Y197.30710659898477
G1 X55.53832487309645 Y199.21218274111675 F1100
G1 X55.53807106598985 Y55.41624365482234 F1100
G1 X96.33502538071068 Y55.41624365482234
G1 X96.33502538071068 Y199.21319796954316
G1 X55.53807106598985 Y199.21319796954316
G1 X53.63350253807106 Y201.11725888324872 F1100
G1 X53.63451776649746 Y53.51015228426397 F1100
G1 X98.23857868020305 Y53.51015228426397
G1 X98.23857868020305 Y201.11675126903552
G1 X53.63451776649746 Y201.11675126903552
G1 X51.72842639593909 Y203.0223350253807 F1100
G1 X51.72842639593909 Y51.60659898477157 F1100
G1 X100.14467005076142 Y51.60659898477157
G1 X100.14467005076142 Y203.0228426395939
G1 X51.72842639593909 Y203.0228426395939
G1 X49.82335025380711 Y204.92715736040608 F1100
G1 X49.82233502538071 Y49.700507614213194 F1100
G1 X102.05076142131979 Y49.700507614213194
G1 X102.05076142131979 Y204.92639593908632
G1 X49.82233502538071 Y204.92639593908632
G1 X47.918274111675125 Y206.83223350253806 F1100
G1 X47.91878172588832 Y47.796954314720814 F1100
G1 X103.95431472081219 Y47.796954314720814
G1 X103.95431472081219 Y206.83248730964468
G1 X47.91878172588832 Y206.83248730964468
G1 X46.013451776649745 Y208.73730964467006 F1100
G1 X46.012690355329944 Y45.890862944162436 F1100
G1 X105.86040609137056 Y45.890862944162436
G1 X105.86040609137056 Y208.73604060913706
G1 X46.012690355329944 Y208.73604060913706
G1 X44.10837563451776 Y210.64213197969542 F1100
G1 X44.109137055837564 Y43.987309644670056 F1100
G1 X107.76395939086294 Y43.987309644670056
G1 X107.76395939086294 Y210.64213197969542
G1 X44.109137055837564 Y210.64213197969542
G1 X42.20329949238579 Y212.54720812182742 F1100
G1 X42.203045685279186 Y42.08121827411168 F1100
G1 X109.67005076142131 Y42.08121827411168
G1 X109.67005076142131 Y212.5482233502538
G1 X42.203045685279186 Y212.5482233502538
G1 X40.29847715736041 Y214.4522842639594 F1100
G1 X40.299492385786806 Y40.175126903553306 F1100
G1 X111.57360406091371 Y40.175126903553306
G1 X111.57360406091371 Y214.4517766497462
G1 X40.299492385786806 Y214.4517766497462
G1 X38.39340101522843 Y216.35710659898479 F1100
G1 X38.39340101522843 Y38.27157360406091 F1100
G1 X113.47969543147208 Y38.27157360406091
G1 X113.47969543147208 Y216.35786802030455
G1 X38.39340101522843 Y216.35786802030455
G1 X36.488324873096445 Y218.26218274111676 F1100
G1 X36.48730964467005 Y36.36548223350254 F1100
G1 X115.38324873096445 Y36.36548223350254
G1 X115.38324873096445 Y218.26142131979694
G1 X36.48730964467005 Y218.26142131979694
G1 X34.583502538071066 Y220.16725888324873 F1100
G1 X34.58375634517766 Y34.46192893401015 F1100
G1 X117.28934010152285 Y34.46192893401015
G1 X117.28934010152285 Y220.16751269035535
G1 X34.58375634517766 Y220.16751269035535
G1 X32.678426395939084 Y222.0723350253807 F1100
G1 X32.67766497461929 Y32.555837563451774 F1100
G1 X119.19543147208122 Y32.555837563451774
G1 X119.19543147208122 Y222.07106598984774
G1 X32.67766497461929 Y222.07106598984774
G1 X30.773350253807106 Y223.9771573604061 F1100
G1 X30.774111675126903 Y30.652284263959395 F1100
G1 X121.0989847715736 Y30.652284263959395
G1 X121.0989847715736 Y223.9771573604061
G1 X30.774111675126903 Y223.9771573604061
G1 X28.868274111675127 Y225.88223350253807 F1100
G1 X28.868020304568528 Y28.746192893401016 F1100
G1 X123.00507614213197 Y28.746192893401016
G1 X123.00507614213197 Y225.88324873096445
G1 X28.868020304568528 Y225.88324873096445
G1 X26.963451776649745 Y227.78730964467005 F1100
G1 X26.96446700507614 Y26.84010152284264 F1100
G1 X124.90862944162437 Y26.84010152284264
G1 X124.90862944162437 Y227.78680203045684
G1 X26.96446700507614 Y227.78680203045684
G0 Z10
G0 X74.58832487309644 Y180.16218274111674
G1 Z-1.25 F600
G1 X74.58883248730965 Y74.46700507614213 F1100
G1 X77.28426395939087 Y74.46700507614213
G1 X77.28426395939087 Y180.16243654822335
G1 X74.58883248730965 Y180.16243654822335
G1 X72.68350253807107 Y182.06725888324874 F1100
G1 X72.68274111675127 Y72.56091370558376 F1100
G1 X79.19035532994924 Y72.56091370558376
G1 X79.19035532994924 Y182.06598984771574
G1 X72.68274111675127 Y182.06598984771574
G1 X70.77842639593909 Y183.97233502538072 F1100
G1 X70.77918781725887 Y70.65736040609137 F1100
G1 X81.09390862944161 Y70.65736040609137
G1 X81.09390862944161 Y183.97208121827413
G1 X70.77918781725887 Y183.97208121827413
G1 X68.8733502538071 Y185.8771573604061 F1100
G1 X68.87309644670052 Y68.751269035533 F1100
G1 X83 Y68.751269035533
G1 X83 Y185.87817258883248
G1 X68.87309644670052 Y185.87817258883248
G1 X66.96827411167513 Y187.78223350253808 F1100
G1 X66.96954314720811 Y66.84517766497461 F1100
G1 X84.90355329949239 Y66.84517766497461
G1 X84.90355329949239 Y187.78172588832487
G1 X66.96954314720811 Y187.78172588832487
G1 X65.06345177664974 Y189.68730964467005 F1100
G1 X65.06345177664974 Y64.94162436548224 F1100
G1 X86.80964467005076 Y64.94162436548224
G1 X86.80964467005076 Y189.68781725888323
G1 X65.06345177664974 Y189.68781725888323
G1 X63.15837563451777 Y191.59213197969544 F1100
G1 X63.15736040609137 Y63.035532994923855 F1100
G1 X88.71573604060913 Y63.035532994923855
G1 X88.71573604060913 Y191.59137055837564
G1 X63.15736040609137 Y191.59137055837564
G1 X61.253299492385786 Y193.4972081218274 F1100
G1 X61.253807106598984 Y61.131979695431475 F1100
G1 X90.61928934010153 Y61.131979695431475
G1 X90.61928934010153 Y193.49746192893403
G1 X61.253807106598984 Y193.49746192893403
G1 X59.348477157360406 Y195.4022842639594 F1100
G1 X59.347715736040605 Y59.2258883248731 F1100
G1 X92.5253807106599 Y59.2258883248731
G1 X92.5253807106599 Y195.4010152284264
G1 X59.347715736040605 Y195.4010152284264
G1 X57.443401015228424 Y197.30710659898477 F1100
G1 X57.444162436548226 Y57.32233502538071 F1100
G1 X94.42893401015228 Y57.32233502538071
G1 X94.42893401015228 Y197.30710659898477
G1 X57.444162436548226 Y197.30710659898477
G1 X55.53832487309645 Y199.21218274111675 F1100
G1 X55.53807106598985 Y55.41624365482234 F1100
G1 X96.33502538071068 Y55.41624365482234
G1 X96.33502538071068 Y199.21319796954316
G1 X55.53807106598985 Y199.21319796954316
G1 X53.63350253807106 Y201.11725888324872 F1100
G1 X53.63451776649746 Y53.51015228426397 F1100
G1 X98.23857868020305 Y53.51015228426397
G1 X98.23857868020305 Y201.11675126903552
G1 X53.63451776649746 Y201.11675126903552
G1 X51.72842639593909 Y203.0223350253807 F1100
G1 X51.72842639593909 Y51.60659898477157 F1100
G1 X100.14467005076142 Y51.60659898477157
G1 X100.14467005076142 Y203.0228426395939
G1 X51.72842639593909 Y203.0228426395939
G1 X49.82335025380711 Y204.92715736040608 F1100
G1 X49.82233502538071 Y49.700507614213194 F1100
G1 X102.05076142131979 Y49.700507614213194
G1 X102.05076142131979 Y204.92639593908632
G1 X49.82233502538071 Y204.92639593908632
G1 X47.918274111675125 Y206.83223350253806 F1100
G1 X47.91878172588832 Y47.796954314720814 F1100
G1 X103.95431472081219 Y47.796954314720814
G1 X103.95431472081219 Y206.83248730964468
G1 X47.91878172588832 Y206.83248730964468
G1 X46.013451776649745 Y208.73730964467006 F1100
G1 X46.012690355329944 Y45.890862944162436 F1100
G1 X105.86040609137056 Y45.890862944162436
G1 X105.86040609137056 Y208.73604060913706
G1 X46.012690355329944 Y208.73604060913706
G1 X44.10837563451776 Y210.64213197969542 F1100
G1 X44.109137055837564 Y43.987309644670056 F1100
G1 X107.76395939086294 Y43.987309644670056
G1 X107.76395939086294 Y210.64213197969542
G1 X44.109137055837564 Y210.64213197969542
G1 X42.20329949238579 Y212.54720812182742 F1100
G1 X42.203045685279186 Y42.08121827411168 F1100
G1 X109.67005076142131 Y42.08121827411168
G1 X109.67005076142131 Y212.5482233502538
G1 X42.203045685279186 Y212.5482233502538
G1 X40.29847715736041 Y214.4522842639594 F1100
G1 X40.299492385786806 Y40.175126903553306 F1100
G1 X111.57360406091371 Y40.175126903553306
G1 X111.57360406091371 Y214.4517766497462
G1 X40.299492385786806 Y214.4517766497462
G1 X38.39340101522843 Y216.35710659898479 F1100
G1 X38.39340101522843 Y38.27157360406091 F1100
G1 X113.47969543147208 Y38.27157360406091
G1 X113.47969543147208 Y216.35786802030455
G1 X38.39340101522843 Y216.35786802030455
G1 X36.488324873096445 Y218.26218274111676 F1100
G1 X36.48730964467005 Y36.36548223350254 F1100
G1 X115.38324873096445 Y36.36548223350254
G1 X115.38324873096445 Y218.26142131979694
G1 X36.48730964467005 Y218.26142131979694
G1 X34.583502538071066 Y220.16725888324873 F1100
G1 X34.58375634517766 Y34.46192893401015 F1100
G1 X117.28934010152285 Y34.46192893401015
G1 X117.28934010152285 Y220.16751269035535
G1 X34.58375634517766 Y220.16751269035535
G1 X32.678426395939084 Y222.0723350253807 F1100
G1 X32.67766497461929 Y32.555837563451774 F1100
G1 X119.19543147208122 Y32.555837563451774
G1 X119.19543147208122 Y222.07106598984774
G1 X32.67766497461929 Y222.07106598984774
G1 X30.773350253807106 Y223.9771573604061 F1100
G1 X30.774111675126903 Y30.652284263959395 F1100
G1 X121.0989847715736 Y30.652284263959395
G1 X121.0989847715736 Y223.9771573604061
G1 X30.774111675126903 Y223.9771573604061
G1 X28.868274111675127 Y225.88223350253807 F1100
G1 X28.868020304568528 Y28.746192893401016 F1100
G1 X123.00507614213197 Y28.746192893401016
G1 X123.00507614213197 Y225.88324873096445
G1 X28.868020304568528 Y225.88324873096445
G1 X26.963451776649745 Y227.78730964467005 F1100
G1 X26.96446700507614 Y26.84010152284264 F1100
G1 X124.90862944162437 Y26.84010152284264
G1 X124.90862944162437 Y227.78680203045684
G1 X26.96446700507614 Y227.78680203045684
G0 Z10
G0 X74.58832487309644 Y180.16218274111674
G1 Z-1.5 F600
G1 X74.58883248730965 Y74.46700507614213 F1100
G1 X77.28426395939087 Y74.46700507614213
G1 X77.28426395939087 Y180.16243654822335
G1 X74.58883248730965 Y180.16243654822335
G1 X72.68350253807107 Y182.06725888324874 F1100
G1 X72.68274111675127 Y72.56091370558376 F1100
G1 X79.19035532994924 Y72.56091370558376
G1 X79.19035532994924 Y182.06598984771574
G1 X72.68274111675127 Y182.06598984771574
G1 X70.77842639593909 Y183.97233502538072 F1100
G1 X70.77918781725887 Y70.65736040609137 F1100
G1 X81.09390862944161 Y70.65736040609137
G1 X81.09390862944161 Y183.97208121827413
G1 X70.77918781725887 Y183.97208121827413
G1 X68.8733502538071 Y185.8771573604061 F1100
G1 X68.87309644670052 Y68.751269035533 F1100
G1 X83 Y68.751269035533
G1 X83 Y185.87817258883248
G1 X68.87309644670052 Y185.87817258883248
G1 X66.96827411167513 Y187.78223350253808 F1100
G1 X66.96954314720811 Y66.84517766497461 F1100
G1 X84.90355329949239 Y66.84517766497461
G1 X84.90355329949239 Y187.78172588832487
G1 X66.96954314720811 Y187.78172588832487
G1 X65.06345177664974 Y189.68730964467005 F1100
G1 X65.06345177664974 Y64.94162436548224 F1100
G1 X86.80964467005076 Y64.94162436548224
G1 X86.80964467005076 Y189.68781725888323
G1 X65.06345177664974 Y189.68781725888323
G1 X63.15837563451777 Y191.59213197969544 F1100
G1 X63.15736040609137 Y63.035532994923855 F1100
G1 X88.71573604060913 Y63.035532994923855
G1 X88.71573604060913 Y191.59137055837564
G1 X63.15736040609137 Y191.59137055837564
G1 X61.253299492385786 Y193.4972081218274 F1100
G1 X61.253807106598984 Y61.131979695431475 F1100
G1 X90.61928934010153 Y61.131979695431475
G1 X90.61928934010153 Y193.49746192893403
G1 X61.253807106598984 Y193.49746192893403
G1 X59.348477157360406 Y195.4022842639594 F1100
G1 X59.347715736040605 Y59.2258883248731 F1100
G1 X92.5253807106599 Y59.2258883248731
G1 X92.5253807106599 Y195.4010152284264
G1 X59.347715736040605 Y195.4010152284264
G1 X57.443401015228424 Y197.30710659898477 F1100
G1 X57.444162436548226 Y57.32233502538071 F1100
G1 X94.42893401015228 Y57.32233502538071
G1 X94.42893401015228 Y197.30710659898477
G1 X57.444162436548226 Y197.30710659898477
G1 X55.53832487309645 Y199.21218274111675 F1100
G1 X55.53807106598985 Y55.41624365482234 F1100
G1 X96.33502538071068 Y55.41624365482234
G1 X96.33502538071068 Y199.21319796954316
G1 X55.53807106598985 Y199.21319796954316
G1 X53.63350253807106 Y201.11725888324872 F1100
G1 X53.63451776649746 Y53.51015228426397 F1100
G1 X98.23857868020305 Y53.51015228426397
G1 X98.23857868020305 Y201.11675126903552
G1 X53.63451776649746 Y201.11675126903552
G1 X51.72842639593909 Y203.0223350253807 F1100
G1 X51.72842639593909 Y51.60659898477157 F1100
G1 X100.14467005076142 Y51.60659898477157
G1 X100.14467005076142 Y203.0228426395939
G1 X51.72842639593909 Y203.0228426395939
G1 X49.82335025380711 Y204.92715736040608 F1100
G1 X49.82233502538071 Y49.700507614213194 F1100
G1 X102.05076142131979 Y49.700507614213194
G1 X102.05076142131979 Y204.92639593908632
G1 X49.82233502538071 Y204.92639593908632
G1 X47.918274111675125 Y206.83223350253806 F1100
G1 X47.91878172588832 Y47.796954314720814 F1100
G1 X103.95431472081219 Y47.796954314720814
G1 X103.95431472081219 Y206.83248730964468
G1 X47.91878172588832 Y206.83248730964468
G1 X46.013451776649745 Y208.73730964467006 F1100
G1 X46.012690355329944 Y45.890862944162436 F1100
G1 X105.86040609137056 Y45.890862944162436
G1 X105.86040609137056 Y208.73604060913706
G1 X46.012690355329944 Y208.73604060913706
G1 X44.10837563451776 Y210.64213197969542 F1100
G1 X44.109137055837564 Y43.987309644670056 F1100
G1 X107.76395939086294 Y43.987309644670056
G1 X107.76395939086294 Y210.64213197969542
G1 X44.109137055837564 Y210.64213197969542
G1 X42.20329949238579 Y212.54720812182742 F1100
G1 X42.203045685279186 Y42.08121827411168 F1100
G1 X109.67005076142131 Y42.08121827411168
G1 X109.67005076142131 Y212.5482233502538
G1 X42.203045685279186 Y212.5482233502538
G1 X40.29847715736041 Y214.4522842639594 F1100
G1 X40.299492385786806 Y40.175126903553306 F1100
G1 X111.57360406091371 Y40.175126903553306
G1 X111.57360406091371 Y214.4517766497462
G1 X40.299492385786806 Y214.4517766497462
G1 X38.39340101522843 Y216.35710659898479 F1100
G1 X38.39340101522843 Y38.27157360406091 F1100
G1 X113.47969543147208 Y38.27157360406091
G1 X113.47969543147208 Y216.35786802030455
G1 X38.39340101522843 Y216.35786802030455
G1 X36.488324873096445 Y218.26218274111676 F1100
G1 X36.48730964467005 Y36.36548223350254 F1100
G1 X115.38324873096445 Y36.36548223350254
G1 X115.38324873096445 Y218.26142131979694
G1 X36.48730964467005 Y218.26142131979694
G1 X34.583502538071066 Y220.16725888324873 F1100
G1 X34.58375634517766 Y34.46192893401015 F1100
G1 X117.28934010152285 Y34.46192893401015
G1 X117.28934010152285 Y220.16751269035535
G1 X34.58375634517766 Y220.16751269035535
G1 X32.678426395939084 Y222.0723350253807 F1100
G1 X32.67766497461929 Y32.555837563451774 F1100
G1 X119.19543147208122 Y32.555837563451774
G1 X119.19543147208122 Y222.07106598984774
G1 X32.67766497461929 Y222.07106598984774
G1 X30.773350253807106 Y223.9771573604061 F1100
G1 X30.774111675126903 Y30.652284263959395 F1100
G1 X121.0989847715736 Y30.652284263959395
G1 X121.0989847715736 Y223.9771573604061
G1 X30.774111675126903 Y223.9771573604061
G1 X28.868274111675127 Y225.88223350253807 F1100
G1 X28.868020304568528 Y28.746192893401016 F1100
G1 X123.00507614213197 Y28.746192893401016
G1 X123.00507614213197 Y225.88324873096445
G1 X28.868020304568528 Y225.88324873096445
G1 X26.963451776649745 Y227.78730964467005 F1100
G1 X26.96446700507614 Y26.84010152284264 F1100
G1 X124.90862944162437 Y26.84010152284264
G1 X124.90862944162437 Y227.78680203045684
G1 X26.96446700507614 Y227.78680203045684

(drill 2)
G0 Z15
G0 X1.6725888324873097 Y1.6472081218274113
G1 Z-1.5 F600
G1 Z0 F600
G1 Z-3 F600
G1 Z0 F600
G0 Z15
M5
M30
