(Generated by PartKam Version 0.05)

G21 G90 G40

(pocket 1)
G0 Z10
T0 M6
G17
M3
G0 X70.02690355329949 Y173.50913705583756
G1 Z-1 F600
G1 X70.02791878172589 Y70.35279187817258 F900
G1 X70.18274111675127 Y70.35279187817258
G1 X70.18274111675127 Y173.51015228426394
G1 X70.02791878172589 Y173.51015228426394
G1 X69.39187817258883 Y174.1441624365482 F900
G1 X69.39086294416244 Y69.71827411167513 F900
G1 X70.81725888324873 Y69.71827411167513
G1 X70.81725888324873 Y174.14467005076142
G1 X69.39086294416244 Y174.14467005076142
G1 X68.75685279187817 Y174.77918781725887 F900
G1 X68.75634517766497 Y69.08375634517766 F900
G1 X71.4517766497462 Y69.08375634517766
G1 X71.4517766497462 Y174.7791878172589
G1 X68.75634517766497 Y174.7791878172589
G1 X68.12182741116752 Y175.41421319796953 F900
G1 X68.12182741116752 Y68.44923857868021 F900
G1 X72.08883248730965 Y68.44923857868021
G1 X72.08883248730965 Y175.41370558375635
G1 X68.12182741116752 Y175.41370558375635
G1 X67.48680203045686 Y176.0492385786802 F900
G1 X67.48730964467005 Y67.81218274111676 F900
G1 X72.72335025380711 Y67.81218274111676
G1 X72.72335025380711 Y176.0482233502538
G1 X67.48730964467005 Y176.0482233502538
G1 X66.8517766497462 Y176.68426395939088 F900
G1 X66.8527918781726 Y67.17766497461929 F900
G1 X73.35786802030456 Y67.17766497461929
G1 X73.35786802030456 Y176.6852791878173
G1 X66.8527918781726 Y176.6852791878173
G1 X66.21675126903553 Y177.31928934010153 F900
G1 X66.21573604060914 Y66.54314720812182 F900
G1 X73.99238578680203 Y66.54314720812182
G1 X73.99238578680203 Y177.31979695431474
G1 X66.21573604060914 Y177.31979695431474
G1 X65.58172588832487 Y177.9543147208122 F900
G1 X65.58121827411168 Y65.90862944162437 F900
G1 X74.62690355329948 Y65.90862944162437
G1 X74.62690355329948 Y177.9543147208122
G1 X65.58121827411168 Y177.9543147208122
G1 X64.94695431472081 Y178.58934010152285 F900
G1 X64.94670050761421 Y65.2741116751269 F900
G1 X75.26395939086294 Y65.2741116751269
G1 X75.26395939086294 Y178.58883248730965
G1 X64.94670050761421 Y178.58883248730965
G1 X64.31192893401015 Y179.2243654822335 F900
G1 X64.31218274111674 Y64.63705583756345 F900
G1 X75.8984771573604 Y64.63705583756345
G1 X75.8984771573604 Y179.2233502538071
G1 X64.31218274111674 Y179.2233502538071
G1 X63.67690355329949 Y179.85913705583755 F900
G1 X63.67766497461929 Y64.00253807106598 F900
G1 X76.53299492385787 Y64.00253807106598
G1 X76.53299492385787 Y179.86040609137058
G1 X63.67766497461929 Y179.86040609137058
G1 X63.04187817258883 Y180.49416243654824 F900
G1 X63.04060913705584 Y63.368020304568525 F900
G1 X77.16751269035532 Y63.368020304568525
G1 X77.16751269035532 Y180.49492385786803
G1 X63.04060913705584 Y180.49492385786803
G1 X62.40685279187817 Y181.1291878172589 F900
G1 X62.40609137055838 Y62.733502538071065 F900
G1 X77.80203045685279 Y62.733502538071065
G1 X77.80203045685279 Y181.12944162436548
G1 X62.40609137055838 Y181.12944162436548
G1 X61.771827411167514 Y181.76421319796955 F900
G1 X61.77157360406091 Y62.098984771573605 F900
G1 X78.43908629441624 Y62.098984771573605
G1 X78.43908629441624 Y181.76395939086294
G1 X61.77157360406091 Y181.76395939086294
G1 X61.136802030456856 Y182.3992385786802 F900
G1 X61.13705583756345 Y61.46192893401015 F900
G1 X79.07360406091371 Y61.46192893401015
G1 X79.07360406091371 Y182.3984771573604
G1 X61.13705583756345 Y182.3984771573604
G1 X60.50177664974619 Y183.03426395939087 F900
G1 X60.50253807106599 Y60.827411167512686 F900
G1 X79.70812182741116 Y60.827411167512686
G1 X79.70812182741116 Y183.03299492385787
G1 X60.50253807106599 Y183.03299492385787
G1 X59.86675126903553 Y183.66928934010153 F900
G1 X59.86802030456853 Y60.192893401015226 F900
G1 X80.34263959390863 Y60.192893401015226
G1 X80.34263959390863 Y183.67005076142132
G1 X59.86802030456853 Y183.67005076142132
G1 X59.231725888324874 Y184.3043147208122 F900
G1 X59.23096446700508 Y59.558375634517766 F900
G1 X80.9771573604061 Y59.558375634517766
G1 X80.9771573604061 Y184.30456852791878
G1 X59.23096446700508 Y184.30456852791878
G1 X58.59695431472081 Y184.93934010152284 F900
G1 X58.59644670050762 Y58.923857868020306 F900
G1 X81.61421319796955 Y58.923857868020306
G1 X81.61421319796955 Y184.93908629441623
G1 X58.59644670050762 Y184.93908629441623
G1 X57.96192893401015 Y185.5743654822335 F900
G1 X57.961928934010146 Y58.289340101522846 F900
G1 X82.248730964467 Y58.289340101522846
G1 X82.248730964467 Y185.57360406091368
G1 X57.961928934010146 Y185.57360406091368
G1 X57.326903553299495 Y186.20913705583757 F900
G1 X57.32741116751269 Y57.652284263959395 F900
G1 X82.88324873096445 Y57.652284263959395
G1 X82.88324873096445 Y186.20812182741116
G1 X57.32741116751269 Y186.20812182741116
G1 X56.69187817258883 Y186.84416243654823 F900
G1 X56.692893401015226 Y57.01776649746193 F900
G1 X83.51776649746192 Y57.01776649746193
G1 X83.51776649746192 Y186.8451776649746
G1 X56.692893401015226 Y186.8451776649746
G1 X56.05685279187817 Y187.4791878172589 F900
G1 X56.055837563451774 Y56.38324873096447 F900
G1 X84.1522842639594 Y56.38324873096447
G1 X84.1522842639594 Y187.47969543147207
G1 X56.055837563451774 Y187.47969543147207
G1 X55.42182741116751 Y188.11421319796955 F900
G1 X55.42131979695432 Y55.74873096446701 F900
G1 X84.78680203045685 Y55.74873096446701
G1 X84.78680203045685 Y188.11421319796952
G1 X55.42131979695432 Y188.11421319796952
G1 X54.786802030456855 Y188.7492385786802 F900
G1 X54.78680203045685 Y55.11421319796955 F900
G1 X85.4238578680203 Y55.11421319796955
G1 X85.4238578680203 Y188.74873096446703
G1 X54.78680203045685 Y188.74873096446703
G1 X54.151776649746196 Y189.38426395939086 F900
G1 X54.15228426395939 Y54.477157360406096 F900
G1 X86.05837563451777 Y54.477157360406096
G1 X86.05837563451777 Y189.38324873096448
G1 X54.15228426395939 Y189.38324873096448
G1 X53.51675126903553 Y190.01928934010152 F900
G1 X53.51776649746193 Y53.84263959390863 F900
G1 X86.69289340101523 Y53.84263959390863
G1 X86.69289340101523 Y190.02030456852793
G1 X53.51776649746193 Y190.02030456852793
G1 X52.88172588832487 Y190.65431472081218 F900
G1 X52.880710659898476 Y53.20812182741116 F900
G1 X87.3274111675127 Y53.20812182741116
G1 X87.3274111675127 Y190.6548223350254
G1 X52.880710659898476 Y190.6548223350254
G1 X52.24695431472081 Y191.28934010152284 F900
G1 X52.246192893401016 Y52.57360406091371 F900
G1 X87.96192893401015 Y52.57360406091371
G1 X87.96192893401015 Y191.28934010152284
G1 X52.246192893401016 Y191.28934010152284
G1 X51.61192893401015 Y191.9243654822335 F900
G1 X51.61167512690355 Y51.93908629441624 F900
G1 X88.5989847715736 Y51.93908629441624
G1 X88.5989847715736 Y191.92385786802032
G1 X51.61167512690355 Y191.92385786802032
G1 X50.97690355329949 Y192.55913705583757 F900
G1 X50.97715736040609 Y51.30203045685279 F900
G1 X89.23350253807106 Y51.30203045685279
G1 X89.23350253807106 Y192.55837563451777
G1 X50.97715736040609 Y192.55837563451777
G1 X50.341878172588835 Y193.19416243654823 F900
G1 X50.34263959390863 Y50.66751269035534 F900
G1 X89.86802030456852 Y50.66751269035534
G1 X89.86802030456852 Y193.19543147208122
G1 X50.34263959390863 Y193.19543147208122
G1 X49.70685279187817 Y193.82918781725888 F900
G1 X49.70558375634518 Y50.03299492385786 F900
G1 X90.50253807106598 Y50.03299492385786
G1 X90.50253807106598 Y193.82994923857868
G1 X49.70558375634518 Y193.82994923857868
G1 X49.07182741116751 Y194.46421319796954 F900
G1 X49.07106598984772 Y49.398477157360404 F900
G1 X91.13705583756345 Y49.398477157360404
G1 X91.13705583756345 Y194.46446700507613
G1 X49.07106598984772 Y194.46446700507613
G1 X48.43680203045685 Y195.0992385786802 F900
G1 X48.43654822335026 Y48.763959390862944 F900
G1 X91.7741116751269 Y48.763959390862944
G1 X91.7741116751269 Y195.0989847715736
G1 X48.43654822335026 Y195.0989847715736
G1 X47.801776649746195 Y195.73426395939086 F900
G1 X47.80203045685279 Y48.12690355329949 F900
G1 X92.40862944162437 Y48.12690355329949
G1 X92.40862944162437 Y195.73350253807106
G1 X47.80203045685279 Y195.73350253807106
G1 X47.16675126903553 Y196.36928934010152 F900
G1 X47.16751269035533 Y47.49238578680203 F900
G1 X93.04314720812184 Y47.49238578680203
G1 X93.04314720812184 Y196.36802030456852
G1 X47.16751269035533 Y196.36802030456852
G1 X46.53172588832487 Y197.00431472081218 F900
G1 X46.53299492385787 Y46.857868020304565 F900
G1 X93.67766497461929 Y46.857868020304565
G1 X93.67766497461929 Y197.00507614213197
G1 X46.53299492385787 Y197.00507614213197
G1 X45.896954314720816 Y197.63934010152283 F900
G1 X45.89593908629442 Y46.223350253807105 F900
G1 X94.31218274111674 Y46.223350253807105
G1 X94.31218274111674 Y197.63959390862942
G1 X45.89593908629442 Y197.63959390862942
G1 X45.26192893401015 Y198.2743654822335 F900
G1 X45.26142131979696 Y45.588832487309645 F900
G1 X94.94670050761421 Y45.588832487309645
G1 X94.94670050761421 Y198.2741116751269
G1 X45.26142131979696 Y198.2741116751269
G1 X44.62690355329949 Y198.90913705583756 F900
G1 X44.626903553299485 Y44.954314720812185 F900
G1 X95.58375634517766 Y44.954314720812185
G1 X95.58375634517766 Y198.90862944162436
G1 X44.626903553299485 Y198.90862944162436
G1 X43.991878172588834 Y199.54416243654822 F900
G1 X43.99238578680203 Y44.31725888324873 F900
G1 X96.21827411167513 Y44.31725888324873
G1 X96.21827411167513 Y199.5431472081218
G1 X43.99238578680203 Y199.5431472081218
G1 X43.356852791878175 Y200.17918781725888 F900
G1 X43.357868020304565 Y43.68274111675127 F900
G1 X96.85279187817258 Y43.68274111675127
G1 X96.85279187817258 Y200.18020304568526
G1 X43.357868020304565 Y200.18020304568526
G1 X42.72182741116751 Y200.81421319796954 F900
G1 X42.72081218274111 Y43.04822335025381 F900
G1 X97.48730964467006 Y43.04822335025381
G1 X97.48730964467006 Y200.8147208121827
G1 X42.72081218274111 Y200.8147208121827
G1 X42.08680203045685 Y201.4492385786802 F900
G1 X42.08629441624366 Y42.41370558375635 F900
G1 X98.12182741116752 Y42.41370558375635
G1 X98.12182741116752 Y201.4492385786802
G1 X42.08629441624366 Y201.4492385786802
G1 X41.45177664974619 Y202.08426395939085 F900
G1 X41.45177664974619 Y41.77918781725889 F900
G1 X98.75888324873097 Y41.77918781725889
G1 X98.75888324873097 Y202.08375634517765
G1 X41.45177664974619 Y202.08375634517765
G1 X40.816751269035535 Y202.7192893401015 F900
G1 X40.817258883248726 Y41.142131979695435 F900
G1 X99.39340101522843 Y41.142131979695435
G1 X99.39340101522843 Y202.71827411167516
G1 X40.817258883248726 Y202.71827411167516
G1 X40.18172588832487 Y203.35431472081217 F900
G1 X40.18274111675127 Y40.507614213197975 F900
G1 X100.02791878172589 Y40.507614213197975
G1 X100.02791878172589 Y203.35532994923858
G1 X40.18274111675127 Y203.35532994923858
G1 X39.546954314720814 Y203.98934010152286 F900
G1 X39.545685279187815 Y39.87309644670051 F900
G1 X100.66243654822335 Y39.87309644670051
G1 X100.66243654822335 Y203.98984771573606
G1 X39.545685279187815 Y203.98984771573606
G1 X38.91192893401015 Y204.62436548223351 F900
G1 X38.911167512690355 Y39.23857868020305 F900
G1 X101.29695431472081 Y39.23857868020305
G1 X101.29695431472081 Y204.62436548223351
G1 X38.911167512690355 Y204.62436548223351
G1 X38.27690355329949 Y205.25913705583756 F900
G1 X38.276649746192895 Y38.60406091370558 F900
G1 X101.93401015228426 Y38.60406091370558
G1 X101.93401015228426 Y205.25888324873097
G1 X38.276649746192895 Y205.25888324873097
G1 X37.64187817258883 Y205.8941624365482 F900
G1 X37.642131979695435 Y37.96700507614213 F900
G1 X102.56852791878173 Y37.96700507614213
G1 X102.56852791878173 Y205.89340101522845
G1 X37.642131979695435 Y205.89340101522845
G1 X37.006852791878174 Y206.52918781725887 F900
G1 X37.00761421319797 Y37.33248730964467 F900
G1 X103.20304568527918 Y37.33248730964467
G1 X103.20304568527918 Y206.53045685279187
G1 X37.00761421319797 Y206.53045685279187
G1 X36.371827411167516 Y207.16421319796953 F900
G1 X36.37309644670051 Y36.69796954314721 F900
G1 X103.83756345177665 Y36.69796954314721
G1 X103.83756345177665 Y207.16497461928935
G1 X36.37309644670051 Y207.16497461928935
G1 X35.73680203045685 Y207.7992385786802 F900
G1 X35.736040609137056 Y36.06345177664974 F900
G1 X104.47208121827413 Y36.06345177664974
G1 X104.47208121827413 Y207.7994923857868
G1 X35.736040609137056 Y207.7994923857868
G1 X35.10177664974619 Y208.43426395939088 F900
G1 X35.10152284263959 Y35.42893401015228 F900
G1 X105.10913705583758 Y35.42893401015228
G1 X105.10913705583758 Y208.43401015228426
G1 X35.10152284263959 Y208.43401015228426
G1 X34.466751269035534 Y209.06928934010153 F900
G1 X34.46700507614213 Y34.79187817258883 F900
G1 X105.74365482233503 Y34.79187817258883
G1 X105.74365482233503 Y209.06852791878174
G1 X34.46700507614213 Y209.06852791878174
G1 X33.831725888324875 Y209.7043147208122 F900
G1 X33.83248730964467 Y34.15736040609137 F900
G1 X106.37817258883248 Y34.15736040609137
G1 X106.37817258883248 Y209.7030456852792
G1 X33.83248730964467 Y209.7030456852792
G1 X33.19695431472081 Y210.33934010152285 F900
G1 X33.19796954314721 Y33.52284263959391 F900
G1 X107.01269035532995 Y33.52284263959391
G1 X107.01269035532995 Y210.34010152284264
G1 X33.19796954314721 Y210.34010152284264
G1 X32.561928934010155 Y210.9743654822335 F900
G1 X32.56091370558376 Y32.88832487309645 F900
G1 X107.64720812182742 Y32.88832487309645
G1 X107.64720812182742 Y210.9746192893401
G1 X32.56091370558376 Y210.9746192893401
G1 X31.926903553299493 Y211.60913705583755 F900
G1 X31.926395939086298 Y32.253807106598984 F900
G1 X108.28172588832487 Y32.253807106598984
G1 X108.28172588832487 Y211.60913705583755
G1 X31.926395939086298 Y211.60913705583755
G1 X31.29187817258883 Y212.24416243654824 F900
G1 X31.29187817258883 Y31.619289340101524 F900
G1 X108.91878172588832 Y31.619289340101524
G1 X108.91878172588832 Y212.24365482233503
G1 X31.29187817258883 Y212.24365482233503
G1 X30.656852791878173 Y212.8791878172589 F900
G1 X30.65736040609137 Y30.982233502538072 F900
G1 X109.55329949238578 Y30.982233502538072
G1 X109.55329949238578 Y212.87817258883248
G1 X30.65736040609137 Y212.87817258883248
G1 X30.021827411167514 Y213.51421319796955 F900
G1 X30.022842639593907 Y30.34771573604061 F900
G1 X110.18781725888324 Y30.34771573604061
G1 X110.18781725888324 Y213.51522842639594
G1 X30.022842639593907 Y213.51522842639594
G1 X29.386802030456852 Y214.1492385786802 F900
G1 X29.385786802030456 Y29.71319796954315 F900
G1 X110.82233502538071 Y29.71319796954315
G1 X110.82233502538071 Y214.1497461928934
G1 X29.385786802030456 Y214.1497461928934
G1 X28.751776649746194 Y214.78426395939087 F900
G1 X28.751269035532996 Y29.078680203045685 F900
G1 X111.45685279187818 Y29.078680203045685
G1 X111.45685279187818 Y214.78426395939084
G1 X28.751269035532996 Y214.78426395939084
G1 X28.116751269035532 Y215.41928934010153 F900
G1 X28.116751269035532 Y28.444162436548226 F900
G1 X112.09390862944163 Y28.444162436548226
G1 X112.09390862944163 Y215.41878172588832
G1 X28.116751269035532 Y215.41878172588832
G1 X27.481725888324874 Y216.0543147208122 F900
G1 X27.482233502538072 Y27.807106598984774 F900
G1 X112.7284263959391 Y27.807106598984774
G1 X112.7284263959391 Y216.0532994923858
G1 X27.482233502538072 Y216.0532994923858
G1 X26.84695431472081 Y216.68934010152284 F900
G1 X26.847715736040605 Y27.172588832487307 F900
G1 X113.36294416243655 Y27.172588832487307
G1 X113.36294416243655 Y216.69035532994926
G1 X26.847715736040605 Y216.69035532994926
G1 X26.211928934010153 Y217.3243654822335 F900
G1 X26.210659898477154 Y26.538071065989847 F900
G1 X113.99746192893402 Y26.538071065989847
G1 X113.99746192893402 Y217.3248730964467
G1 X26.210659898477154 Y217.3248730964467
G1 X25.57690355329949 Y217.95913705583757 F900
G1 X25.576142131979694 Y25.903553299492387 F900
G1 X114.63197969543147 Y25.903553299492387
G1 X114.63197969543147 Y217.9593908629442
G1 X25.576142131979694 Y217.9593908629442
G1 X24.941878172588833 Y218.59416243654823 F900
G1 X24.941624365482234 Y25.269035532994923 F900
G1 X115.26903553299492 Y25.269035532994923
G1 X115.26903553299492 Y218.59390862944164
G1 X24.941624365482234 Y218.59390862944164
G1 X24.30685279187817 Y219.2291878172589 F900
G1 X24.30710659898477 Y24.631979695431472 F900
G1 X115.90355329949239 Y24.631979695431472
G1 X115.90355329949239 Y219.2284263959391
G1 X24.30710659898477 Y219.2284263959391
G1 X23.671827411167513 Y219.86421319796955 F900
G1 X23.67258883248731 Y23.997461928934012 F900
G1 X116.53807106598984 Y23.997461928934012
G1 X116.53807106598984 Y219.86548223350255
G1 X23.67258883248731 Y219.86548223350255
G1 X23.03680203045685 Y220.4992385786802 F900
G1 X23.038071065989847 Y23.36294416243655 F900
G1 X117.1725888324873 Y23.36294416243655
G1 X117.1725888324873 Y220.5
G1 X23.038071065989847 Y220.5
G1 X22.401776649746193 Y221.13426395939086 F900
G1 X22.401015228426395 Y22.72842639593909 F900
G1 X117.80710659898476 Y22.72842639593909
G1 X117.80710659898476 Y221.13451776649748
G1 X22.401015228426395 Y221.13451776649748
G1 X21.766751269035534 Y221.76928934010152 F900
G1 X21.766497461928935 Y22.09390862944162 F900
G1 X118.44416243654821 Y22.09390862944162
G1 X118.44416243654821 Y221.76903553299493
G1 X21.766497461928935 Y221.76903553299493
G1 X21.131725888324873 Y222.40431472081218 F900
G1 X21.131979695431472 Y21.45939086294416 F900
G1 X119.07868020304569 Y21.45939086294416
G1 X119.07868020304569 Y222.4035532994924
G1 X21.131979695431472 Y222.4035532994924
G0 Z10
G0 X70.02690355329949 Y173.50913705583756
G1 Z-1.5 F600
G1 X70.02791878172589 Y70.35279187817258 F900
G1 X70.18274111675127 Y70.35279187817258
G1 X70.18274111675127 Y173.51015228426394
G1 X70.02791878172589 Y173.51015228426394
G1 X69.39187817258883 Y174.1441624365482 F900
G1 X69.39086294416244 Y69.71827411167513 F900
G1 X70.81725888324873 Y69.71827411167513
G1 X70.81725888324873 Y174.14467005076142
G1 X69.39086294416244 Y174.14467005076142
G1 X68.75685279187817 Y174.77918781725887 F900
G1 X68.75634517766497 Y69.08375634517766 F900
G1 X71.4517766497462 Y69.08375634517766
G1 X71.4517766497462 Y174.7791878172589
G1 X68.75634517766497 Y174.7791878172589
G1 X68.12182741116752 Y175.41421319796953 F900
G1 X68.12182741116752 Y68.44923857868021 F900
G1 X72.08883248730965 Y68.44923857868021
G1 X72.08883248730965 Y175.41370558375635
G1 X68.12182741116752 Y175.41370558375635
G1 X67.48680203045686 Y176.0492385786802 F900
G1 X67.48730964467005 Y67.81218274111676 F900
G1 X72.72335025380711 Y67.81218274111676
G1 X72.72335025380711 Y176.0482233502538
G1 X67.48730964467005 Y176.0482233502538
G1 X66.8517766497462 Y176.68426395939088 F900
G1 X66.8527918781726 Y67.17766497461929 F900
G1 X73.35786802030456 Y67.17766497461929
G1 X73.35786802030456 Y176.6852791878173
G1 X66.8527918781726 Y176.6852791878173
G1 X66.21675126903553 Y177.31928934010153 F900
G1 X66.21573604060914 Y66.54314720812182 F900
G1 X73.99238578680203 Y66.54314720812182
G1 X73.99238578680203 Y177.31979695431474
G1 X66.21573604060914 Y177.31979695431474
G1 X65.58172588832487 Y177.9543147208122 F900
G1 X65.58121827411168 Y65.90862944162437 F900
G1 X74.62690355329948 Y65.90862944162437
G1 X74.62690355329948 Y177.9543147208122
G1 X65.58121827411168 Y177.9543147208122
G1 X64.94695431472081 Y178.58934010152285 F900
G1 X64.94670050761421 Y65.2741116751269 F900
G1 X75.26395939086294 Y65.2741116751269
G1 X75.26395939086294 Y178.58883248730965
G1 X64.94670050761421 Y178.58883248730965
G1 X64.31192893401015 Y179.2243654822335 F900
G1 X64.31218274111674 Y64.63705583756345 F900
G1 X75.8984771573604 Y64.63705583756345
G1 X75.8984771573604 Y179.2233502538071
G1 X64.31218274111674 Y179.2233502538071
G1 X63.67690355329949 Y179.85913705583755 F900
G1 X63.67766497461929 Y64.00253807106598 F900
G1 X76.53299492385787 Y64.00253807106598
G1 X76.53299492385787 Y179.86040609137058
G1 X63.67766497461929 Y179.86040609137058
G1 X63.04187817258883 Y180.49416243654824 F900
G1 X63.04060913705584 Y63.368020304568525 F900
G1 X77.16751269035532 Y63.368020304568525
G1 X77.16751269035532 Y180.49492385786803
G1 X63.04060913705584 Y180.49492385786803
G1 X62.40685279187817 Y181.1291878172589 F900
G1 X62.40609137055838 Y62.733502538071065 F900
G1 X77.80203045685279 Y62.733502538071065
G1 X77.80203045685279 Y181.12944162436548
G1 X62.40609137055838 Y181.12944162436548
G1 X61.771827411167514 Y181.76421319796955 F900
G1 X61.77157360406091 Y62.098984771573605 F900
G1 X78.43908629441624 Y62.098984771573605
G1 X78.43908629441624 Y181.76395939086294
G1 X61.77157360406091 Y181.76395939086294
G1 X61.136802030456856 Y182.3992385786802 F900
G1 X61.13705583756345 Y61.46192893401015 F900
G1 X79.07360406091371 Y61.46192893401015
G1 X79.07360406091371 Y182.3984771573604
G1 X61.13705583756345 Y182.3984771573604
G1 X60.50177664974619 Y183.03426395939087 F900
G1 X60.50253807106599 Y60.827411167512686 F900
G1 X79.70812182741116 Y60.827411167512686
G1 X79.70812182741116 Y183.03299492385787
G1 X60.50253807106599 Y183.03299492385787
G1 X59.86675126903553 Y183.66928934010153 F900
G1 X59.86802030456853 Y60.192893401015226 F900
G1 X80.34263959390863 Y60.192893401015226
G1 X80.34263959390863 Y183.67005076142132
G1 X59.86802030456853 Y183.67005076142132
G1 X59.231725888324874 Y184.3043147208122 F900
G1 X59.23096446700508 Y59.558375634517766 F900
G1 X80.9771573604061 Y59.558375634517766
G1 X80.9771573604061 Y184.30456852791878
G1 X59.23096446700508 Y184.30456852791878
G1 X58.59695431472081 Y184.93934010152284 F900
G1 X58.59644670050762 Y58.923857868020306 F900
G1 X81.61421319796955 Y58.923857868020306
G1 X81.61421319796955 Y184.93908629441623
G1 X58.59644670050762 Y184.93908629441623
G1 X57.96192893401015 Y185.5743654822335 F900
G1 X57.961928934010146 Y58.289340101522846 F900
G1 X82.248730964467 Y58.289340101522846
G1 X82.248730964467 Y185.57360406091368
G1 X57.961928934010146 Y185.57360406091368
G1 X57.326903553299495 Y186.20913705583757 F900
G1 X57.32741116751269 Y57.652284263959395 F900
G1 X82.88324873096445 Y57.652284263959395
G1 X82.88324873096445 Y186.20812182741116
G1 X57.32741116751269 Y186.20812182741116
G1 X56.69187817258883 Y186.84416243654823 F900
G1 X56.692893401015226 Y57.01776649746193 F900
G1 X83.51776649746192 Y57.01776649746193
G1 X83.51776649746192 Y186.8451776649746
G1 X56.692893401015226 Y186.8451776649746
G1 X56.05685279187817 Y187.4791878172589 F900
G1 X56.055837563451774 Y56.38324873096447 F900
G1 X84.1522842639594 Y56.38324873096447
G1 X84.1522842639594 Y187.47969543147207
G1 X56.055837563451774 Y187.47969543147207
G1 X55.42182741116751 Y188.11421319796955 F900
G1 X55.42131979695432 Y55.74873096446701 F900
G1 X84.78680203045685 Y55.74873096446701
G1 X84.78680203045685 Y188.11421319796952
G1 X55.42131979695432 Y188.11421319796952
G1 X54.786802030456855 Y188.7492385786802 F900
G1 X54.78680203045685 Y55.11421319796955 F900
G1 X85.4238578680203 Y55.11421319796955
G1 X85.4238578680203 Y188.74873096446703
G1 X54.78680203045685 Y188.74873096446703
G1 X54.151776649746196 Y189.38426395939086 F900
G1 X54.15228426395939 Y54.477157360406096 F900
G1 X86.05837563451777 Y54.477157360406096
G1 X86.05837563451777 Y189.38324873096448
G1 X54.15228426395939 Y189.38324873096448
G1 X53.51675126903553 Y190.01928934010152 F900
G1 X53.51776649746193 Y53.84263959390863 F900
G1 X86.69289340101523 Y53.84263959390863
G1 X86.69289340101523 Y190.02030456852793
G1 X53.51776649746193 Y190.02030456852793
G1 X52.88172588832487 Y190.65431472081218 F900
G1 X52.880710659898476 Y53.20812182741116 F900
G1 X87.3274111675127 Y53.20812182741116
G1 X87.3274111675127 Y190.6548223350254
G1 X52.880710659898476 Y190.6548223350254
G1 X52.24695431472081 Y191.28934010152284 F900
G1 X52.246192893401016 Y52.57360406091371 F900
G1 X87.96192893401015 Y52.57360406091371
G1 X87.96192893401015 Y191.28934010152284
G1 X52.246192893401016 Y191.28934010152284
G1 X51.61192893401015 Y191.9243654822335 F900
G1 X51.61167512690355 Y51.93908629441624 F900
G1 X88.5989847715736 Y51.93908629441624
G1 X88.5989847715736 Y191.92385786802032
G1 X51.61167512690355 Y191.92385786802032
G1 X50.97690355329949 Y192.55913705583757 F900
G1 X50.97715736040609 Y51.30203045685279 F900
G1 X89.23350253807106 Y51.30203045685279
G1 X89.23350253807106 Y192.55837563451777
G1 X50.97715736040609 Y192.55837563451777
G1 X50.341878172588835 Y193.19416243654823 F900
G1 X50.34263959390863 Y50.66751269035534 F900
G1 X89.86802030456852 Y50.66751269035534
G1 X89.86802030456852 Y193.19543147208122
G1 X50.34263959390863 Y193.19543147208122
G1 X49.70685279187817 Y193.82918781725888 F900
G1 X49.70558375634518 Y50.03299492385786 F900
G1 X90.50253807106598 Y50.03299492385786
G1 X90.50253807106598 Y193.82994923857868
G1 X49.70558375634518 Y193.82994923857868
G1 X49.07182741116751 Y194.46421319796954 F900
G1 X49.07106598984772 Y49.398477157360404 F900
G1 X91.13705583756345 Y49.398477157360404
G1 X91.13705583756345 Y194.46446700507613
G1 X49.07106598984772 Y194.46446700507613
G1 X48.43680203045685 Y195.0992385786802 F900
G1 X48.43654822335026 Y48.763959390862944 F900
G1 X91.7741116751269 Y48.763959390862944
G1 X91.7741116751269 Y195.0989847715736
G1 X48.43654822335026 Y195.0989847715736
G1 X47.801776649746195 Y195.73426395939086 F900
G1 X47.80203045685279 Y48.12690355329949 F900
G1 X92.40862944162437 Y48.12690355329949
G1 X92.40862944162437 Y195.73350253807106
G1 X47.80203045685279 Y195.73350253807106
G1 X47.16675126903553 Y196.36928934010152 F900
G1 X47.16751269035533 Y47.49238578680203 F900
G1 X93.04314720812184 Y47.49238578680203
G1 X93.04314720812184 Y196.36802030456852
G1 X47.16751269035533 Y196.36802030456852
G1 X46.53172588832487 Y197.00431472081218 F900
G1 X46.53299492385787 Y46.857868020304565 F900
G1 X93.67766497461929 Y46.857868020304565
G1 X93.67766497461929 Y197.00507614213197
G1 X46.53299492385787 Y197.00507614213197
G1 X45.896954314720816 Y197.63934010152283 F900
G1 X45.89593908629442 Y46.223350253807105 F900
G1 X94.31218274111674 Y46.223350253807105
G1 X94.31218274111674 Y197.63959390862942
G1 X45.89593908629442 Y197.63959390862942
G1 X45.26192893401015 Y198.2743654822335 F900
G1 X45.26142131979696 Y45.588832487309645 F900
G1 X94.94670050761421 Y45.588832487309645
G1 X94.94670050761421 Y198.2741116751269
G1 X45.26142131979696 Y198.2741116751269
G1 X44.62690355329949 Y198.90913705583756 F900
G1 X44.626903553299485 Y44.954314720812185 F900
G1 X95.58375634517766 Y44.954314720812185
G1 X95.58375634517766 Y198.90862944162436
G1 X44.626903553299485 Y198.90862944162436
G1 X43.991878172588834 Y199.54416243654822 F900
G1 X43.99238578680203 Y44.31725888324873 F900
G1 X96.21827411167513 Y44.31725888324873
G1 X96.21827411167513 Y199.5431472081218
G1 X43.99238578680203 Y199.5431472081218
G1 X43.356852791878175 Y200.17918781725888 F900
G1 X43.357868020304565 Y43.68274111675127 F900
G1 X96.85279187817258 Y43.68274111675127
G1 X96.85279187817258 Y200.18020304568526
G1 X43.357868020304565 Y200.18020304568526
G1 X42.72182741116751 Y200.81421319796954 F900
G1 X42.72081218274111 Y43.04822335025381 F900
G1 X97.48730964467006 Y43.04822335025381
G1 X97.48730964467006 Y200.8147208121827
G1 X42.72081218274111 Y200.8147208121827
G1 X42.08680203045685 Y201.4492385786802 F900
G1 X42.08629441624366 Y42.41370558375635 F900
G1 X98.12182741116752 Y42.41370558375635
G1 X98.12182741116752 Y201.4492385786802
G1 X42.08629441624366 Y201.4492385786802
G1 X41.45177664974619 Y202.08426395939085 F900
G1 X41.45177664974619 Y41.77918781725889 F900
G1 X98.75888324873097 Y41.77918781725889
G1 X98.75888324873097 Y202.08375634517765
G1 X41.45177664974619 Y202.08375634517765
G1 X40.816751269035535 Y202.7192893401015 F900
G1 X40.817258883248726 Y41.142131979695435 F900
G1 X99.39340101522843 Y41.142131979695435
G1 X99.39340101522843 Y202.71827411167516
G1 X40.817258883248726 Y202.71827411167516
G1 X40.18172588832487 Y203.35431472081217 F900
G1 X40.18274111675127 Y40.507614213197975 F900
G1 X100.02791878172589 Y40.507614213197975
G1 X100.02791878172589 Y203.35532994923858
G1 X40.18274111675127 Y203.35532994923858
G1 X39.546954314720814 Y203.98934010152286 F900
G1 X39.545685279187815 Y39.87309644670051 F900
G1 X100.66243654822335 Y39.87309644670051
G1 X100.66243654822335 Y203.98984771573606
G1 X39.545685279187815 Y203.98984771573606
G1 X38.91192893401015 Y204.62436548223351 F900
G1 X38.911167512690355 Y39.23857868020305 F900
G1 X101.29695431472081 Y39.23857868020305
G1 X101.29695431472081 Y204.62436548223351
G1 X38.911167512690355 Y204.62436548223351
G1 X38.27690355329949 Y205.25913705583756 F900
G1 X38.276649746192895 Y38.60406091370558 F900
G1 X101.93401015228426 Y38.60406091370558
G1 X101.93401015228426 Y205.25888324873097
G1 X38.276649746192895 Y205.25888324873097
G1 X37.64187817258883 Y205.8941624365482 F900
G1 X37.642131979695435 Y37.96700507614213 F900
G1 X102.56852791878173 Y37.96700507614213
G1 X102.56852791878173 Y205.89340101522845
G1 X37.642131979695435 Y205.89340101522845
G1 X37.006852791878174 Y206.52918781725887 F900
G1 X37.00761421319797 Y37.33248730964467 F900
G1 X103.20304568527918 Y37.33248730964467
G1 X103.20304568527918 Y206.53045685279187
G1 X37.00761421319797 Y206.53045685279187
G1 X36.371827411167516 Y207.16421319796953 F900
G1 X36.37309644670051 Y36.69796954314721 F900
G1 X103.83756345177665 Y36.69796954314721
G1 X103.83756345177665 Y207.16497461928935
G1 X36.37309644670051 Y207.16497461928935
G1 X35.73680203045685 Y207.7992385786802 F900
G1 X35.736040609137056 Y36.06345177664974 F900
G1 X104.47208121827413 Y36.06345177664974
G1 X104.47208121827413 Y207.7994923857868
G1 X35.736040609137056 Y207.7994923857868
G1 X35.10177664974619 Y208.43426395939088 F900
G1 X35.10152284263959 Y35.42893401015228 F900
G1 X105.10913705583758 Y35.42893401015228
G1 X105.10913705583758 Y208.43401015228426
G1 X35.10152284263959 Y208.43401015228426
G1 X34.466751269035534 Y209.06928934010153 F900
G1 X34.46700507614213 Y34.79187817258883 F900
G1 X105.74365482233503 Y34.79187817258883
G1 X105.74365482233503 Y209.06852791878174
G1 X34.46700507614213 Y209.06852791878174
G1 X33.831725888324875 Y209.7043147208122 F900
G1 X33.83248730964467 Y34.15736040609137 F900
G1 X106.37817258883248 Y34.15736040609137
G1 X106.37817258883248 Y209.7030456852792
G1 X33.83248730964467 Y209.7030456852792
G1 X33.19695431472081 Y210.33934010152285 F900
G1 X33.19796954314721 Y33.52284263959391 F900
G1 X107.01269035532995 Y33.52284263959391
G1 X107.01269035532995 Y210.34010152284264
G1 X33.19796954314721 Y210.34010152284264
G1 X32.561928934010155 Y210.9743654822335 F900
G1 X32.56091370558376 Y32.88832487309645 F900
G1 X107.64720812182742 Y32.88832487309645
G1 X107.64720812182742 Y210.9746192893401
G1 X32.56091370558376 Y210.9746192893401
G1 X31.926903553299493 Y211.60913705583755 F900
G1 X31.926395939086298 Y32.253807106598984 F900
G1 X108.28172588832487 Y32.253807106598984
G1 X108.28172588832487 Y211.60913705583755
G1 X31.926395939086298 Y211.60913705583755
G1 X31.29187817258883 Y212.24416243654824 F900
G1 X31.29187817258883 Y31.619289340101524 F900
G1 X108.91878172588832 Y31.619289340101524
G1 X108.91878172588832 Y212.24365482233503
G1 X31.29187817258883 Y212.24365482233503
G1 X30.656852791878173 Y212.8791878172589 F900
G1 X30.65736040609137 Y30.982233502538072 F900
G1 X109.55329949238578 Y30.982233502538072
G1 X109.55329949238578 Y212.87817258883248
G1 X30.65736040609137 Y212.87817258883248
G1 X30.021827411167514 Y213.51421319796955 F900
G1 X30.022842639593907 Y30.34771573604061 F900
G1 X110.18781725888324 Y30.34771573604061
G1 X110.18781725888324 Y213.51522842639594
G1 X30.022842639593907 Y213.51522842639594
G1 X29.386802030456852 Y214.1492385786802 F900
G1 X29.385786802030456 Y29.71319796954315 F900
G1 X110.82233502538071 Y29.71319796954315
G1 X110.82233502538071 Y214.1497461928934
G1 X29.385786802030456 Y214.1497461928934
G1 X28.751776649746194 Y214.78426395939087 F900
G1 X28.751269035532996 Y29.078680203045685 F900
G1 X111.45685279187818 Y29.078680203045685
G1 X111.45685279187818 Y214.78426395939084
G1 X28.751269035532996 Y214.78426395939084
G1 X28.116751269035532 Y215.41928934010153 F900
G1 X28.116751269035532 Y28.444162436548226 F900
G1 X112.09390862944163 Y28.444162436548226
G1 X112.09390862944163 Y215.41878172588832
G1 X28.116751269035532 Y215.41878172588832
G1 X27.481725888324874 Y216.0543147208122 F900
G1 X27.482233502538072 Y27.807106598984774 F900
G1 X112.7284263959391 Y27.807106598984774
G1 X112.7284263959391 Y216.0532994923858
G1 X27.482233502538072 Y216.0532994923858
G1 X26.84695431472081 Y216.68934010152284 F900
G1 X26.847715736040605 Y27.172588832487307 F900
G1 X113.36294416243655 Y27.172588832487307
G1 X113.36294416243655 Y216.69035532994926
G1 X26.847715736040605 Y216.69035532994926
G1 X26.211928934010153 Y217.3243654822335 F900
G1 X26.210659898477154 Y26.538071065989847 F900
G1 X113.99746192893402 Y26.538071065989847
G1 X113.99746192893402 Y217.3248730964467
G1 X26.210659898477154 Y217.3248730964467
G1 X25.57690355329949 Y217.95913705583757 F900
G1 X25.576142131979694 Y25.903553299492387 F900
G1 X114.63197969543147 Y25.903553299492387
G1 X114.63197969543147 Y217.9593908629442
G1 X25.576142131979694 Y217.9593908629442
G1 X24.941878172588833 Y218.59416243654823 F900
G1 X24.941624365482234 Y25.269035532994923 F900
G1 X115.26903553299492 Y25.269035532994923
G1 X115.26903553299492 Y218.59390862944164
G1 X24.941624365482234 Y218.59390862944164
G1 X24.30685279187817 Y219.2291878172589 F900
G1 X24.30710659898477 Y24.631979695431472 F900
G1 X115.90355329949239 Y24.631979695431472
G1 X115.90355329949239 Y219.2284263959391
G1 X24.30710659898477 Y219.2284263959391
G1 X23.671827411167513 Y219.86421319796955 F900
G1 X23.67258883248731 Y23.997461928934012 F900
G1 X116.53807106598984 Y23.997461928934012
G1 X116.53807106598984 Y219.86548223350255
G1 X23.67258883248731 Y219.86548223350255
G1 X23.03680203045685 Y220.4992385786802 F900
G1 X23.038071065989847 Y23.36294416243655 F900
G1 X117.1725888324873 Y23.36294416243655
G1 X117.1725888324873 Y220.5
G1 X23.038071065989847 Y220.5
G1 X22.401776649746193 Y221.13426395939086 F900
G1 X22.401015228426395 Y22.72842639593909 F900
G1 X117.80710659898476 Y22.72842639593909
G1 X117.80710659898476 Y221.13451776649748
G1 X22.401015228426395 Y221.13451776649748
G1 X21.766751269035534 Y221.76928934010152 F900
G1 X21.766497461928935 Y22.09390862944162 F900
G1 X118.44416243654821 Y22.09390862944162
G1 X118.44416243654821 Y221.76903553299493
G1 X21.766497461928935 Y221.76903553299493
G1 X21.131725888324873 Y222.40431472081218 F900
G1 X21.131979695431472 Y21.45939086294416 F900
G1 X119.07868020304569 Y21.45939086294416
G1 X119.07868020304569 Y222.4035532994924
G1 X21.131979695431472 Y222.4035532994924
G0 Z10
M5
M30
