(Generated by PartKam Version 0.05)

G20 G90 G40

(pocket 1)
G0 Z0.25
T0 M6
G17
M3
G0 X4.2464 Y1.7867
G1 Z-0.05 F10
G1 X4.2464 Y4.4357 F30
G1 X4.2464 Y4.4365
G2 X4.2466 Y4.5025 I11.2495 J0
G2 X4.2471 Y4.5574 I7.5065 J-0.0441
G2 X4.2481 Y4.6128 I6.0015 J-0.0791
G2 X4.2494 Y4.6565 I3.6482 J-0.0818
G2 X4.2509 Y4.6987 I7.3177 J-0.251
G2 X4.2523 Y4.7298 I3.8709 J-0.1551
G2 X4.254 Y4.7619 I2.671 J-0.1286
G2 X4.2556 Y4.7846 I1.1333 J-0.0682
G2 X4.2598 Y4.8149 I0.2617 J-0.021
G2 X4.2799 Y4.8895 I0.5735 J-0.1142
G1 X4.28 Y4.8899
G1 X4.1676 Y4.8899
G2 X4.1899 Y4.7965 I-0.8307 J-0.2476
G2 X4.2084 Y4.6476 I-1.3423 J-0.2427
G2 X4.2157 Y4.4357 I-3.0744 J-0.2119
G1 X4.2157 Y3.2549
G2 X4.1921 Y3.1461 I-0.2625 J0
G2 X4.2157 Y3.0373 I-0.2389 J-0.1088
G1 X4.2157 Y1.7868
G2 X4.2142 Y1.6877 I-3.37 J0.0001
G2 X4.2102 Y1.6036 I-2.3467 J0.0691
G2 X4.2027 Y1.5174 I-1.9332 J0.1265
G2 X4.1925 Y1.4443 I-1.2889 J0.1423
G2 X4.1773 Y1.3694 I-1.1158 J0.188
G2 X4.1649 Y1.3239 I-0.7197 J0.1719
G1 X4.2898 Y1.3239
G2 X4.2768 Y1.3745 I0.6842 J0.2024
G2 X4.2631 Y1.4505 I1.0607 J0.231
G2 X4.2623 Y1.4566 I0.2598 J0.0375
G2 X4.2554 Y1.5254 I1.6741 J0.2015
G2 X4.2502 Y1.6084 I2.5862 J0.2041
G2 X4.2474 Y1.6899 I3.1693 J0.1481
G2 X4.2464 Y1.7867 I4.6074 J0.0967
G1 X4.2464 Y1.7867
G1 X4.2964 Y1.7867 F30
G1 X4.2964 Y1.7867 F30
G1 X4.2964 Y4.4357
G1 X4.2964 Y4.4365
G2 X4.2966 Y4.5022 I11.1995 J0
G2 X4.2971 Y4.5568 I7.4565 J-0.0438
G2 X4.2981 Y4.6117 I5.9515 J-0.0785
G2 X4.2993 Y4.6548 I3.5982 J-0.0806
G2 X4.3009 Y4.6967 I7.2678 J-0.2493
G2 X4.3022 Y4.7274 I3.821 J-0.1531
G2 X4.3039 Y4.7589 I2.6211 J-0.1262
G2 X4.3055 Y4.7806 I1.0834 J-0.0652
G2 X4.3089 Y4.8051 I0.2118 J-0.017
G2 X4.3272 Y4.8734 I0.5244 J-0.1044
G2 X4.3544 Y4.9384 I0.4958 J-0.1692
G2 X4.3552 Y4.9399 I0.4739 J-0.2368
G1 X4.0975 Y4.9399
G2 X4.1407 Y4.7876 I-0.7607 J-0.2976
G2 X4.1585 Y4.6441 I-1.2931 J-0.2338
G2 X4.1657 Y4.4357 I-3.0245 J-0.2084
G1 X4.1657 Y3.2549
G2 X4.1357 Y3.1461 I-0.2125 J0
G2 X4.1657 Y3.0373 I-0.1825 J-0.1088
G1 X4.1657 Y1.7868
G2 X4.1643 Y1.6892 I-3.32 J0.0001
G2 X4.1604 Y1.6068 I-2.2967 J0.0676
G2 X4.153 Y1.5228 I-1.8833 J0.1232
G2 X4.1432 Y1.4526 I-1.2392 J0.1368
G2 X4.1286 Y1.381 I-1.0665 J0.1797
G2 X4.1112 Y1.3206 I-0.6711 J0.1603
G2 X4.0931 Y1.2739 I-0.5243 J0.1771
G1 X4.3609 Y1.2739
G2 X4.3422 Y1.3237 I0.4902 J0.213
G2 X4.3256 Y1.3852 I0.6318 J0.2027
G2 X4.3126 Y1.4576 I1.0119 J0.2203
G2 X4.3119 Y1.4626 I0.2103 J0.0304
G2 X4.3052 Y1.5294 I1.6244 J0.1955
G2 X4.3001 Y1.6108 I2.5363 J0.2002
G2 X4.2974 Y1.691 I3.1194 J0.1457
G2 X4.2964 Y1.7867 I4.5574 J0.0957
G1 X4.3464 Y1.7867 F30
G1 X4.3464 Y1.7867 F30
G1 X4.3464 Y4.4357
G1 X4.3464 Y4.4365
G2 X4.3466 Y4.5019 I11.1495 J0
G2 X4.3471 Y4.5561 I7.4065 J-0.0435
G2 X4.3481 Y4.6105 I5.9015 J-0.0778
G2 X4.3493 Y4.6531 I3.5482 J-0.0795
G2 X4.3508 Y4.6946 I7.2178 J-0.2476
G2 X4.3522 Y4.725 I3.771 J-0.1511
G2 X4.3539 Y4.7559 I2.5712 J-0.1238
G2 X4.3553 Y4.7766 I1.0335 J-0.0622
G2 X4.3579 Y4.7953 I0.162 J-0.013
G2 X4.3746 Y4.8572 I0.4754 J-0.0946
G2 X4.3992 Y4.916 I0.4485 J-0.153
G2 X4.4312 Y4.9707 I0.4292 J-0.2145
G2 X4.4448 Y4.9899 I0.4262 J-0.2888
G1 X4.0145 Y4.9899
G2 X4.0502 Y4.9236 I-0.2593 J-0.1827
G2 X4.0915 Y4.7787 I-0.7134 J-0.2813
G2 X4.1086 Y4.6407 I-1.2439 J-0.2249
G2 X4.1157 Y4.4357 I-2.9746 J-0.205
G1 X4.1157 Y3.2549
G2 X4.0739 Y3.1461 I-0.1625 J0
G2 X4.1157 Y3.0373 I-0.1207 J-0.1088
G1 X4.1157 Y1.7868
G2 X4.1143 Y1.6907 I-3.27 J0.0001
G2 X4.1105 Y1.6101 I-2.2468 J0.0661
G2 X4.1033 Y1.5283 I-1.8334 J0.1199
G2 X4.0939 Y1.461 I-1.1895 J0.1314
G2 X4.08 Y1.3926 I-1.0172 J0.1714
G2 X4.0639 Y1.3366 I-0.6224 J0.1487
G2 X4.0396 Y1.2774 I-0.4769 J0.1611
G2 X4.0087 Y1.2262 I-0.2964 J0.1442
G2 X4.007 Y1.2239 I-0.3939 J0.29
G1 X4.4467 Y1.2239
G2 X4.4438 Y1.228 I0.3736 J0.2692
G2 X4.4137 Y1.2787 I0.2605 J0.1891
G2 X4.3898 Y1.3389 I0.4374 J0.2082
G2 X4.3745 Y1.3958 I0.5841 J0.1874
G2 X4.362 Y1.4647 I0.963 J0.2097
G2 X4.3615 Y1.4685 I0.1608 J0.0232
G2 X4.3551 Y1.5333 I1.5748 J0.1895
G2 X4.3501 Y1.6131 I2.4865 J0.1962
G2 X4.3474 Y1.692 I3.0694 J0.1434
G2 X4.3464 Y1.7867 I4.5074 J0.0946
G1 X4.3964 Y1.7867 F30
G1 X4.3964 Y1.7867 F30
G1 X4.3964 Y4.4357
G1 X4.3964 Y4.4365
G2 X4.3966 Y4.5017 I11.0995 J0
G2 X4.3971 Y4.5555 I7.3565 J-0.0432
G2 X4.3981 Y4.6094 I5.8515 J-0.0772
G2 X4.3993 Y4.6514 I3.4982 J-0.0784
G2 X4.4008 Y4.6926 I7.1678 J-0.2459
G2 X4.4021 Y4.7226 I3.7211 J-0.1491
G2 X4.4038 Y4.7529 I2.5212 J-0.1213
G2 X4.4051 Y4.7726 I0.9835 J-0.0592
G2 X4.407 Y4.7856 I0.1121 J-0.009
G2 X4.4219 Y4.8411 I0.4264 J-0.0849
G2 X4.4439 Y4.8937 I0.4011 J-0.1369
G2 X4.4725 Y4.9427 I0.3845 J-0.1921
G2 X4.5082 Y4.9887 I0.3848 J-0.2608
G2 X4.5099 Y4.9907 I0.0845 J-0.0743
G2 X4.5622 Y5.0399 I0.3708 J-0.3414
G1 X3.8957 Y5.0399
G2 X3.9477 Y4.9925 I-0.3358 J-0.4206
G2 X4.0037 Y4.9052 I-0.1925 J-0.1853
G2 X4.0423 Y4.7698 I-0.6669 J-0.2629
G2 X4.0588 Y4.6373 I-1.1947 J-0.216
G2 X4.0657 Y4.4357 I-2.9247 J-0.2016
G1 X4.0657 Y3.2549
G2 X3.9818 Y3.1461 I-0.1125 J0
G2 X4.0657 Y3.0373 I-0.0286 J-0.1088
G1 X4.0657 Y1.7868
G2 X4.0643 Y1.6921 I-3.22 J0.0001
G2 X4.0606 Y1.6133 I-2.1968 J0.0647
G2 X4.0536 Y1.5338 I-1.7835 J0.1167
G2 X4.0446 Y1.4693 I-1.1398 J0.1259
G2 X4.0314 Y1.4043 I-0.9679 J0.1631
G2 X4.0165 Y1.3526 I-0.5738 J0.1371
G2 X3.9946 Y1.2993 I-0.4296 J0.1451
G2 X3.9684 Y1.2559 I-0.2514 J0.1223
G2 X3.8899 Y1.1739 I-0.3537 J0.2603
G1 X4.5622 Y1.1739
G2 X4.4845 Y1.2571 I0.258 J0.3192
G2 X4.4588 Y1.3002 I0.2198 J0.16
G2 X4.4374 Y1.3542 I0.3923 J0.1867
G2 X4.4234 Y1.4065 I0.5365 J0.1721
G2 X4.4115 Y1.4719 I0.9142 J0.1991
G2 X4.4112 Y1.4745 I0.1113 J0.0161
G2 X4.4049 Y1.5372 I1.5251 J0.1836
G2 X4.4 Y1.6154 I2.4366 J0.1923
G2 X4.3974 Y1.6931 I3.0195 J0.1411
G2 X4.3964 Y1.7867 I4.4574 J0.0936
G0 Z0.25
G0 X1.8197 Y4.4357
G1 Z-0.05 F10
G1 X1.8197 Y1.7868 F30
G2 X1.8185 Y1.6861 I-4.0999 J0
G2 X1.8151 Y1.6019 I-2.7724 J0.0681
G2 X1.8087 Y1.5158 I-2.2428 J0.1234
G2 X1.8007 Y1.4476 I-1.4279 J0.1337
G2 X1.7887 Y1.3732 I-1.009 J0.1246
G2 X1.7768 Y1.3239 I-0.6356 J0.1269
G1 X1.8993 Y1.3239
G2 X1.8726 Y1.441 I0.8934 J0.2656
G2 X1.8567 Y1.5839 I1.4469 J0.2335
G2 X1.8504 Y1.7868 I3.2717 J0.2029
G1 X1.8504 Y1.7868
G1 X1.8504 Y3.0373
G2 X1.874 Y3.1461 I0.2625 J0
G2 X1.8504 Y3.2549 I0.2389 J0.1088
G1 X1.8504 Y4.4358
G1 X1.8504 Y4.4358
G2 X1.8581 Y4.6392 I2.691 J0
G2 X1.8782 Y4.7893 I1.3196 J-0.1
G2 X1.9036 Y4.8899 I0.8885 J-0.171
G1 X1.7733 Y4.8899
G2 X1.7832 Y4.8504 I-0.6938 J-0.1958
G2 X1.7971 Y4.7748 I-1.0001 J-0.2221
G2 X1.8067 Y4.7052 I-1.2792 J-0.2119
G2 X1.8142 Y4.619 I-1.9252 J-0.2126
G2 X1.8182 Y4.5348 I-2.3421 J-0.1532
G2 X1.8197 Y4.4357 I-3.3674 J-0.0991
G1 X1.7697 Y4.4357 F30
G1 X1.7697 Y1.7868 F30
G2 X1.7685 Y1.6873 I-4.0499 J0
G2 X1.7652 Y1.6047 I-2.7224 J0.0669
G2 X1.7589 Y1.5205 I-2.1929 J0.1206
G2 X1.7511 Y1.4542 I-1.3781 J0.1291
G2 X1.7396 Y1.383 I-0.9594 J0.118
G2 X1.7236 Y1.3204 I-0.5866 J0.1171
G2 X1.7062 Y1.2739 I-0.4538 J0.143
G1 X1.9698 Y1.2739
G2 X1.9593 Y1.3008 I0.3484 J0.1512
G2 X1.922 Y1.449 I0.8335 J0.2888
G2 X1.9066 Y1.587 I1.3975 J0.2256
G2 X1.9004 Y1.7868 I3.2218 J0.1998
G1 X1.9004 Y1.7868
G1 X1.9004 Y3.0373
G2 X1.9304 Y3.1461 I0.2125 J0
G2 X1.9004 Y3.2549 I0.1825 J0.1088
G1 X1.9004 Y4.4358
G1 X1.9004 Y4.4358
G2 X1.908 Y4.6354 I2.641 J0
G2 X1.9273 Y4.7798 I1.2697 J-0.0962
G2 X1.9717 Y4.9325 I0.8394 J-0.1616
G2 X1.9747 Y4.9399 I0.4017 J-0.1588
G1 X1.7035 Y4.9399
G2 X1.7163 Y4.9051 I-0.5207 J-0.2115
G2 X1.7344 Y4.8396 I-0.6369 J-0.211
G2 X1.7477 Y4.7671 I-0.9513 J-0.2113
G2 X1.757 Y4.6997 I-1.2298 J-0.2043
G2 X1.7643 Y4.6157 I-1.8755 J-0.2071
G2 X1.7683 Y4.5333 I-2.2922 J-0.1499
G2 X1.7697 Y4.4357 I-3.3174 J-0.0976
G1 X1.7197 Y4.4357 F30
G1 X1.7197 Y1.7868 F30
G2 X1.7185 Y1.6885 I-3.9999 J0
G2 X1.7153 Y1.6074 I-2.6724 J0.0657
G2 X1.7091 Y1.5252 I-2.143 J0.1179
G2 X1.7015 Y1.4608 I-1.3284 J0.1244
G2 X1.6906 Y1.3928 I-0.9099 J0.1114
G2 X1.6759 Y1.3354 I-0.5376 J0.1073
G2 X1.6509 Y1.2734 I-0.4061 J0.1279
G2 X1.6194 Y1.2239 I-0.2528 J0.126
G1 X2.0568 Y1.2239
G2 X2.0066 Y1.3171 I0.2613 J0.2012
G2 X1.9713 Y1.457 I0.7862 J0.2724
G2 X1.9565 Y1.5901 I1.3482 J0.2176
G2 X1.9504 Y1.7868 I3.1719 J0.1967
G1 X1.9504 Y1.7868
G1 X1.9504 Y3.0373
G2 X1.9922 Y3.1461 I0.1625 J0
G2 X1.9504 Y3.2549 I0.1207 J0.1088
G1 X1.9504 Y4.4358
G1 X1.9504 Y4.4358
G2 X1.9578 Y4.6316 I2.591 J0
G2 X1.9764 Y4.7704 I1.2198 J-0.0925
G2 X2.0182 Y4.9142 I0.7903 J-0.1521
G2 X2.0585 Y4.9899 I0.3552 J-0.1404
G1 X1.6222 Y4.9899
G2 X1.6433 Y4.9522 I-0.3097 J-0.1985
G2 X1.6689 Y4.8894 I-0.4605 J-0.2238
G2 X1.6856 Y4.8288 I-0.5894 J-0.1953
G2 X1.6982 Y4.7594 I-0.9025 J-0.2005
G2 X1.7073 Y4.6942 I-1.1803 J-0.1966
G2 X1.7145 Y4.6125 I-1.8258 J-0.2016
G2 X1.7183 Y4.5319 I-2.2423 J-0.1467
G2 X1.7197 Y4.4357 I-3.2674 J-0.0961
G1 X1.6697 Y4.4357 F30
G1 X1.6697 Y1.7868 F30
G2 X1.6685 Y1.6898 I-3.9499 J0
G2 X1.6653 Y1.6102 I-2.6224 J0.0645
G2 X1.6594 Y1.5298 I-2.093 J0.1151
G2 X1.652 Y1.4674 I-1.2786 J0.1197
G2 X1.6416 Y1.4026 I-0.8603 J0.1049
G2 X1.6282 Y1.3504 I-0.4885 J0.0975
G2 X1.6061 Y1.2957 I-0.3584 J0.1129
G2 X1.578 Y1.2523 I-0.2081 J0.1037
G2 X1.5006 Y1.1739 I-0.3716 J0.2899
G1 X2.1763 Y1.1739
G2 X2.1005 Y1.2494 I0.2804 J0.3575
G2 X2.0538 Y1.3335 I0.2177 J0.1757
G2 X2.0207 Y1.4649 I0.739 J0.2561
G2 X2.0064 Y1.5932 I1.2988 J0.2096
G2 X2.0004 Y1.7868 I3.122 J0.1936
G1 X2.0004 Y1.7868
G1 X2.0004 Y3.0373
G2 X2.0843 Y3.1461 I0.1125 J0
G2 X2.0004 Y3.2549 I0.0286 J0.1088
G1 X2.0004 Y4.4358
G1 X2.0004 Y4.4358
G2 X2.0077 Y4.6278 I2.541 J0
G2 X2.0255 Y4.7609 I1.17 J-0.0887
G2 X2.0647 Y4.8958 I0.7412 J-0.1427
G2 X2.1187 Y4.9866 I0.3087 J-0.1221
G2 X2.1197 Y4.9877 I0.0863 J-0.0721
G2 X2.1723 Y5.0399 I0.3478 J-0.2984
G1 X1.5119 Y5.0399
G2 X1.5678 Y4.9807 I-0.2817 J-0.322
G2 X1.5702 Y4.9774 I-0.0888 J-0.0691
G2 X1.5984 Y4.9303 I-0.2577 J-0.186
G2 X1.6214 Y4.8737 I-0.4155 J-0.2019
G2 X1.6368 Y4.8179 I-0.5419 J-0.1796
G2 X1.6488 Y4.7518 I-0.8536 J-0.1896
G2 X1.6576 Y4.6887 I-1.1309 J-0.1889
G2 X1.6646 Y4.6092 I-1.7761 J-0.1962
G2 X1.6683 Y4.5304 I-2.1924 J-0.1434
G2 X1.6697 Y4.4357 I-3.2174 J-0.0947
G0 Z0.25
G0 X1.6197 Y4.4357
G1 Z-0.05 F10
G1 X1.6197 Y1.7868 F30
G2 X1.6185 Y1.691 I-3.8999 J0
G2 X1.6154 Y1.6129 I-2.5725 J0.0632
G2 X1.6096 Y1.5345 I-2.0431 J0.1124
G2 X1.6024 Y1.4739 I-1.2288 J0.1151
G2 X1.5925 Y1.4124 I-0.8107 J0.0983
G2 X1.5805 Y1.3654 I-0.4395 J0.0877
G2 X1.5614 Y1.318 I-0.3107 J0.0979
G2 X1.5389 Y1.2835 I-0.1633 J0.0814
G2 X1.4638 Y1.2086 I-0.3326 J0.2587
G2 X1.3709 Y1.1541 I-0.2603 J0.3373
G2 X1.2717 Y1.1239 I-0.188 J0.4399
G1 X2.4115 Y1.1239
G2 X2.3114 Y1.153 I0.0898 J0.4968
G2 X2.2157 Y1.2068 I0.1637 J0.4034
G2 X2.1395 Y1.2806 I0.241 J0.3247
G2 X2.101 Y1.3499 I0.1786 J0.1445
G2 X2.0701 Y1.4729 I0.6917 J0.2397
G2 X2.0563 Y1.5962 I1.2495 J0.2017
G2 X2.0504 Y1.7868 I3.0721 J0.1905
G1 X2.0504 Y1.7868
G1 X2.0504 Y3.0373
G2 X2.1129 Y3.0998 I0.0625 J0
G1 X3.9532 Y3.0998
G2 X4.0157 Y3.0373 I0 J-0.0625
G1 X4.0157 Y1.7868
G2 X4.0143 Y1.6936 I-3.17 J0.0001
G2 X4.0107 Y1.6166 I-2.1468 J0.0632
G2 X4.0039 Y1.5393 I-1.7336 J0.1134
G2 X3.9953 Y1.4776 I-1.0901 J0.1204
G2 X3.9827 Y1.4159 I-0.9186 J0.1548
G2 X3.9691 Y1.3686 I-0.5252 J0.1255
G2 X3.9497 Y1.3212 I-0.3822 J0.1291
G2 X3.9281 Y1.2855 I-0.2065 J0.1005
G2 X3.8539 Y1.2092 I-0.3134 J0.2307
G2 X3.7596 Y1.154 I-0.2554 J0.3277
G2 X3.6586 Y1.1239 I-0.1876 J0.4461
G1 X4.7959 Y1.1239
G2 X4.693 Y1.1538 I0.0846 J0.4826
G2 X4.5973 Y1.2099 I0.1552 J0.3749
G2 X4.5251 Y1.2862 I0.2229 J0.2833
G2 X4.5039 Y1.3217 I0.1792 J0.1309
G2 X4.485 Y1.3695 I0.3471 J0.1652
G2 X4.4722 Y1.4171 I0.4889 J0.1569
G2 X4.461 Y1.479 I0.8653 J0.1884
G2 X4.4608 Y1.4805 I0.0619 J0.0089
G2 X4.4548 Y1.5412 I1.4755 J0.1776
G2 X4.45 Y1.6178 I2.3868 J0.1884
G2 X4.4474 Y1.6941 I2.9695 J0.1387
G2 X4.4464 Y1.7867 I4.4074 J0.0925
G1 X4.4464 Y1.7867
G1 X4.4464 Y4.4357
G1 X4.4464 Y4.4365
G2 X4.4466 Y4.5014 I11.0495 J0
G2 X4.4471 Y4.5548 I7.3065 J-0.0429
G2 X4.4481 Y4.6083 I5.8015 J-0.0765
G2 X4.4492 Y4.6497 I3.4482 J-0.0773
G2 X4.4508 Y4.6906 I7.1178 J-0.2442
G2 X4.4521 Y4.7202 I3.6711 J-0.1471
G2 X4.4537 Y4.7499 I2.4713 J-0.1189
G2 X4.455 Y4.7686 I0.9336 J-0.0562
G2 X4.456 Y4.7758 I0.0623 J-0.005
G2 X4.4692 Y4.8249 I0.3773 J-0.0751
G2 X4.4886 Y4.8713 I0.3538 J-0.1207
G2 X4.5139 Y4.9146 I0.3397 J-0.1698
G2 X4.5457 Y4.9557 I0.3434 J-0.2327
G2 X4.5467 Y4.9568 I0.0469 J-0.0413
G2 X4.6247 Y5.0243 I0.3341 J-0.3076
G2 X4.7165 Y5.0728 I0.2599 J-0.3806
G2 X4.7682 Y5.0899 I0.1851 J-0.4725
G1 X3.6884 Y5.0899
G2 X3.74 Y5.0728 I-0.1355 J-0.4947
G2 X3.8316 Y5.0248 I-0.1742 J-0.4447
G2 X3.9117 Y4.9578 I-0.2717 J-0.4056
G2 X3.9572 Y4.8869 I-0.1565 J-0.1506
G2 X3.9931 Y4.7609 I-0.6203 J-0.2446
G2 X4.0089 Y4.6338 I-1.1455 J-0.2071
G2 X4.0157 Y4.4357 I-2.8748 J-0.1981
G1 X4.0157 Y3.2549
G2 X3.9532 Y3.1924 I-0.0625 J0
G1 X2.1129 Y3.1924
G2 X2.0504 Y3.2549 I0 J0.0625
G1 X2.0504 Y4.4357
G1 X2.0504 Y4.4358
G2 X2.0575 Y4.624 I2.491 J0
G2 X2.0746 Y4.7515 I1.1201 J-0.0849
G2 X2.1112 Y4.8774 I0.6921 J-0.1332
G2 X2.1571 Y4.9546 I0.2622 J-0.1037
G1 X2.1576 Y4.9552
G2 X2.2327 Y5.0234 I0.3099 J-0.2659
G2 X2.3247 Y5.0728 I0.2514 J-0.3578
G2 X2.3766 Y5.0899 I0.1823 J-0.4654
G1 X1.3122 Y5.0899
G2 X1.3657 Y5.0717 I-0.1257 J-0.4585
G2 X1.4563 Y5.0205 I-0.154 J-0.3785
G2 X1.5283 Y4.95 I-0.2262 J-0.3026
G2 X1.5297 Y4.9481 I-0.0493 J-0.0384
G2 X1.5534 Y4.9085 I-0.2172 J-0.1568
G2 X1.5739 Y4.858 I-0.3706 J-0.1801
G2 X1.588 Y4.8071 I-0.4945 J-0.1638
G2 X1.5994 Y4.7441 I-0.8048 J-0.1788
G2 X1.6079 Y4.6832 I-1.0815 J-0.1813
G2 X1.6147 Y4.6059 I-1.7264 J-0.1907
G2 X1.6183 Y4.5289 I-2.1425 J-0.1401
G2 X1.6197 Y4.4357 I-3.1675 J-0.0932
G0 Z0.25
G0 X4.2464 Y1.7867
G1 Z-0.0625 F10
G1 X4.2464 Y4.4357 F30
G1 X4.2464 Y4.4365
G2 X4.2466 Y4.5025 I11.2495 J0
G2 X4.2471 Y4.5574 I7.5065 J-0.0441
G2 X4.2481 Y4.6128 I6.0015 J-0.0791
G2 X4.2494 Y4.6565 I3.6482 J-0.0818
G2 X4.2509 Y4.6987 I7.3177 J-0.251
G2 X4.2523 Y4.7298 I3.8709 J-0.1551
G2 X4.254 Y4.7619 I2.671 J-0.1286
G2 X4.2556 Y4.7846 I1.1333 J-0.0682
G2 X4.2598 Y4.8149 I0.2617 J-0.021
G2 X4.2799 Y4.8895 I0.5735 J-0.1142
G1 X4.28 Y4.8899
G1 X4.1676 Y4.8899
G2 X4.1899 Y4.7965 I-0.8307 J-0.2476
G2 X4.2084 Y4.6476 I-1.3423 J-0.2427
G2 X4.2157 Y4.4357 I-3.0744 J-0.2119
G1 X4.2157 Y3.2549
G2 X4.1921 Y3.1461 I-0.2625 J0
G2 X4.2157 Y3.0373 I-0.2389 J-0.1088
G1 X4.2157 Y1.7868
G2 X4.2142 Y1.6877 I-3.37 J0.0001
G2 X4.2102 Y1.6036 I-2.3467 J0.0691
G2 X4.2027 Y1.5174 I-1.9332 J0.1265
G2 X4.1925 Y1.4443 I-1.2889 J0.1423
G2 X4.1773 Y1.3694 I-1.1158 J0.188
G2 X4.1649 Y1.3239 I-0.7197 J0.1719
G1 X4.2898 Y1.3239
G2 X4.2768 Y1.3745 I0.6842 J0.2024
G2 X4.2631 Y1.4505 I1.0607 J0.231
G2 X4.2623 Y1.4566 I0.2598 J0.0375
G2 X4.2554 Y1.5254 I1.6741 J0.2015
G2 X4.2502 Y1.6084 I2.5862 J0.2041
G2 X4.2474 Y1.6899 I3.1693 J0.1481
G2 X4.2464 Y1.7867 I4.6074 J0.0967
G1 X4.2464 Y1.7867
G1 X4.2964 Y1.7867 F30
G1 X4.2964 Y1.7867 F30
G1 X4.2964 Y4.4357
G1 X4.2964 Y4.4365
G2 X4.2966 Y4.5022 I11.1995 J0
G2 X4.2971 Y4.5568 I7.4565 J-0.0438
G2 X4.2981 Y4.6117 I5.9515 J-0.0785
G2 X4.2993 Y4.6548 I3.5982 J-0.0806
G2 X4.3009 Y4.6967 I7.2678 J-0.2493
G2 X4.3022 Y4.7274 I3.821 J-0.1531
G2 X4.3039 Y4.7589 I2.6211 J-0.1262
G2 X4.3055 Y4.7806 I1.0834 J-0.0652
G2 X4.3089 Y4.8051 I0.2118 J-0.017
G2 X4.3272 Y4.8734 I0.5244 J-0.1044
G2 X4.3544 Y4.9384 I0.4958 J-0.1692
G2 X4.3552 Y4.9399 I0.4739 J-0.2368
G1 X4.0975 Y4.9399
G2 X4.1407 Y4.7876 I-0.7607 J-0.2976
G2 X4.1585 Y4.6441 I-1.2931 J-0.2338
G2 X4.1657 Y4.4357 I-3.0245 J-0.2084
G1 X4.1657 Y3.2549
G2 X4.1357 Y3.1461 I-0.2125 J0
G2 X4.1657 Y3.0373 I-0.1825 J-0.1088
G1 X4.1657 Y1.7868
G2 X4.1643 Y1.6892 I-3.32 J0.0001
G2 X4.1604 Y1.6068 I-2.2967 J0.0676
G2 X4.153 Y1.5228 I-1.8833 J0.1232
G2 X4.1432 Y1.4526 I-1.2392 J0.1368
G2 X4.1286 Y1.381 I-1.0665 J0.1797
G2 X4.1112 Y1.3206 I-0.6711 J0.1603
G2 X4.0931 Y1.2739 I-0.5243 J0.1771
G1 X4.3609 Y1.2739
G2 X4.3422 Y1.3237 I0.4902 J0.213
G2 X4.3256 Y1.3852 I0.6318 J0.2027
G2 X4.3126 Y1.4576 I1.0119 J0.2203
G2 X4.3119 Y1.4626 I0.2103 J0.0304
G2 X4.3052 Y1.5294 I1.6244 J0.1955
G2 X4.3001 Y1.6108 I2.5363 J0.2002
G2 X4.2974 Y1.691 I3.1194 J0.1457
G2 X4.2964 Y1.7867 I4.5574 J0.0957
G1 X4.3464 Y1.7867 F30
G1 X4.3464 Y1.7867 F30
G1 X4.3464 Y4.4357
G1 X4.3464 Y4.4365
G2 X4.3466 Y4.5019 I11.1495 J0
G2 X4.3471 Y4.5561 I7.4065 J-0.0435
G2 X4.3481 Y4.6105 I5.9015 J-0.0778
G2 X4.3493 Y4.6531 I3.5482 J-0.0795
G2 X4.3508 Y4.6946 I7.2178 J-0.2476
G2 X4.3522 Y4.725 I3.771 J-0.1511
G2 X4.3539 Y4.7559 I2.5712 J-0.1238
G2 X4.3553 Y4.7766 I1.0335 J-0.0622
G2 X4.3579 Y4.7953 I0.162 J-0.013
G2 X4.3746 Y4.8572 I0.4754 J-0.0946
G2 X4.3992 Y4.916 I0.4485 J-0.153
G2 X4.4312 Y4.9707 I0.4292 J-0.2145
G2 X4.4448 Y4.9899 I0.4262 J-0.2888
G1 X4.0145 Y4.9899
G2 X4.0502 Y4.9236 I-0.2593 J-0.1827
G2 X4.0915 Y4.7787 I-0.7134 J-0.2813
G2 X4.1086 Y4.6407 I-1.2439 J-0.2249
G2 X4.1157 Y4.4357 I-2.9746 J-0.205
G1 X4.1157 Y3.2549
G2 X4.0739 Y3.1461 I-0.1625 J0
G2 X4.1157 Y3.0373 I-0.1207 J-0.1088
G1 X4.1157 Y1.7868
G2 X4.1143 Y1.6907 I-3.27 J0.0001
G2 X4.1105 Y1.6101 I-2.2468 J0.0661
G2 X4.1033 Y1.5283 I-1.8334 J0.1199
G2 X4.0939 Y1.461 I-1.1895 J0.1314
G2 X4.08 Y1.3926 I-1.0172 J0.1714
G2 X4.0639 Y1.3366 I-0.6224 J0.1487
G2 X4.0396 Y1.2774 I-0.4769 J0.1611
G2 X4.0087 Y1.2262 I-0.2964 J0.1442
G2 X4.007 Y1.2239 I-0.3939 J0.29
G1 X4.4467 Y1.2239
G2 X4.4438 Y1.228 I0.3736 J0.2692
G2 X4.4137 Y1.2787 I0.2605 J0.1891
G2 X4.3898 Y1.3389 I0.4374 J0.2082
G2 X4.3745 Y1.3958 I0.5841 J0.1874
G2 X4.362 Y1.4647 I0.963 J0.2097
G2 X4.3615 Y1.4685 I0.1608 J0.0232
G2 X4.3551 Y1.5333 I1.5748 J0.1895
G2 X4.3501 Y1.6131 I2.4865 J0.1962
G2 X4.3474 Y1.692 I3.0694 J0.1434
G2 X4.3464 Y1.7867 I4.5074 J0.0946
G1 X4.3964 Y1.7867 F30
G1 X4.3964 Y1.7867 F30
G1 X4.3964 Y4.4357
G1 X4.3964 Y4.4365
G2 X4.3966 Y4.5017 I11.0995 J0
G2 X4.3971 Y4.5555 I7.3565 J-0.0432
G2 X4.3981 Y4.6094 I5.8515 J-0.0772
G2 X4.3993 Y4.6514 I3.4982 J-0.0784
G2 X4.4008 Y4.6926 I7.1678 J-0.2459
G2 X4.4021 Y4.7226 I3.7211 J-0.1491
G2 X4.4038 Y4.7529 I2.5212 J-0.1213
G2 X4.4051 Y4.7726 I0.9835 J-0.0592
G2 X4.407 Y4.7856 I0.1121 J-0.009
G2 X4.4219 Y4.8411 I0.4264 J-0.0849
G2 X4.4439 Y4.8937 I0.4011 J-0.1369
G2 X4.4725 Y4.9427 I0.3845 J-0.1921
G2 X4.5082 Y4.9887 I0.3848 J-0.2608
G2 X4.5099 Y4.9907 I0.0845 J-0.0743
G2 X4.5622 Y5.0399 I0.3708 J-0.3414
G1 X3.8957 Y5.0399
G2 X3.9477 Y4.9925 I-0.3358 J-0.4206
G2 X4.0037 Y4.9052 I-0.1925 J-0.1853
G2 X4.0423 Y4.7698 I-0.6669 J-0.2629
G2 X4.0588 Y4.6373 I-1.1947 J-0.216
G2 X4.0657 Y4.4357 I-2.9247 J-0.2016
G1 X4.0657 Y3.2549
G2 X3.9818 Y3.1461 I-0.1125 J0
G2 X4.0657 Y3.0373 I-0.0286 J-0.1088
G1 X4.0657 Y1.7868
G2 X4.0643 Y1.6921 I-3.22 J0.0001
G2 X4.0606 Y1.6133 I-2.1968 J0.0647
G2 X4.0536 Y1.5338 I-1.7835 J0.1167
G2 X4.0446 Y1.4693 I-1.1398 J0.1259
G2 X4.0314 Y1.4043 I-0.9679 J0.1631
G2 X4.0165 Y1.3526 I-0.5738 J0.1371
G2 X3.9946 Y1.2993 I-0.4296 J0.1451
G2 X3.9684 Y1.2559 I-0.2514 J0.1223
G2 X3.8899 Y1.1739 I-0.3537 J0.2603
G1 X4.5622 Y1.1739
G2 X4.4845 Y1.2571 I0.258 J0.3192
G2 X4.4588 Y1.3002 I0.2198 J0.16
G2 X4.4374 Y1.3542 I0.3923 J0.1867
G2 X4.4234 Y1.4065 I0.5365 J0.1721
G2 X4.4115 Y1.4719 I0.9142 J0.1991
G2 X4.4112 Y1.4745 I0.1113 J0.0161
G2 X4.4049 Y1.5372 I1.5251 J0.1836
G2 X4.4 Y1.6154 I2.4366 J0.1923
G2 X4.3974 Y1.6931 I3.0195 J0.1411
G2 X4.3964 Y1.7867 I4.4574 J0.0936
G0 Z0.25
G0 X1.8197 Y4.4357
G1 Z-0.0625 F10
G1 X1.8197 Y1.7868 F30
G2 X1.8185 Y1.6861 I-4.0999 J0
G2 X1.8151 Y1.6019 I-2.7724 J0.0681
G2 X1.8087 Y1.5158 I-2.2428 J0.1234
G2 X1.8007 Y1.4476 I-1.4279 J0.1337
G2 X1.7887 Y1.3732 I-1.009 J0.1246
G2 X1.7768 Y1.3239 I-0.6356 J0.1269
G1 X1.8993 Y1.3239
G2 X1.8726 Y1.441 I0.8934 J0.2656
G2 X1.8567 Y1.5839 I1.4469 J0.2335
G2 X1.8504 Y1.7868 I3.2717 J0.2029
G1 X1.8504 Y1.7868
G1 X1.8504 Y3.0373
G2 X1.874 Y3.1461 I0.2625 J0
G2 X1.8504 Y3.2549 I0.2389 J0.1088
G1 X1.8504 Y4.4358
G1 X1.8504 Y4.4358
G2 X1.8581 Y4.6392 I2.691 J0
G2 X1.8782 Y4.7893 I1.3196 J-0.1
G2 X1.9036 Y4.8899 I0.8885 J-0.171
G1 X1.7733 Y4.8899
G2 X1.7832 Y4.8504 I-0.6938 J-0.1958
G2 X1.7971 Y4.7748 I-1.0001 J-0.2221
G2 X1.8067 Y4.7052 I-1.2792 J-0.2119
G2 X1.8142 Y4.619 I-1.9252 J-0.2126
G2 X1.8182 Y4.5348 I-2.3421 J-0.1532
G2 X1.8197 Y4.4357 I-3.3674 J-0.0991
G1 X1.7697 Y4.4357 F30
G1 X1.7697 Y1.7868 F30
G2 X1.7685 Y1.6873 I-4.0499 J0
G2 X1.7652 Y1.6047 I-2.7224 J0.0669
G2 X1.7589 Y1.5205 I-2.1929 J0.1206
G2 X1.7511 Y1.4542 I-1.3781 J0.1291
G2 X1.7396 Y1.383 I-0.9594 J0.118
G2 X1.7236 Y1.3204 I-0.5866 J0.1171
G2 X1.7062 Y1.2739 I-0.4538 J0.143
G1 X1.9698 Y1.2739
G2 X1.9593 Y1.3008 I0.3484 J0.1512
G2 X1.922 Y1.449 I0.8335 J0.2888
G2 X1.9066 Y1.587 I1.3975 J0.2256
G2 X1.9004 Y1.7868 I3.2218 J0.1998
G1 X1.9004 Y1.7868
G1 X1.9004 Y3.0373
G2 X1.9304 Y3.1461 I0.2125 J0
G2 X1.9004 Y3.2549 I0.1825 J0.1088
G1 X1.9004 Y4.4358
G1 X1.9004 Y4.4358
G2 X1.908 Y4.6354 I2.641 J0
G2 X1.9273 Y4.7798 I1.2697 J-0.0962
G2 X1.9717 Y4.9325 I0.8394 J-0.1616
G2 X1.9747 Y4.9399 I0.4017 J-0.1588
G1 X1.7035 Y4.9399
G2 X1.7163 Y4.9051 I-0.5207 J-0.2115
G2 X1.7344 Y4.8396 I-0.6369 J-0.211
G2 X1.7477 Y4.7671 I-0.9513 J-0.2113
G2 X1.757 Y4.6997 I-1.2298 J-0.2043
G2 X1.7643 Y4.6157 I-1.8755 J-0.2071
G2 X1.7683 Y4.5333 I-2.2922 J-0.1499
G2 X1.7697 Y4.4357 I-3.3174 J-0.0976
G1 X1.7197 Y4.4357 F30
G1 X1.7197 Y1.7868 F30
G2 X1.7185 Y1.6885 I-3.9999 J0
G2 X1.7153 Y1.6074 I-2.6724 J0.0657
G2 X1.7091 Y1.5252 I-2.143 J0.1179
G2 X1.7015 Y1.4608 I-1.3284 J0.1244
G2 X1.6906 Y1.3928 I-0.9099 J0.1114
G2 X1.6759 Y1.3354 I-0.5376 J0.1073
G2 X1.6509 Y1.2734 I-0.4061 J0.1279
G2 X1.6194 Y1.2239 I-0.2528 J0.126
G1 X2.0568 Y1.2239
G2 X2.0066 Y1.3171 I0.2613 J0.2012
G2 X1.9713 Y1.457 I0.7862 J0.2724
G2 X1.9565 Y1.5901 I1.3482 J0.2176
G2 X1.9504 Y1.7868 I3.1719 J0.1967
G1 X1.9504 Y1.7868
G1 X1.9504 Y3.0373
G2 X1.9922 Y3.1461 I0.1625 J0
G2 X1.9504 Y3.2549 I0.1207 J0.1088
G1 X1.9504 Y4.4358
G1 X1.9504 Y4.4358
G2 X1.9578 Y4.6316 I2.591 J0
G2 X1.9764 Y4.7704 I1.2198 J-0.0925
G2 X2.0182 Y4.9142 I0.7903 J-0.1521
G2 X2.0585 Y4.9899 I0.3552 J-0.1404
G1 X1.6222 Y4.9899
G2 X1.6433 Y4.9522 I-0.3097 J-0.1985
G2 X1.6689 Y4.8894 I-0.4605 J-0.2238
G2 X1.6856 Y4.8288 I-0.5894 J-0.1953
G2 X1.6982 Y4.7594 I-0.9025 J-0.2005
G2 X1.7073 Y4.6942 I-1.1803 J-0.1966
G2 X1.7145 Y4.6125 I-1.8258 J-0.2016
G2 X1.7183 Y4.5319 I-2.2423 J-0.1467
G2 X1.7197 Y4.4357 I-3.2674 J-0.0961
G1 X1.6697 Y4.4357 F30
G1 X1.6697 Y1.7868 F30
G2 X1.6685 Y1.6898 I-3.9499 J0
G2 X1.6653 Y1.6102 I-2.6224 J0.0645
G2 X1.6594 Y1.5298 I-2.093 J0.1151
G2 X1.652 Y1.4674 I-1.2786 J0.1197
G2 X1.6416 Y1.4026 I-0.8603 J0.1049
G2 X1.6282 Y1.3504 I-0.4885 J0.0975
G2 X1.6061 Y1.2957 I-0.3584 J0.1129
G2 X1.578 Y1.2523 I-0.2081 J0.1037
G2 X1.5006 Y1.1739 I-0.3716 J0.2899
G1 X2.1763 Y1.1739
G2 X2.1005 Y1.2494 I0.2804 J0.3575
G2 X2.0538 Y1.3335 I0.2177 J0.1757
G2 X2.0207 Y1.4649 I0.739 J0.2561
G2 X2.0064 Y1.5932 I1.2988 J0.2096
G2 X2.0004 Y1.7868 I3.122 J0.1936
G1 X2.0004 Y1.7868
G1 X2.0004 Y3.0373
G2 X2.0843 Y3.1461 I0.1125 J0
G2 X2.0004 Y3.2549 I0.0286 J0.1088
G1 X2.0004 Y4.4358
G1 X2.0004 Y4.4358
G2 X2.0077 Y4.6278 I2.541 J0
G2 X2.0255 Y4.7609 I1.17 J-0.0887
G2 X2.0647 Y4.8958 I0.7412 J-0.1427
G2 X2.1187 Y4.9866 I0.3087 J-0.1221
G2 X2.1197 Y4.9877 I0.0863 J-0.0721
G2 X2.1723 Y5.0399 I0.3478 J-0.2984
G1 X1.5119 Y5.0399
G2 X1.5678 Y4.9807 I-0.2817 J-0.322
G2 X1.5702 Y4.9774 I-0.0888 J-0.0691
G2 X1.5984 Y4.9303 I-0.2577 J-0.186
G2 X1.6214 Y4.8737 I-0.4155 J-0.2019
G2 X1.6368 Y4.8179 I-0.5419 J-0.1796
G2 X1.6488 Y4.7518 I-0.8536 J-0.1896
G2 X1.6576 Y4.6887 I-1.1309 J-0.1889
G2 X1.6646 Y4.6092 I-1.7761 J-0.1962
G2 X1.6683 Y4.5304 I-2.1924 J-0.1434
G2 X1.6697 Y4.4357 I-3.2174 J-0.0947
G0 Z0.25
G0 X1.6197 Y4.4357
G1 Z-0.0625 F10
G1 X1.6197 Y1.7868 F30
G2 X1.6185 Y1.691 I-3.8999 J0
G2 X1.6154 Y1.6129 I-2.5725 J0.0632
G2 X1.6096 Y1.5345 I-2.0431 J0.1124
G2 X1.6024 Y1.4739 I-1.2288 J0.1151
G2 X1.5925 Y1.4124 I-0.8107 J0.0983
G2 X1.5805 Y1.3654 I-0.4395 J0.0877
G2 X1.5614 Y1.318 I-0.3107 J0.0979
G2 X1.5389 Y1.2835 I-0.1633 J0.0814
G2 X1.4638 Y1.2086 I-0.3326 J0.2587
G2 X1.3709 Y1.1541 I-0.2603 J0.3373
G2 X1.2717 Y1.1239 I-0.188 J0.4399
G1 X2.4115 Y1.1239
G2 X2.3114 Y1.153 I0.0898 J0.4968
G2 X2.2157 Y1.2068 I0.1637 J0.4034
G2 X2.1395 Y1.2806 I0.241 J0.3247
G2 X2.101 Y1.3499 I0.1786 J0.1445
G2 X2.0701 Y1.4729 I0.6917 J0.2397
G2 X2.0563 Y1.5962 I1.2495 J0.2017
G2 X2.0504 Y1.7868 I3.0721 J0.1905
G1 X2.0504 Y1.7868
G1 X2.0504 Y3.0373
G2 X2.1129 Y3.0998 I0.0625 J0
G1 X3.9532 Y3.0998
G2 X4.0157 Y3.0373 I0 J-0.0625
G1 X4.0157 Y1.7868
G2 X4.0143 Y1.6936 I-3.17 J0.0001
G2 X4.0107 Y1.6166 I-2.1468 J0.0632
G2 X4.0039 Y1.5393 I-1.7336 J0.1134
G2 X3.9953 Y1.4776 I-1.0901 J0.1204
G2 X3.9827 Y1.4159 I-0.9186 J0.1548
G2 X3.9691 Y1.3686 I-0.5252 J0.1255
G2 X3.9497 Y1.3212 I-0.3822 J0.1291
G2 X3.9281 Y1.2855 I-0.2065 J0.1005
G2 X3.8539 Y1.2092 I-0.3134 J0.2307
G2 X3.7596 Y1.154 I-0.2554 J0.3277
G2 X3.6586 Y1.1239 I-0.1876 J0.4461
G1 X4.7959 Y1.1239
G2 X4.693 Y1.1538 I0.0846 J0.4826
G2 X4.5973 Y1.2099 I0.1552 J0.3749
G2 X4.5251 Y1.2862 I0.2229 J0.2833
G2 X4.5039 Y1.3217 I0.1792 J0.1309
G2 X4.485 Y1.3695 I0.3471 J0.1652
G2 X4.4722 Y1.4171 I0.4889 J0.1569
G2 X4.461 Y1.479 I0.8653 J0.1884
G2 X4.4608 Y1.4805 I0.0619 J0.0089
G2 X4.4548 Y1.5412 I1.4755 J0.1776
G2 X4.45 Y1.6178 I2.3868 J0.1884
G2 X4.4474 Y1.6941 I2.9695 J0.1387
G2 X4.4464 Y1.7867 I4.4074 J0.0925
G1 X4.4464 Y1.7867
G1 X4.4464 Y4.4357
G1 X4.4464 Y4.4365
G2 X4.4466 Y4.5014 I11.0495 J0
G2 X4.4471 Y4.5548 I7.3065 J-0.0429
G2 X4.4481 Y4.6083 I5.8015 J-0.0765
G2 X4.4492 Y4.6497 I3.4482 J-0.0773
G2 X4.4508 Y4.6906 I7.1178 J-0.2442
G2 X4.4521 Y4.7202 I3.6711 J-0.1471
G2 X4.4537 Y4.7499 I2.4713 J-0.1189
G2 X4.455 Y4.7686 I0.9336 J-0.0562
G2 X4.456 Y4.7758 I0.0623 J-0.005
G2 X4.4692 Y4.8249 I0.3773 J-0.0751
G2 X4.4886 Y4.8713 I0.3538 J-0.1207
G2 X4.5139 Y4.9146 I0.3397 J-0.1698
G2 X4.5457 Y4.9557 I0.3434 J-0.2327
G2 X4.5467 Y4.9568 I0.0469 J-0.0413
G2 X4.6247 Y5.0243 I0.3341 J-0.3076
G2 X4.7165 Y5.0728 I0.2599 J-0.3806
G2 X4.7682 Y5.0899 I0.1851 J-0.4725
G1 X3.6884 Y5.0899
G2 X3.74 Y5.0728 I-0.1355 J-0.4947
G2 X3.8316 Y5.0248 I-0.1742 J-0.4447
G2 X3.9117 Y4.9578 I-0.2717 J-0.4056
G2 X3.9572 Y4.8869 I-0.1565 J-0.1506
G2 X3.9931 Y4.7609 I-0.6203 J-0.2446
G2 X4.0089 Y4.6338 I-1.1455 J-0.2071
G2 X4.0157 Y4.4357 I-2.8748 J-0.1981
G1 X4.0157 Y3.2549
G2 X3.9532 Y3.1924 I-0.0625 J0
G1 X2.1129 Y3.1924
G2 X2.0504 Y3.2549 I0 J0.0625
G1 X2.0504 Y4.4357
G1 X2.0504 Y4.4358
G2 X2.0575 Y4.624 I2.491 J0
G2 X2.0746 Y4.7515 I1.1201 J-0.0849
G2 X2.1112 Y4.8774 I0.6921 J-0.1332
G2 X2.1571 Y4.9546 I0.2622 J-0.1037
G1 X2.1576 Y4.9552
G2 X2.2327 Y5.0234 I0.3099 J-0.2659
G2 X2.3247 Y5.0728 I0.2514 J-0.3578
G2 X2.3766 Y5.0899 I0.1823 J-0.4654
G1 X1.3122 Y5.0899
G2 X1.3657 Y5.0717 I-0.1257 J-0.4585
G2 X1.4563 Y5.0205 I-0.154 J-0.3785
G2 X1.5283 Y4.95 I-0.2262 J-0.3026
G2 X1.5297 Y4.9481 I-0.0493 J-0.0384
G2 X1.5534 Y4.9085 I-0.2172 J-0.1568
G2 X1.5739 Y4.858 I-0.3706 J-0.1801
G2 X1.588 Y4.8071 I-0.4945 J-0.1638
G2 X1.5994 Y4.7441 I-0.8048 J-0.1788
G2 X1.6079 Y4.6832 I-1.0815 J-0.1813
G2 X1.6147 Y4.6059 I-1.7264 J-0.1907
G2 X1.6183 Y4.5289 I-2.1425 J-0.1401
G2 X1.6197 Y4.4357 I-3.1675 J-0.0932

(follow path 2)
G0 Z0.25
G0 X0.4492 Y5.7008
G1 Z-0.05 F10
G1 X5.6645 Y5.7008 F30
G1 X5.6645 Y0.483
G1 X0.4492 Y0.483
G1 X0.4492 Y5.7008
G0 Z0.25
G0 X0.4492 Y5.7008
G1 Z-0.0625 F10
G1 X5.6645 Y5.7008 F30
G1 X5.6645 Y0.483
G1 X0.4492 Y0.483
G1 X0.4492 Y5.7008

(follow path 3)
G0 Z0.25
G0 X0.0253 Y6.1408
G1 Z-0.05 F10
G1 X6.1422 Y6.1408 F30
G1 X6.1422 Y0.0223
G1 X0.0253 Y0.0223
G1 X0.0253 Y6.1408
G0 Z0.25
G0 X0.0253 Y6.1408
G1 Z-0.1 F10
G1 X6.1422 Y6.1408 F30
G1 X6.1422 Y0.0223
G1 X0.0253 Y0.0223
G1 X0.0253 Y6.1408
G0 Z0.25
G0 X0.0253 Y6.1408
G1 Z-0.15 F10
G1 X6.1422 Y6.1408 F30
G1 X6.1422 Y0.0223
G1 X0.0253 Y0.0223
G1 X0.0253 Y6.1408
G0 Z0.25
G0 X0.0253 Y6.1408
G1 Z-0.2 F10
G1 X6.1422 Y6.1408 F30
G1 X6.1422 Y0.0223
G1 X0.0253 Y0.0223
G1 X0.0253 Y6.1408
G0 Z0.25
G0 X0.0253 Y6.1408
G1 Z-0.25 F10
G1 X6.1422 Y6.1408 F30
G1 X6.1422 Y0.0223
G1 X0.0253 Y0.0223
G1 X0.0253 Y6.1408
G0 Z0.25
G0 X0.0253 Y6.1408
G1 Z-0.3 F10
G1 X6.1422 Y6.1408 F30
G1 X6.1422 Y0.0223
G1 X0.0253 Y0.0223
G1 X0.0253 Y6.1408
G0 Z0.25
G0 X0.0253 Y6.1408
G1 Z-0.35 F10
G1 X6.1422 Y6.1408 F30
G1 X6.1422 Y0.0223
G1 X0.0253 Y0.0223
G1 X0.0253 Y6.1408
G0 Z0.25
G0 X0.0253 Y6.1408
G1 Z-0.375 F10
G1 X6.1422 Y6.1408 F30
G1 X6.1422 Y0.0223
G1 X0.0253 Y0.0223
G1 X0.0253 Y6.1408
G0 Z0.25
M5
M30
