(Generated by PartKam Version 0.05)

G20 G90 G40

(follow path 3)
G0 Z0.6
T0 M6
G17
M3
G0 X0.0253 Y6.1408
G1 Z-0.05 F10
G1 X6.1422 Y6.1408 F30
G1 X6.1422 Y0.0223
G1 X0.0253 Y0.0223
G1 X0.0253 Y6.1408
G0 Z0.6
G0 X0.0253 Y6.1408
G1 Z-0.1 F10
G1 X6.1422 Y6.1408 F30
G1 X6.1422 Y0.0223
G1 X0.0253 Y0.0223
G1 X0.0253 Y6.1408
G0 Z0.6
G0 X0.0253 Y6.1408
G1 Z-0.14 F10
G1 X6.1422 Y6.1408 F30
G1 X6.1422 Y0.0223
G1 X0.0253 Y0.0223
G1 X0.0253 Y6.1408
G0 Z0.6
M5
M30
