(Generated by PartKam Version 0.05)

G21 G90 G40

(follow path 1)
G0 Z3
T0 M6
G17
M3
G0 X1.816243654822335 Y129.24492385786803
G1 Z-0.2 F50
G1 X108.14213197969544 Y129.24619289340103 F400
G1 X108.14213197969544 Y2.3096446700507616
G1 X1.817258883248731 Y2.3096446700507616
G1 X1.817258883248731 Y129.24619289340103
G0 Z3
G0 X1.816243654822335 Y129.24492385786803
G1 Z-0.4 F50
G1 X108.14213197969544 Y129.24619289340103 F400
G1 X108.14213197969544 Y2.3096446700507616
G1 X1.817258883248731 Y2.3096446700507616
G1 X1.817258883248731 Y129.24619289340103
G0 Z3
G0 X1.816243654822335 Y129.24492385786803
G1 Z-0.6 F50
G1 X108.14213197969544 Y129.24619289340103 F400
G1 X108.14213197969544 Y2.3096446700507616
G1 X1.817258883248731 Y2.3096446700507616
G1 X1.817258883248731 Y129.24619289340103
G0 Z3
G0 X1.816243654822335 Y129.24492385786803
G1 Z-0.8 F50
G1 X108.14213197969544 Y129.24619289340103 F400
G1 X108.14213197969544 Y2.3096446700507616
G1 X1.817258883248731 Y2.3096446700507616
G1 X1.817258883248731 Y129.24619289340103
G0 Z3
G0 X1.816243654822335 Y129.24492385786803
G1 Z-1 F50
G1 X108.14213197969544 Y129.24619289340103 F400
G1 X108.14213197969544 Y2.3096446700507616
G1 X1.817258883248731 Y2.3096446700507616
G1 X1.817258883248731 Y129.24619289340103

(pocket 2)
G0 Z3
G0 X59.704314720812185 Y75.12944162436548
G1 Z-0.2 F50
G2 X57.69543147208122 Y69.03553299492386 I-16.375634517766496 J2.017766497461929 F400
G2 X60.86548223350253 Y68.73604060913705 I-0.5913705583756345 J-23.152284263959395
G2 X65.52030456852792 Y67.47208121827411 I-3.8426395939086295 J-23.35786802030457
G2 X69.62690355329948 Y65.47208121827411 I-9.532994923857869 J-24.78934010152284
G2 X72.3730964467005 Y63.60659898477158 I-14.969543147208121 J-25.00507614213198
G2 X72.4771573604061 Y63.52791878172589 I-23.53807106598985 J-30.748730964467008
G2 X72.68020304568527 Y64.69543147208122 I20.327411167512693 J-2.9137055837563453
G2 X70.81218274111676 Y65.42893401015229 I10.695431472081218 J30.00253807106599
G2 X66.7715736040609 Y67.6725888324873 I8.97969543147208 J20.921319796954315
G2 X62.621827411167516 Y71.51015228426397 I11.794416243654823 J16.921319796954315
G2 X59.82994923857868 Y76.0989847715736 I14.81472081218274 J12.157360406091371
G3 X59.703045685279186 Y75.12944162436548 I74.06345177664974 J-10.109137055837563
G1 X57.719289340101525 Y75.37385786802031 F400
G2 X54.26903553299493 Y67.63197969543147 I-14.390862944162437 J1.7741116751269035 F400
G1 X53.48984771573604 Y66.73604060913705
G2 X55.32233502538071 Y66.96700507614213 I3.6852791878172586 J-21.66497461928934
G2 X60.54060913705584 Y66.76142131979695 I1.784263959390863 J-21.083756345177665
G2 X64.80203045685279 Y65.60659898477158 I-3.517766497461929 J-21.383248730964468
G2 X68.6015228426396 Y63.75634517766497 I-8.81725888324873 J-22.923857868020306
G2 X71.15736040609137 Y62.02030456852792 I-13.941624365482232 J-23.289340101522843
G2 X73.57868020304568 Y59.99492385786802 I-22.32233502538071 J-29.16243654822335
G2 X74.31472081218274 Y59.307106598984774 I-28.426395939086294 J-31.17766497461929
G2 X74.26903553299493 Y60.61421319796955 I18.487309644670052 J1.3071065989847717
G2 X74.70812182741116 Y64.61928934010152 I18.532994923857867 J0
G2 X75.04314720812182 Y65.91116751269035 I18.319796954314718 J-4.055837563451777
G2 X74.0761421319797 Y66.33248730964466 I40.55583756345178 J94.31979695431473
G2 X71.6015228426396 Y67.26649746192894 I9.296954314720812 J28.36548223350254
G2 X67.91624365482234 Y69.31472081218274 I8.190355329949238 J19.083756345177665
G2 X64.17005076142132 Y72.77664974619289 I10.652284263959391 J15.279187817258883
G2 X61.28172588832487 Y77.86802030456853 I13.269035532994923 J10.890862944162436
G2 X60.30203045685279 Y82.59644670050761 I16.281725888324875 J5.845177664974619
G2 X60.25888324873097 Y83.85786802030458 I19.50507614213198 J1.2614213197969542
G2 X60.461928934010146 Y86.65736040609136 I19.545685279187815 J0
G2 X60.83756345177665 Y88.61675126903552 I21.289340101522846 J-3.078680203045685
G2 X61.36294416243655 Y90.60913705583756 I48.42893401015228 J-11.67005076142132
G3 X61.51269035532995 Y91.15228426395939 I-34.25126903553299 J9.769035532994923
G2 X61.55076142131979 Y91.98477157360406 I36.36294416243655 J-1.2309644670050761
G2 X61.65989847715736 Y93.68274111675127 I103.93401015228426 J-5.903553299492385
G3 X61.631979695431475 Y93.71827411167513 I-193.56091370558374 J-159.66497461928935
G3 X60.713197969543145 Y94.80203045685279 I-41.692893401015226 J-34.40609137055838
G3 X59.19035532994924 Y96.45939086294416 I-31.926395939086298 J-27.78680203045685
G3 X58.18527918781726 Y97.42893401015229 I-14.84517766497462 J-14.375634517766498
G3 X57.20558375634518 Y98.24111675126903 I-9.913705583756345 J-10.99492385786802
G2 X58.36294416243655 Y93.88324873096448 I-28.03553299492386 J-9.791878172588833
G2 X58.47969543147208 Y93.15989847715736 I-14.256345177664976 J-2.6522842639593907
G2 X58.8756345177665 Y88.91878172588832 I-52.46192893401015 J-7.048223350253807
G2 X58.931472081218274 Y86.85025380710661 I-38.95939086294416 J-2.068527918781726
G2 X58.88578680203046 Y84.98730964467006 I-39.01522842639594 J0
G2 X58.67766497461929 Y82.43401015228427 I-37.90862944162436 J1.8121827411167513
G2 X58.18527918781726 Y78.7233502538071 I-113.7741116751269 J13.17766497461929
G3 X57.87563451776649 Y76.56852791878173 I221.60659898477155 J-33.03807106598985
G3 X57.71827411167513 Y75.37309644670052 I76.01776649746193 J-10.578680203045685
G0 Z3
G0 X30.348223350253807 Y56.82893401015228
G1 Z-0.2 F50
G2 X29.83502538071066 Y56.78934010152284 I-2.8807106598984773 J33.14720812182741 F400
G2 X29.9746192893401 Y56.62690355329949 I-36.23857868020305 J-31.576142131979697
G2 X30.060913705583758 Y56.672588832487314 I7.746192893401015 J-14.568527918781726
G3 X30.34771573604061 Y56.829949238578685 I-4.225888324873097 J8.063451776649746
G1 X30.428426395939088 Y58.84467005076142 F400
G2 X25.403553299492387 Y58.77157360406091 I-2.9593908629441623 J31.131979695431472 F400
G1 X25.40609137055838 Y58.748730964467
G3 X25.720812182741113 Y58.38324873096447 I12.98984771573604 J10.847715736040609
G3 X26.784263959390863 Y57.19796954314721 I85.1243654822335 J75.30456852791878
G2 X28.078680203045685 Y55.75634517766497 I-107.42639593908629 J-97.753807106599
G2 X28.893401015228427 Y54.809644670050766 I-34.482233502538065 J-30.54568527918782
G2 X29.434010152284262 Y54.15482233502538 I-30.6751269035533 J-25.723350253807105
G2 X29.571065989847718 Y54.05076142131979 I-19.779187817258883 J-26.71827411167513
G2 X30.98984771573604 Y54.901015228426395 I8.149746192893401 J-11.992385786802032
G3 X31.80710659898477 Y55.37563451776649 I-5.154822335025381 J9.83248730964467
G3 X33.20812182741116 Y56.33756345177665 I-13.248730964467006 J20.756345177664976
G3 X34.098984771573605 Y57.02030456852792 I-19.340101522842637 J26.131979695431472
G3 X36.434010152284266 Y58.911167512690355 I-108.62944162436548 J136.65736040609136
G2 X38.20812182741116 Y60.35786802030457 I177.06598984771574 J-215.0456852791878
G2 X36.46700507614214 Y59.91624365482234 I-43.06091370558376 J165.79187817258884
G2 X35.111675126903556 Y59.598984771573605 I-12.373096446700506 J49.77918781725889
G2 X32.71827411167513 Y59.139593908629436 I-9.619289340101524 J43.74365482233503
G2 X30.428934010152282 Y58.845177664974614 I-5.538071065989848 J33.87309644670051
G0 Z3
G0 X30.239086294416243 Y60.83553299492386
G1 Z-0.2 F50
G2 X24.619289340101524 Y60.84263959390863 I-2.7715736040609134 J29.14213197969543 F400
G2 X22.720812182741117 Y61.088832487309645 I2.939086294416244 J30.055837563451778
G3 X22.865482233502537 Y60.66497461928934 I19.8756345177665 J6.560913705583756
G2 X23.5 Y57.934010152284266 I-11.784263959390863 J-4.1725888324873095
G3 X23.873096446700508 Y57.464467005076145 I10.436548223350254 J7.936548223350254
G3 X24.22335025380711 Y57.058375634517766 I14.52284263959391 J12.131979695431472
G3 X25.304568527918782 Y55.85279187817258 I86.62182741116752 J76.62944162436548
G2 X26.581218274111677 Y54.431472081218274 I-105.9492385786802 J-96.40609137055839
G2 X27.36294416243655 Y53.525380710659896 I-32.984771573604064 J-29.21827411167513
G2 X28.03553299492386 Y52.69796954314721 I-29.14213197969543 J-24.439086294416246
G2 X29.185279187817258 Y51.82233502538071 I-18.38071065989848 J-25.263959390862944
G2 X29.555837563451774 Y51.52030456852792 I-23.51269035532995 J-29.355329949238577
G2 X31.918781725888326 Y53.129441624365484 I8.16751269035533 J-9.461928934010151
G3 X32.88324873096447 Y53.69035532994924 I-6.083756345177665 J11.604060913705583
G3 X34.398477157360404 Y54.73096446700508 I-14.3248730964467 J22.441624365482234
G3 X35.34263959390863 Y55.454314720812185 I-20.527918781725887 J27.738578680203045
G3 X37.70558375634518 Y57.36802030456853 I-109.8756345177665 J138.2233502538071
G2 X39.60406091370559 Y58.91624365482233 I175.79441624365484 J-213.5
G2 X39.89593908629442 Y59.15228426395939 I49.40609137055837 J-61.101522842639596
G2 X42.41370558375635 Y61.20812182741116 I11.890862944162437 J-11.98477157360406
G2 X46.756345177664976 Y63.3248730964467 I9.972081218274111 J-14.939086294416244
G2 X49.23350253807107 Y63.96446700507614 I6.058375634517766 J-18.360406091370557
G2 X51.87817258883249 Y64.37817258883248 I7.7969543147208125 J-41.35532994923857
G3 X52.21065989847716 Y64.41878172588832 I-5.644670050761421 J45.76142131979695
G2 X55.48984771573604 Y64.9746192893401 I4.964467005076142 J-19.350253807106597
G2 X60.21573604060913 Y64.78934010152284 I1.6167512690355328 J-19.091370558375637
G2 X64.08375634517766 Y63.73857868020305 I-3.1928934010152283 J-19.411167512690355
G2 X67.57360406091371 Y62.038071065989854 I-8.098984771573605 J-21.055837563451778
G2 X69.94162436548224 Y60.431472081218274 I-12.913705583756345 J-21.573604060913706
G2 X72.23096446700508 Y58.51776649746193 I-21.106598984771573 J-27.573604060913706
G2 X73.42893401015229 Y57.38071065989848 I-27.078680203045685 J-29.700507614213198
G2 X75.20304568527918 Y55.58629441624365 I-85.85532994923858 J-86.72335025380711
G3 X75.93908629441624 Y54.83248730964468 I102.06091370558376 J98.91624365482232
G2 X78.30964467005076 Y52.75126903553299 I-17.52284263959391 J-22.340101522842637
G2 X76.48984771573603 Y57.92131979695432 I13.746192893401014 J7.738578680203045
G2 X76.26903553299492 Y60.61421319796955 I16.314720812182742 J2.6928934010152283
G2 X76.65989847715737 Y64.18781725888324 I16.53299492385787 J0
G2 X77.55837563451776 Y67.0253807106599 I16.365482233502537 J-3.6218274111675126
G2 X74.79441624365482 Y68.20304568527919 I38.03807106598985 J93.20558375634518
G2 X72.39086294416244 Y69.10406091370558 I8.581218274111675 J26.49492385786802
G2 X69.06091370558376 Y70.95431472081218 I7.401015228426396 J17.246192893401016
G2 X65.71573604060914 Y74.04568527918782 I9.50761421319797 J13.639593908629442
G2 X63.16497461928934 Y78.54314720812182 I11.723350253807105 J9.621827411167512
G2 X62.296954314720814 Y82.7258883248731 I14.401015228426397 J5.17005076142132
G2 X62.25888324873097 Y83.85786802030458 I17.51015228426396 J1.134517766497462
G2 X62.441624365482234 Y86.37055837563452 I17.54568527918782 J0
G2 X62.78172588832487 Y88.14720812182742 I19.309644670050762 J-2.7944162436548226
G2 X63.28426395939086 Y90.05837563451777 I46.484771573604064 J-11.203045685279188
G3 X63.50507614213198 Y90.86294416243655 I-36.1751269035533 J10.31725888324873
G2 X63.54822335025381 Y91.87309644670052 I34.370558375634516 J-0.9390862944162437
G2 X63.65736040609137 Y93.57360406091371 I101.93908629441624 J-5.789340101522843
G3 X63.70812182741116 Y94.34263959390863 I-41.12690355329949 J3.025380710659898
G3 X63.17258883248731 Y94.99238578680203 I-195.60659898477158 J-160.32487309644668
G3 X62.22081218274112 Y96.11421319796955 I-43.236040609137056 J-35.67766497461929
G3 X60.62690355329949 Y97.85025380710661 I-33.434010152284266 J-29.098984771573605
G3 X59.5253807106599 Y98.91624365482232 I-16.281725888324875 J-15.769035532994923
G3 X58.251269035533 Y99.95431472081219 I-11.253807106598986 J-12.479695431472082
G3 X57.39340101522843 Y100.51522842639594 I-5.324873096446701 J-7.213197969543147
G3 X56.53045685279188 Y100.93147208121827 I-3.296954314720812 J-5.738578680203046
G3 X55.89847715736041 Y101.12690355329948 I-1.5761421319796953 J-3.982233502538071
G2 X53.32233502538071 Y102.01269035532995 I2.753807106598985 J12.192893401015228
G2 X54.329949238578685 Y100.0253807106599 I-25.898477157360404 J-14.365482233502538
G2 X56.398477157360404 Y93.51776649746192 I-25.162436548223347 J-11.576142131979697
G2 X56.497461928934015 Y92.89340101522842 I-12.289340101522843 J-2.286802030456853
G2 X56.87817258883249 Y88.81218274111674 I-50.47969543147208 J-6.781725888324873
G2 X56.931472081218274 Y86.85025380710661 I-36.96192893401015 J-1.9619289340101522
G2 X56.88832487309645 Y85.08121827411168 I-37.015228426395936 J0
G2 X56.69035532994924 Y82.66243654822334 I-35.911167512690355 J1.7182741116751268
G2 X56.20812182741116 Y79.01776649746193 I-111.78680203045685 J12.946700507614214
G3 X55.89593908629442 Y76.84517766497461 I223.58629441624367 J-33.33248730964467
G3 X55.733502538071065 Y75.61928934010152 I77.997461928934 J-10.855329949238579
G2 X52.76142131979696 Y68.94416243654823 I-12.406091370558377 J1.5279187817258881
G1 X51.76903553299493 Y67.80456852791878
G2 X43.70812182741116 Y63.58121827411168 I-9.431472081218274 J8.203045685279188
G3 X42.53807106598985 Y63.41878172588832 I2.3299492385786804 J-21.109137055837564
G3 X41.09644670050762 Y63.142131979695435 I4.8604060913705585 J-29.093908629441625
G3 X40.21319796954315 Y62.93654822335025 I7.180203045685279 J-32.82994923857868
G3 X38.14213197969543 Y62.40862944162436 I35.378172588832484 J-143.14720812182742
G2 X35.98477157360406 Y61.857868020304565 I-42.994923857868024 J163.74111675126903
G2 X34.682741116751274 Y61.55076142131979 I-11.890862944162437 J47.837563451776646
G2 X32.39593908629442 Y61.11421319796954 I-9.19035532994924 J41.79187817258884
G2 X30.238578680203045 Y60.83502538071066 I-5.215736040609137 J31.901015228426395
G0 Z3
G0 X86.48147208121827 Y43.57284263959391
G1 Z-0.2 F50
G2 X87.04314720812184 Y41.6751269035533 I-23.88578680203046 J-8.098984771573605 F400
G2 X87.20558375634518 Y41.91624365482234 I46.55329949238578 J-31.068527918781726
G2 X87.81725888324873 Y42.817258883248726 I151.1751269035533 J-102.03045685279187
G2 X87.18781725888326 Y43.16497461928934 I21.73096446700508 J40.0253807106599
G2 X86.48223350253808 Y43.5736040609137 I19.299492385786802 J34.24873096446701
G1 X87.15964467005077 Y45.49796954314721 F400
G2 X84.54314720812184 Y46.63705583756345 I5.624365482233502 J16.48984771573604 F400
G2 X81.89593908629442 Y48.42893401015228 I7.395939086294416 J13.776649746192893
G2 X84.34771573604061 Y43.601522842639596 I-20.14467005076142 J-13.271573604060913
G2 X85.81218274111676 Y35.9492385786802 I-21.753807106598984 J-8.126903553299492
G3 X86.64467005076142 Y37.180203045685275 I-107.7258883248731 J73.78172588832487
G2 X87.16751269035534 Y38.109137055837564 I29.563451776649746 J-16.04314720812183
G2 X88.2258883248731 Y39.83248730964467 I40.233502538071065 J-23.51269035532995
G2 X88.86294416243655 Y40.799492385786806 I45.370558375634516 J-29.225888324873097
G2 X89.94670050761421 Y42.38578680203045 I149.51776649746193 J-100.91116751269035
G3 X90.73604060913706 Y43.54314720812183 I-103.85786802030458 J71.71573604060913
G2 X89.18274111675126 Y44.35279187817259 I65.32233502538071 J127.20304568527919
G2 X88.17005076142132 Y44.90609137055838 I20.365482233502537 J38.48984771573604
G2 X87.15989847715736 Y45.49746192893401 I18.31725888324873 J32.505076142131976
G0 Z3
G0 X88.00736040609137 Y47.32335025380711
G1 Z-0.2 F50
G2 X85.48984771573603 Y48.39847715736041 I4.776649746192893 J14.664974619289339 F400
G2 X80.58883248730965 Y52.85532994923858 I6.449238578680204 J12.01522842639594
G2 X78.46446700507614 Y58.24873096446701 I11.467005076142131 J7.634517766497462
G2 X78.26903553299492 Y60.61421319796955 I14.34010152284264 J2.365482233502538
G2 X78.61421319796955 Y63.75634517766497 I14.532994923857867 J0
G2 X80.34010152284264 Y68.11167512690355 I14.413705583756345 J-3.190355329949239
G2 X78.63451776649745 Y68.74619289340102 I10.588832487309645 J31.058375634517766
G2 X75.50761421319797 Y70.07360406091371 I36.96192893401015 J91.48477157360405
G2 X73.17766497461929 Y70.94162436548223 I7.865482233502537 J24.6243654822335
G2 X70.20304568527918 Y72.59644670050761 I6.611675126903553 J15.408629441624367
G2 X67.26142131979695 Y75.31472081218274 I8.362944162436548 J12
G2 X65.0482233502538 Y79.21827411167513 I10.17766497461929 J8.352791878172589
G2 X64.29187817258884 Y82.8527918781726 I12.517766497461928 J4.49492385786802
G2 X64.25888324873097 Y83.85786802030458 I15.51269035532995 J1.0050761421319796
G2 X64.42131979695431 Y86.08375634517768 I15.545685279187818 J0
G2 X64.7258883248731 Y87.68020304568529 I17.32994923857868 J-2.5076142131979697
G2 X65.20812182741116 Y89.51015228426397 I44.54060913705583 J-10.733502538071066
G3 X65.46700507614213 Y90.45939086294416 I-38.098984771573605 J10.86548223350254
G3 X65.5 Y90.59898477157361 I-2.916243654822335 J0.7538071065989848
G1 X65.5 Y90.59898477157361
G3 X65.51269035532995 Y90.68781725888326 I-0.9796954314720813 J0.20304568527918782
G1 X65.51269035532995 Y90.68781725888326
G2 X65.497461928934 Y90.39593908629442 I-2.6776649746192893 J0
G3 X65.497461928934 Y90.36040609137055 I2.6776649746192893 J0
G1 X65.497461928934 Y90.38071065989847
G2 X65.497461928934 Y90.42131979695432 I10.5 J0.04060913705583757
G1 X65.497461928934 Y90.4238578680203
G1 X65.497461928934 Y90.4238578680203
G1 X65.497461928934 Y90.43908629441624
G2 X65.5 Y90.59898477157361 I10.5 J-0.015228426395939087
G2 X65.5 Y90.66497461928934 I10.497461928934012 J-0.17512690355329952
G2 X65.54314720812184 Y91.75888324873097 I32.37309644670051 J-0.7436548223350253
G2 X65.65228426395939 Y93.42639593908629 I99.94162436548223 J-5.67766497461929
G3 X65.74111675126903 Y95.01522842639594 I-43.12182741116751 J3.1725888324873095
G3 X64.71573604060913 Y96.26395939086294 I-197.63959390862942 J-160.99746192893403
G3 X63.72842639593909 Y97.42893401015229 I-44.77918781725889 J-36.95177664974619
G3 X62.06345177664975 Y99.24365482233503 I-34.941624365482234 J-30.413705583756343
G3 X60.86294416243655 Y100.4010152284264 I-17.71827411167513 J-17.15989847715736
G3 X59.43908629441624 Y101.56345177664974 I-12.593908629441623 J-13.964467005076141
G3 X58.38832487309645 Y102.248730964467 I-6.5126903553299496 J-8.822335025380712
G3 X57.266497461928935 Y102.79187817258884 I-4.2944162436548226 J-7.472081218274111
G3 X56.340101522842644 Y103.07868020304568 I-2.312182741116751 J-5.842639593908629
G2 X53.751269035533 Y104.03299492385786 I2.312182741116751 J10.241116751269034
G3 X48.31979695431472 Y106.68781725888324 I-45.494923857868024 J-86.21065989847716
G3 X46.776649746192895 Y107.37055837563452 I-53.786802030456855 J-119.30710659898477
G2 X49.172588832487314 Y104.66751269035534 I-21.017766497461928 J-21.0253807106599
G2 X52.51269035532995 Y99.19035532994924 I-21.748730964467008 J-17.02030456852792
G2 X54.431472081218274 Y93.14974619289339 I-23.34517766497462 J-10.738578680203046
G2 X54.51522842639594 Y92.6269035532995 I-10.322335025380712 J-1.9213197969543148
G2 X54.88071065989848 Y88.70558375634518 I-48.497461928934015 J-6.5152284263959395
G2 X54.931472081218274 Y86.85025380710661 I-34.964467005076145 J-1.8553299492385786
G2 X54.890862944162436 Y85.17766497461929 I-35.01522842639594 J0
G2 X54.70558375634518 Y82.89340101522842 I-33.91370558375635 J1.6218274111675126
G2 X54.23096446700508 Y79.31218274111674 I-109.7994923857868 J12.715736040609137
G3 X53.91370558375635 Y77.11928934010152 I225.56345177664977 J-33.62690355329949
G3 X53.748730964467 Y75.86294416243655 I79.97969543147208 J-11.129441624365482
G2 X51.251269035533 Y70.25634517766497 I-10.421319796954315 J1.2842639593908631
G1 X50.25888324873097 Y69.11675126903553
G2 X43.48730964467005 Y65.57106598984771 I-7.9238578680203045 J6.890862944162437
G3 X42.21065989847716 Y65.39340101522842 I2.548223350253807 J-23.096446700507617
G3 X40.670050761421315 Y65.09644670050761 I5.187817258883248 J-31.068527918781726
G3 X39.733502538071065 Y64.87817258883248 I7.606598984771573 J-34.78426395939086
G3 X37.63451776649746 Y64.34263959390863 I35.857868020304565 J-145.08883248730965
G2 X35.50253807106599 Y63.79695431472081 I-42.48730964467005 J161.80710659898477
G2 X34.25126903553299 Y63.50507614213198 I-11.408629441624365 J45.89593908629442
G2 X32.07106598984772 Y63.088832487309645 I-8.761421319796955 J39.83756345177665
G2 X30.050761421319798 Y62.827411167512686 I-4.893401015228426 J29.926395939086294
G2 X24.812182741116754 Y62.83248730964467 I-2.5812182741116754 J27.1497461928934
G2 X20.796954314720814 Y63.52284263959391 I2.7436548223350252 J28.065989847715738
G2 X20.015228426395943 Y63.62690355329949 I2.0228426395939088 J17.936548223350254
G3 X20.19289340101523 Y62.76395939086294 I34.26142131979696 J6.568527918781726
G3 X20.97969543147208 Y59.99746192893401 I22.403553299492387 J4.885786802030457
G2 X21.555837563451774 Y57.22842639593908 I-9.898477157360405 J-3.50507614213198
G3 X21.58375634517767 Y57.180203045685275 I0.9416243654822334 J0.5304568527918782
G3 X21.796954314720814 Y56.870558375634516 I4.266497461928934 J2.6979695431472086
G3 X22.337563451776653 Y56.18274111675127 I12.139593908629443 J9
G3 X22.72335025380711 Y55.733502538071065 I16.058375634517766 J13.413705583756347
G3 X23.82741116751269 Y54.505076142131976 I88.12182741116752 J77.95431472081218
G2 X25.08375634517766 Y53.10406091370559 I-104.46954314720813 J-95.06091370558377
G2 X25.82994923857868 Y52.24111675126903 I-31.48730964467005 J-27.893401015228427
G2 X26.63705583756345 Y51.24111675126904 I-27.609137055837564 J-23.152284263959395
G2 X27.934010152284262 Y50.25888324873097 I-16.98477157360406 J-23.804568527918782
G2 X28.913705583756343 Y49.44670050761421 I-22.261421319796955 J-27.794416243654823
G2 X29.66751269035533 Y48.79187817258884 I-81.21573604060913 J-94.29187817258884
G2 X32.84517766497462 Y51.357868020304565 I8.055837563451776 J-6.736040609137056
G3 X33.95939086294416 Y52.00253807106599 I-7.0126903553299496 J13.375634517766496
G3 X35.58629441624365 Y53.12182741116751 I-15.401015228426395 J24.129441624365484
G3 X36.58629441624365 Y53.89086294416244 I-21.71827411167513 J29.347715736040605
G3 X38.97715736040609 Y55.82233502538071 I-111.11928934010152 J139.78934010152284
G2 X40.86294416243655 Y57.36294416243655 I174.52284263959393 J-211.95685279187816
G2 X41.23096446700508 Y57.65989847715736 I48.1497461928934 J-59.545685279187815
G2 X43.525380710659896 Y59.545685279187815 I10.555837563451778 J-10.49238578680203
G2 X47.38324873096447 Y61.4263959390863 I8.860406091370558 J-13.274111675126903
G2 X49.60406091370558 Y62 I5.431472081218274 J-16.461928934010153
G2 X52.12436548223351 Y62.39340101522843 I7.426395939086294 J-39.38832487309645
G3 X52.59390862944162 Y62.45177664974619 I-5.888324873096447 J47.746192893401016
G2 X55.659898477157356 Y62.98223350253807 I4.581218274111675 J-17.383248730964468
G2 X59.890862944162436 Y62.81472081218274 I1.4467005076142132 J-17.098984771573605
G2 X63.36548223350253 Y61.87309644670051 I-2.868020304568528 J-17.436548223350254
G2 X66.54568527918782 Y60.32233502538071 I-7.380710659898478 J-19.190355329949238
G2 X68.7258883248731 Y58.84263959390863 I-11.888324873096447 J-19.85786802030457
G2 X70.88324873096447 Y57.04060913705583 I-19.890862944162436 J-25.98477157360406
G2 X72.02030456852792 Y55.95939086294416 I-25.730964467005077 J-28.223350253807105
G2 X73.76649746192894 Y54.195431472081225 I-84.44670050761422 J-85.3020304568528
G3 X74.60659898477158 Y53.33502538071066 I103.497461928934 J100.30964467005076
G2 X79.0253807106599 Y48.98223350253807 I-16.18781725888325 J-20.84263959390863
G2 X82.4746192893401 Y42.901015228426395 I-17.274111675126903 J-13.82233502538071
G2 X83.81725888324873 Y35.52791878172589 I-19.880710659898476 J-7.426395939086294
G2 X83.81725888324873 Y35.46954314720812 I-22.99492385786802 J-0.05837563451776649
G2 X83.17766497461929 Y30.088832487309645 I-22.997461928934012 J0
G2 X83.08883248730965 Y28.80964467005076 I-18.558375634517766 J0.6675126903553299
G3 X84.31472081218274 Y30.418781725888326 I-80.13705583756345 J62.35532994923858
G3 X88.36040609137056 Y36.14720812182741 I-106.2284263959391 J79.31218274111674
G2 X88.89593908629442 Y37.098984771573605 I27.84771573604061 J-15.01015228426396
G2 X89.90862944162437 Y38.751269035533 I38.50761421319797 J-22.50253807106599
G2 X90.52030456852792 Y39.680203045685275 I43.68781725888325 J-28.14213197969543
G2 X91.59137055837563 Y41.248730964467 I147.86040609137055 J-99.79187817258882
G3 X92.70558375634519 Y42.890862944162436 I-105.50253807106598 J72.85279187817258
G3 X93.10152284263958 Y43.502538071065985 I-19.30203045685279 J12.890862944162436
G3 X93.5761421319797 Y44.30964467005076 I-14.362944162436548 J8.954314720812183
G3 X93.31979695431473 Y44.4492385786802 I-8.332487309644671 J-14.961928934010151
G3 X91.73350253807106 Y45.27918781725888 I-48.70558375634518 J-91.08121827411168
G2 X90.11928934010152 Y46.12182741116751 I64.3248730964467 J125.46700507614213
G2 X89.1522842639594 Y46.649746192893396 I19.428934010152282 J36.723350253807105
G2 X88.00761421319797 Y47.32233502538071 I17.33502538071066 J30.763959390862944
G1 X88.8484771573604 Y49.15482233502538 F400
G2 X86.43654822335024 Y50.15989847715736 I3.9365482233502536 J12.83248730964467 F400
G2 X82.25380710659898 Y53.96446700507614 I5.50253807106599 J10.253807106598984
G2 X80.43654822335026 Y58.5736040609137 I9.802030456852792 J6.525380710659898
G2 X80.26903553299492 Y60.61421319796955 I12.368020304568528 J2.0406091370558377
G2 X80.56598984771574 Y63.32233502538071 I12.532994923857867 J0
G2 X82.34517766497461 Y67.5507614213198 I12.459390862944161 J-2.7588832487309647
G2 X83.48730964467006 Y69.03553299492386 I10.33756345177665 J-6.761421319796954
G3 X82.74365482233503 Y69.38071065989848 I-11.360406091370558 J-23.32994923857868
G3 X81.78426395939086 Y69.74365482233503 I-3.4923857868020303 J-7.784263959390863
G2 X79.38324873096447 Y70.6015228426396 I9.142131979695431 J29.426395939086298
G2 X76.21827411167513 Y71.94670050761421 I36.213197969543145 J89.63197969543147
G2 X73.96700507614213 Y72.78172588832487 I7.15482233502538 J22.751269035532996
G2 X71.34771573604061 Y74.23604060913705 I5.8248730964467015 J13.571065989847714
G2 X68.80710659898477 Y76.58375634517766 I7.220812182741117 J10.357868020304569
G2 X66.92893401015229 Y79.89593908629442 I8.631979695431472 J7.083756345177665
G2 X66.28934010152284 Y82.98223350253807 I10.634517766497462 J3.817258883248731
G2 X66.25888324873097 Y83.85786802030458 I13.51776649746193 J0.8756345177664975
G2 X66.3984771573604 Y85.79695431472081 I13.545685279187818 J0
G2 X66.67258883248732 Y87.21065989847716 I15.3502538071066 J-2.220812182741117
G2 X67.13197969543147 Y88.96192893401015 I42.59644670050761 J-10.263959390862944
G3 X67.40355329949239 Y89.95939086294416 I-40.02030456852792 J11.413705583756347
G3 X67.45685279187818 Y90.19289340101523 I-4.852791878172589 J1.2538071065989849
G3 X67.497461928934 Y90.43654822335026 I-2.936548223350254 J0.6116751269035533
G3 X67.502538071066 Y90.47208121827411 I-2.9771573604060912 J0.3680203045685279
G3 X67.497461928934 Y90.39593908629442 I0.6725888324873096 J-0.07614213197969544
G1 X67.497461928934 Y90.38832487309645
G2 X67.497461928934 Y90.42131979695432 I8.5 J0.03299492385786802
G1 X67.497461928934 Y90.4238578680203
G1 X67.497461928934 Y90.4238578680203
G1 X67.497461928934 Y90.43654822335026
G2 X67.5 Y90.61928934010153 I8.5 J-0.012690355329949238
G2 X67.54060913705584 Y91.64467005076142 I30.3756345177665 J-0.6979695431472082
G2 X67.64720812182742 Y93.27918781725887 I97.94416243654823 J-5.563451776649746
G3 X67.75380710659898 Y95.37055837563452 I-45.11675126903553 J3.3197969543147208
G3 X67.75380710659898 Y95.48984771573603 I-4.393401015228426 J0.11928934010152284
G3 X67.748730964467 Y95.71573604060914 I-4.395939086294416 J0
G3 X66.25888324873097 Y97.53807106598984 I-199.64720812182742 J-161.6954314720812
G3 X65.23857868020305 Y98.74111675126903 I-46.32233502538071 J-38.223350253807105
G3 X63.5 Y100.63451776649745 I-36.45177664974619 J-31.725888324873097
G3 X62.203045685279186 Y101.88578680203045 I-19.15482233502538 J-18.550761421319798
G3 X60.62690355329949 Y103.17258883248732 I-13.934010152284264 J-15.449238578680202
G3 X59.38578680203045 Y103.98477157360405 I-7.700507614213198 J-10.431472081218274
G3 X58.00253807106599 Y104.65228426395939 I-5.289340101522843 J-9.205583756345177
G3 X56.77918781725889 Y105.02791878172589 I-3.048223350253807 J-7.7030456852791875
G2 X54.68527918781726 Y105.80203045685279 I1.8730964467005076 J8.291878172588833
G3 X49.142131979695435 Y108.51015228426397 I-46.42893401015228 J-87.97969543147207
G3 X42.49746192893401 Y111.29187817258882 I-54.609137055837564 J-121.12944162436548
G3 X36.76903553299492 Y113.38324873096447 I-56.55329949238578 J-146.09390862944161
G3 X31.395939086294415 Y115.15736040609139 I-79.29187817258884 J-231.18527918781726
G2 X31.60406091370558 Y115.06598984771573 I-14.352791878172589 J-33.878172588832484
G2 X35.921319796954315 Y112.88324873096445 I-15.637055837563452 J-36.28426395939086
G2 X39.8502538071066 Y110.30456852791879 I-23.005076142131983 J-39.31218274111675
G2 X43.95939086294416 Y107.26649746192894 I-17.053299492385786 J-27.36548223350254
G2 X47.59644670050761 Y103.43401015228426 I-18.19796954314721 J-20.923857868020303
G2 X50.69543147208122 Y98.35279187817258 I-20.17258883248731 J-15.786802030456853
G2 X52.464467005076145 Y92.78426395939086 I-21.52791878172589 J-9.903553299492385
G2 X52.53299492385786 Y92.36040609137056 I-8.355329949238579 J-1.5558375634517765
G2 X52.88578680203046 Y88.6015228426396 I-46.515228426395936 J-6.248730964467005
G2 X52.931472081218274 Y86.85025380710661 I-32.96700507614213 J-1.751269035532995
G2 X52.89340101522843 Y85.2741116751269 I-33.015228426395936 J0
G2 X52.71827411167513 Y83.12436548223351 I-31.916243654822335 J1.5253807106598984
G2 X52.25126903553299 Y79.60659898477158 I-107.81472081218274 J12.48730964467005
G3 X51.93401015228426 Y77.39593908629442 I227.54060913705584 J-33.921319796954315
G3 X51.763959390862944 Y76.10659898477158 I81.95939086294416 J-11.406091370558375
G2 X49.74111675126903 Y71.56852791878173 I-8.436548223350254 J1.0380710659898478
G1 X48.751269035533 Y70.42893401015229
G2 X43.26903553299492 Y67.55837563451776 I-6.413705583756345 J5.5786802030456855
G3 X41.88071065989848 Y67.36548223350253 I2.769035532994924 J-25.08375634517766
G3 X40.24111675126903 Y67.0507614213198 I5.517766497461929 J-33.04060913705584
G3 X39.253807106598984 Y66.81979695431473 I8.032994923857867 J-36.73857868020305
G3 X37.12690355329949 Y66.2766497461929 I36.33756345177665 J-147.03045685279187
G2 X35.02030456852792 Y65.73857868020305 I-41.97969543147208 J159.87309644670052
G2 X33.82233502538071 Y65.45939086294416 I-10.926395939086294 J43.95685279187817
G2 X31.748730964467008 Y65.06091370558376 I-8.332487309644671 J37.88324873096447
G2 X29.86040609137056 Y64.81725888324873 I-4.571065989847716 J27.951776649746193
G2 X25.00761421319797 Y64.8248730964467 I-2.3934010152284264 J25.159898477157363
G2 X21.1497461928934 Y65.49492385786803 I2.5507614213197973 J26.073604060913706
G2 X20.314720812182742 Y65.60406091370558 I1.6700507614213198 J15.964467005076141
G2 X18.248730964467008 Y66.0253807106599 I3.7436548223350252 J23.692893401015226
G2 X17.609137055837564 Y66.19289340101523 I7.050761421319796 J28.248730964467008
G3 X18.238578680203045 Y62.34010152284264 I36.66751269035533 J4.00507614213198
G3 X19.093908629441625 Y59.329949238578685 I24.35786802030457 J5.312182741116751
G2 X19.578680203045685 Y56.77918781725889 I-8.01269035532995 J-2.8375634517766497
G3 X19.893401015228427 Y56.11167512690355 I2.9187817258883246 J0.9796954314720813
G3 X20.190355329949238 Y55.680203045685275 I5.956852791878172 J3.7664974619289335
G3 X20.80203045685279 Y54.901015228426395 I13.746192893401014 J10.192893401015228
G3 X21.225888324873097 Y54.40862944162436 I17.591370558375633 J14.695431472081218
G3 X22.34771573604061 Y53.159898477157356 I89.61928934010153 J79.27918781725889
G2 X23.586294416243657 Y51.77918781725889 I-102.98984771573603 J-93.71573604060913
G2 X24.296954314720814 Y50.95431472081218 I-29.98984771573604 J-26.565989847715734
G2 X25.238578680203045 Y49.77918781725889 I-26.078680203045685 J-21.868020304568528
G2 X26.685279187817258 Y48.69796954314721 I-15.583756345177664 J-22.345177664974617
G2 X27.609137055837564 Y47.931472081218274 I-21.01015228426396 J-26.23350253807107
G2 X29.152284263959388 Y46.578680203045685 I-79.91116751269035 J-92.7766497461929
G3 X29.880710659898476 Y45.93654822335026 I64.49492385786802 J72.38578680203045
G2 X30.439086294416242 Y46.43908629441625 I37.65736040609137 J-41.340101522842644
G2 X33.7741116751269 Y49.58629441624366 I7.284263959390863 J-4.380710659898478
G3 X35.035532994923855 Y50.317258883248726 I-7.939086294416243 J15.147208121827411
G3 X36.776649746192895 Y51.515228426395936 I-16.477157360406093 J25.814720812182742
G3 X37.83248730964467 Y52.324873096446694 I-22.908629441624363 J30.95431472081218
G3 X40.24873096446701 Y54.27918781725889 I-112.36294416243655 J141.35532994923858
G2 X42.119289340101524 Y55.807106598984774 I173.251269035533 J-210.41370558375635
G2 X42.57360406091371 Y56.17005076142132 I46.890862944162436 J-57.98984771573604
G2 X44.63451776649747 Y57.880710659898476 I9.213197969543147 J-9.00253807106599
G2 X48.01015228426395 Y59.527918781725894 I7.751269035532995 J-11.611675126903553
G2 X49.9746192893401 Y60.035532994923855 I4.804568527918781 J-14.560913705583756
G2 X52.36802030456853 Y60.40609137055838 I7.055837563451776 J-37.423857868020306
G3 X52.98730964467005 Y60.48730964467005 I-6.134517766497462 J49.73096446700508
G2 X55.827411167512686 Y60.98984771573604 I4.187817258883248 J-15.418781725888325
G2 X59.565989847715734 Y60.84263959390863 I1.2791878172588833 J-15.106598984771573
G2 X62.64720812182741 Y60.00507614213198 I-2.5431472081218276 J-15.461928934010151
G2 X65.51776649746193 Y58.60659898477158 I-6.662436548223351 J-17.32233502538071
G2 X67.51015228426395 Y57.253807106598984 I-10.860406091370558 J-18.14213197969543
G2 X69.53553299492386 Y55.56345177664974 I-18.6751269035533 J-24.39593908629442
G2 X70.61421319796955 Y54.538071065989854 I-24.383248730964468 J-26.743654822335024
G2 X72.32994923857868 Y52.80203045685279 I-83.04060913705584 J-83.88071065989848
G3 X73.2766497461929 Y51.83502538071066 I104.93401015228427 J101.70050761421321
G2 X77.46192893401015 Y47.73096446700507 I-14.857868020304569 J-19.34263959390863
G2 X80.60152284263958 Y42.200507614213194 I-15.710659898477157 J-12.573604060913706
G2 X81.81725888324874 Y35.52284263959391 I-18.007614213197968 J-6.725888324873096
G2 X81.81725888324874 Y35.46954314720812 I-20.994923857868024 J-0.053299492385786795
G2 X81.18527918781726 Y30.360406091370557 I-20.99746192893401 J0
G2 X80.61167512690355 Y26.413705583756343 I-16.563451776649746 J0.3959390862944162
G2 X78.21827411167513 Y21.071065989847714 I-18.190355329949238 J4.939086294416244
G2 X76.9771573604061 Y19.34517766497462 I-19.15482233502538 J12.469543147208121
G2 X75.52791878172589 Y17.63705583756345 I-25.921319796954315 J20.538071065989847
G2 X75.76649746192894 Y17.629441624365484 I-0.17512690355329952 J-8.49746192893401
G3 X76.78680203045685 Y18.62944162436548 I-50.83756345177665 J52.888324873096444
G3 X81.7741116751269 Y24.02791878172589 I-64.81472081218274 J64.8502538071066
G3 X85.91624365482234 Y29.220812182741117 I-78.82233502538071 J67.13705583756345
G3 X90.0761421319797 Y35.11675126903553 I-107.82994923857869 J80.51015228426395
G2 X90.62182741116752 Y36.09137055837564 I26.131979695431472 J-13.97969543147208
G2 X91.58883248730965 Y37.66751269035533 I36.77918781725889 J-21.49238578680203
G2 X92.17766497461929 Y38.56091370558376 I42.00761421319797 J-27.058375634517766
G2 X93.23857868020305 Y40.111675126903556 I146.2030456852792 J-98.6725888324873
G3 X94.37055837563452 Y41.77918781725889 I-107.14974619289339 J73.98984771573603
G3 X94.7994923857868 Y42.444162436548226 I-20.964467005076145 J14.002538071065992
G3 X95.40862944162436 Y43.494923857868024 I-16.060913705583758 J10.01269035532995
G3 X95.70304568527918 Y44.10406091370558 I-7.238578680203046 J3.8908629441624365
G3 X96 Y45.1243654822335 I-3.8045685279187818 J1.6573604060913705
G3 X95.69289340101523 Y45.35532994923858 I-2.860406091370558 J-3.5126903553299496
G3 X94.8502538071066 Y45.88578680203046 I-7.7335025380710665 J-11.327411167512691
G3 X94.26142131979695 Y46.213197969543145 I-9.604060913705583 J-16.538071065989847
G3 X92.64720812182742 Y47.06091370558376 I-49.64720812182741 J-92.84517766497461
G2 X91.05329949238579 Y47.888324873096444 I63.411167512690355 J123.68781725888326
G2 X90.13451776649747 Y48.390862944162436 I18.49492385786802 J34.95431472081218
G2 X88.84771573604061 Y49.15482233502538 I16.35279187817259 J29.02030456852792
G0 Z3
G0 X23.363705583756346 Y117.50710659898478
G1 Z-0.2 F50
G2 X22.515228426395943 Y117.83502538071065 I44.56091370558376 J116.81979695431473 F400
G2 X22.350253807106597 Y117.7284263959391 I-4.870558375634518 J7.456852791878172
G1 X22.337563451776653 Y117.72081218274111
G3 X22.560913705583758 Y117.62944162436548 I3.6218274111675126 J8.52030456852792
G2 X23.36294416243655 Y117.50761421319797 I-4.535532994923858 J-32.68020304568528
G0 Z3
G0 X22.06548223350254 Y115.67741116751269
G1 Z-0.2 F50
G2 X26.053299492385786 Y114.88324873096447 I-4.038071065989848 J-30.730964467005077 F400
G2 X30.81218274111675 Y113.23096446700507 I-9.01015228426396 J-33.60659898477157
G2 X34.911167512690355 Y111.15736040609137 I-14.84517766497462 J-34.4492385786802
G2 X38.72842639593909 Y108.6472081218274 I-21.994923857868017 J-37.58629441624365
G2 X42.64467005076142 Y105.75888324873097 I-15.931472081218274 J-25.708121827411166
G2 X46.02284263959391 Y102.20304568527919 I-16.885786802030456 J-19.413705583756343
G2 X48.87817258883249 Y97.51776649746192 I-18.598984771573605 J-14.553299492385786
G2 X50.49746192893401 Y92.41878172588832 I-19.710659898477157 J-9.068527918781726
G2 X50.5507614213198 Y92.09644670050761 I-6.3908629441624365 J-1.1903553299492384
G2 X50.88832487309645 Y88.49492385786802 I-44.53299492385787 J-5.9822335025380715
G2 X50.931472081218274 Y86.85025380710661 I-30.96954314720812 J-1.6446700507614211
G2 X50.89593908629442 Y85.36802030456853 I-31.015228426395936 J0
G2 X50.73096446700507 Y83.35279187817258 I-29.918781725888323 J1.4314720812182742
G2 X50.2741116751269 Y79.90101522842639 I-105.82741116751268 J12.256345177664976
G3 X49.95177664974619 Y77.6725888324873 I229.52030456852793 J-34.21573604060914
G3 X49.77918781725889 Y76.3527918781726 I83.94162436548223 J-11.68274111675127
G2 X48.233502538071065 Y72.88071065989848 I-6.451776649746193 J0.7944162436548223
G1 X47.24111675126903 Y71.74111675126903
G2 X43.0507614213198 Y69.54568527918782 I-4.903553299492386 J4.266497461928934
G3 X41.55076142131979 Y69.33756345177665 I2.987309644670051 J-27.071065989847718
G3 X39.81472081218274 Y69.00253807106598 I5.84771573604061 J-35.01269035532995
G3 X38.7741116751269 Y68.76142131979695 I8.461928934010153 J-38.69035532994924
G3 X36.619289340101524 Y68.21065989847716 I36.817258883248726 J-148.97208121827413
G2 X34.53807106598985 Y67.68020304568527 I-41.47208121827411 J157.93908629441626
G2 X33.39340101522843 Y67.41116751269035 I-10.444162436548224 J42.01522842639594
G2 X31.426395939086294 Y67.03553299492386 I-7.901015228426395 J35.931472081218274
G2 X29.670050761421322 Y66.80964467005076 I-4.248730964467005 J25.97969543147208
G2 X25.20304568527919 Y66.81472081218274 I-2.2030456852791875 J23.16751269035533
G2 X21.497461928934012 Y67.46954314720811 I2.3553299492385786 J24.08375634517767
G2 X20.626903553299492 Y67.58121827411168 I1.3223350253807107 J13.987309644670052
G2 X18.733502538071065 Y67.96700507614213 I3.431472081218274 J21.715736040609137
G2 X17.690355329949238 Y68.248730964467 I6.565989847715736 J26.307106598984774
G2 X15.908629441624365 Y68.78680203045685 I27.78680203045685 J95.02791878172589
G3 X15.393401015228427 Y68.94670050761421 I-26.139593908629443 J-83.53045685279187
G3 X15.614213197969544 Y66.04568527918782 I47.126903553299485 J2.1345177664974617
G3 X16.284263959390863 Y61.91370558375635 I38.66243654822335 J4.152284263959391
G3 X17.210659898477157 Y58.66243654822335 I26.31218274111675 J5.738578680203046
G2 X17.578680203045685 Y56.700507614213194 I-6.126903553299492 J-2.17005076142132
G3 X17.6751269035533 Y56.16243654822335 I1.9035532994923856 J0.06091370558375635
G3 X18.20304568527919 Y55.04314720812182 I4.822335025380711 J1.5939086294416245
G3 X18.583756345177665 Y54.48730964467005 I7.647208121827411 J4.835025380710659
G3 X19.269035532994923 Y53.619289340101524 I15.352791878172589 J11.383248730964468
G3 X19.72842639593909 Y53.08375634517766 I19.126903553299492 J15.97715736040609
G3 X20.868020304568525 Y51.81472081218274 I91.11675126903552 J80.60406091370558
G2 X22.091370558375637 Y50.45177664974619 I-101.51015228426395 J-92.36802030456852
G2 X22.763959390862944 Y49.67005076142132 I-28.492385786802032 J-25.241116751269036
G2 X23.840101522842637 Y48.31472081218274 I-24.545685279187815 J-20.583756345177665
G2 X25.434010152284262 Y47.13705583756345 I-14.185279187817258 J-20.880710659898476
G2 X26.302030456852794 Y46.41624365482233 I-19.761421319796955 J-24.672588832487307
G2 X27.82233502538071 Y45.08629441624365 I-78.60659898477158 J-91.26142131979697
G3 X29.35786802030457 Y43.746192893401016 I65.82487309644671 J73.88071065989847
G3 X29.956852791878173 Y43.253807106598984 I11.860406091370558 J13.875634517766498
G3 X29.98984771573604 Y43.23096446700507 I7.700507614213198 J9.8248730964467
G2 X30.01015228426396 Y43.253807106598984 I10.936548223350254 J-9.97969543147208
G2 X31.109137055837564 Y44.3502538071066 I13.134517766497462 J-12.035532994923859
G2 X32.00761421319797 Y45.15736040609137 I36.431472081218274 J-39.753807106598984
G2 X34.703045685279186 Y47.81472081218274 I5.713197969543147 J-3.098984771573604
G3 X36.111675126903556 Y48.631979695431475 I-8.868020304568528 J16.918781725888326
G3 X37.96700507614213 Y49.90609137055838 I-17.553299492385786 J27.5
G3 X39.076142131979694 Y50.75888324873097 I-24.098984771573605 J32.56345177664975
G3 X41.52030456852792 Y52.736040609137056 I-113.60913705583756 J142.92131979695432
G2 X43.378172588832484 Y54.25126903553299 I171.9796954314721 J-208.87055837563452
G2 X43.91878172588832 Y54.68527918781726 I45.63451776649746 J-56.434010152284266
G2 X45.746192893401016 Y56.21827411167513 I7.868020304568528 J-7.5177664974619285
G2 X48.63705583756345 Y57.62944162436548 I6.6395939086294415 J-9.949238578680204
G2 X50.34517766497462 Y58.068527918781726 I4.177664974619289 J-12.66243654822335
G2 X52.61421319796955 Y58.421319796954315 I6.685279187817259 J-35.45939086294416
G3 X53.390862944162436 Y58.525380710659896 I-6.378172588832487 J51.71573604060914
G2 X55.994923857868024 Y58.997461928934015 I3.7817258883248734 J-13.454314720812183
G2 X59.24111675126903 Y58.868020304568525 I1.1091370558375635 J-13.111675126903553
G2 X61.92893401015229 Y58.13959390862944 I-2.218274111675127 J-13.48984771573604
G2 X64.49238578680203 Y56.890862944162436 I-5.944162436548224 J-15.456852791878173
G2 X66.29441624365482 Y55.66751269035534 I-9.83248730964467 J-16.426395939086294
G2 X68.18781725888326 Y54.08375634517767 I-17.45939086294416 J-22.80964467005076
G2 X69.20812182741118 Y53.11675126903553 I-23.03553299492386 J-25.266497461928935
G2 X70.89340101522842 Y51.411167512690355 I-81.63451776649745 J-82.45939086294416
G3 X71.85786802030456 Y50.42639593908629 I106.37055837563452 J103.09390862944163
G3 X71.95431472081219 Y50.32994923857868 I19.85279187817259 J19.604060913705585
G2 X75.90101522842639 Y46.48223350253807 I-13.535532994923859 J-17.83756345177665
G2 X78.7284263959391 Y41.5 I-14.149746192893403 J-11.32233502538071
G2 X79.81725888324873 Y35.517766497461935 I-16.131979695431472 J-6.027918781725888
G2 X79.81725888324873 Y35.46954314720812 I-18.99492385786802 J-0.04822335025380711
G2 X79.19035532994924 Y30.62944162436548 I-18.99746192893401 J0
G2 X78.68274111675126 Y26.936548223350254 I-14.568527918781726 J0.12690355329949238
G2 X76.54314720812182 Y22.16243654822335 I-16.258883248730964 J4.416243654822335
G2 X75.40862944162437 Y20.586294416243653 I-17.47969543147208 J11.378172588832488
G2 X73.97715736040608 Y18.906091370558375 I-24.35279187817259 J19.29695431472081
G2 X73.1015228426396 Y17.982233502538072 I-27.406091370558375 J25.08375634517766
G2 X71.51269035532995 Y16.38578680203046 I-95.80203045685279 J93.91370558375634
G3 X71.43908629441624 Y16.314720812182742 I78.30203045685279 J-79.37817258883248
G2 X71.88578680203045 Y14.637055837563452 I-6.00253807106599 J-2.49492385786802
G2 X76.4746192893401 Y15.540609137055839 I3.4670050761421316 J-5.49746192893401
G3 X78.2005076142132 Y17.21319796954315 I-51.54314720812182 J54.9746192893401
G3 X83.29695431472081 Y22.730964467005073 I-66.2284263959391 J66.26649746192894
G3 X87.52030456852792 Y28.025380710659896 I-80.34517766497461 J68.43401015228426
G3 X91.79695431472082 Y34.09137055837563 I-109.43401015228426 J81.70558375634516
G2 X92.34771573604061 Y35.08121827411168 I24.413705583756347 J-12.951776649746193
G2 X93.27157360406092 Y36.58375634517767 I35.05329949238578 J-20.48477157360406
G2 X93.83756345177665 Y37.441624365482234 I40.324873096446694 J-25.977157360406093
G2 X94.88324873096447 Y38.9746192893401 I144.54568527918784 J-97.55583756345177
G3 X96.03299492385787 Y40.66751269035534 I-108.79441624365482 J75.1243654822335
G3 X96.49746192893402 Y41.38578680203046 I-22.626903553299492 J15.114213197969544
G3 X97.17005076142131 Y42.54822335025381 I-17.758883248730967 J11.071065989847714
G3 X97.53807106598984 Y43.304568527918775 I-9 J4.837563451776649
G3 X97.98477157360406 Y44.86548223350254 I-5.637055837563452 J2.456852791878173
G3 X98.02284263959392 Y45.40355329949239 I-3.6472081218274113 J0.5355329949238579
G3 X98.00507614213197 Y45.75888324873097 I-3.6878172588832485 J0
G3 X97.91878172588832 Y45.93908629441624 I-0.8223350253807106 J-0.2766497461928934
G3 X97.31725888324873 Y46.631979695431475 I-2.451776649746193 J-1.5279187817258881
G3 X96.81979695431473 Y47.005076142131976 I-4.177664974619289 J-5.0177664974619285
G3 X95.85279187817258 Y47.61675126903553 I-8.860406091370558 J-12.97969543147208
G3 X95.20558375634519 Y47.97715736040609 I-10.609137055837563 J-18.266497461928935
G3 X93.55837563451777 Y48.840101522842644 I-50.59137055837564 J-94.60913705583756
G2 X91.98984771573605 Y49.65736040609137 I62.5 J121.90862944162436
G2 X91.11675126903552 Y50.13451776649746 I17.558375634517766 J33.18781725888325
G2 X89.68020304568527 Y50.994923857868024 I15.370558375634518 J27.279187817258883
G2 X87.38071065989848 Y51.923857868020306 I3.1040609137055837 J10.99238578680203
G2 X83.91878172588832 Y55.07360406091371 I4.558375634517767 J8.48984771573604
G2 X82.41116751269035 Y58.898477157360404 I8.137055837563452 J5.4187817258883255
G2 X82.26903553299492 Y60.61421319796955 I10.393401015228427 J1.715736040609137
G2 X82.51776649746192 Y62.890862944162436 I10.532994923857867 J0
G2 X84.02030456852792 Y66.45431472081218 I10.507614213197968 J-2.3248730964467006
G2 X86.54314720812182 Y69.1243654822335 I8.66497461928934 J-5.664974619289341
G3 X86.22081218274111 Y69.54314720812182 I-7.969543147208121 J-5.83248730964467
G3 X85.66243654822335 Y70.15736040609137 I-6.228426395939087 J-5.091370558375634
G3 X83.56345177664976 Y71.20558375634518 I-13.535532994923859 J-24.45177664974619
G3 X82.37817258883248 Y71.65482233502539 I-4.309644670050761 J-9.609137055837563
G2 X80.13451776649747 Y72.45431472081219 I8.548223350253807 J27.517766497461928
G2 X76.92639593908629 Y73.81979695431471 I35.464467005076145 J87.7766497461929
G2 X74.75634517766497 Y74.61928934010152 I6.446700507614214 J20.878172588832488
G2 X72.48984771573605 Y75.8756345177665 I5.035532994923858 J11.733502538071065
G2 X70.35279187817258 Y77.85279187817258 I6.076142131979695 J8.718274111675127
G2 X68.81218274111676 Y80.57106598984772 I7.083756345177665 J5.814720812182741
G2 X68.28426395939087 Y83.11167512690355 I8.753807106598986 J3.1421319796954315
G2 X68.25888324873097 Y83.85786802030458 I11.52284263959391 J0.7461928934010152
G2 X68.37817258883248 Y85.51015228426395 I11.545685279187817 J0
G2 X68.61675126903553 Y86.74111675126903 I13.373096446700508 J-1.934010152284264
G2 X69.05583756345177 Y88.41370558375635 I40.652284263959395 J-9.796954314720812
G3 X69.34010152284264 Y89.45939086294416 I-41.94416243654822 J11.961928934010153
G3 X69.41624365482234 Y89.78426395939087 I-6.789340101522843 J1.7538071065989846
G3 X69.48984771573605 Y90.251269035533 I-4.895939086294416 J1.017766497461929
G3 X69.49746192893402 Y90.39593908629442 I-1.3147208121827412 J0.14720812182741116
G2 X69.49746192893402 Y90.42131979695432 I6.5 J0.025380710659898477
G1 X69.49746192893402 Y90.4238578680203
G1 X69.49746192893402 Y90.4238578680203
G2 X69.5 Y90.57360406091371 I6.5 J0
G2 X69.53807106598985 Y91.53299492385786 I28.375634517766496 J-0.6522842639593909
G2 X69.64213197969544 Y93.13451776649745 I95.94670050761421 J-5.449238578680204
G3 X69.751269035533 Y95.31472081218274 I-47.111675126903556 J3.4670050761421316
G3 X69.75380710659898 Y95.48984771573603 I-6.3934010152284255 J0.17258883248730966
G3 X69.74111675126903 Y95.91878172588834 I-6.395939086294416 J0
G3 X69.64720812182742 Y96.5482233502538 I-3.974619289340102 J-0.26649746192893403
G3 X67.80203045685279 Y98.80964467005077 I-201.5456852791878 J-162.53045685279187
G3 X66.74619289340102 Y100.05583756345177 I-47.86294416243655 J-39.49746192893401
G3 X64.93654822335026 Y102.02538071065989 I-37.95939086294416 J-33.03807106598985
G3 X63.54314720812183 Y103.37055837563452 I-20.591370558375633 J-19.941624365482234
G3 X61.81472081218274 Y104.78172588832487 I-15.271573604060913 J-16.936548223350254
G3 X60.38324873096447 Y105.71827411167513 I-8.888324873096447 J-12.040609137055839
G3 X58.73857868020305 Y106.51015228426395 I-6.286802030456853 J-10.939086294416242
G3 X57.22081218274112 Y106.97969543147208 I-3.7817258883248734 J-9.560913705583756
G2 X55.61928934010152 Y107.57106598984771 I1.4314720812182742 J6.340101522842639
G3 X49.964467005076145 Y110.33502538071065 I-47.36294416243655 J-89.746192893401
G3 X43.21827411167512 Y113.15736040609137 I-55.431472081218274 J-122.9517766497462
G3 X37.41878172588832 Y115.2741116751269 I-57.2741116751269 J-147.95939086294416
G3 X30.619289340101524 Y117.497461928934 I-79.94162436548224 J-233.07614213197968
G2 X29.19796954314721 Y117.748730964467 I2.3197969543147208 J17.124365482233504
G2 X26.78172588832487 Y118.40355329949239 I5.895939086294416 J26.596446700507613
G2 X25.434010152284262 Y118.86802030456852 I10.215736040609137 J31.883248730964468
G2 X23.081218274111674 Y119.76142131979697 I42.48984771573604 J115.46192893401015
G3 X22.203045685279186 Y120.1015228426396 I-53.98984771573603 J-137.93908629441626
G2 X21.294416243654823 Y119.42639593908629 I-4.558375634517767 J5.190355329949239
G2 X19.700507614213198 Y118.67766497461929 I-4 J6.428934010152284
G2 X19.385786802030456 Y117.90609137055837 I-6.276649746192894 J2.114213197969543
G2 X19.26649746192893 Y117.67005076142132 I-6.225888324873097 J3.0101522842639596
G2 X19.289340101522843 Y117.64467005076142 I-36.723350253807105 J-36.01269035532995
G3 X20.48730964467005 Y116.49746192893402 I18.46446700507614 J18.081218274111674
G3 X20.708121827411166 Y116.32233502538071 I1.5253807106598984 J1.6979695431472082
G3 X21.215736040609137 Y116.03045685279187 I1.9314720812182742 J2.7741116751269033
G3 X22.065989847715738 Y115.67766497461929 I4.743654822335025 J10.210659898477157
G1 X21.595939086294415 Y113.72131979695432 F400
G2 X25.53553299492386 Y112.9517766497462 I-3.568527918781726 J-28.774111675126903 F400
G2 X30.022842639593907 Y111.39340101522842 I-8.49238578680203 J-31.675126903553302
G2 X33.901015228426395 Y109.43147208121827 I-14.055837563451776 J-32.611675126903556
G2 X37.609137055837564 Y106.98730964467005 I-20.98477157360406 J-35.857868020304565
G2 X41.33248730964467 Y104.24873096446701 I-14.809644670050762 J-24.048223350253807
G2 X44.44670050761421 Y100.96954314720811 I-15.573604060913706 J-17.906091370558375
G2 X47.06091370558376 Y96.68274111675126 I-17.02284263959391 J-13.322335025380712
G2 X48.53299492385787 Y92.05329949238578 I-17.893401015228427 J-8.230964467005077
G2 X48.568527918781726 Y91.82994923857868 I-4.4238578680203045 J-0.8223350253807106
G2 X48.89086294416244 Y88.38832487309645 I-42.5507614213198 J-5.715736040609137
G2 X48.931472081218274 Y86.85025380710661 I-28.9746192893401 J-1.5380710659898478
G2 X48.898477157360404 Y85.46446700507614 I-29.01522842639594 J0
G2 X48.74365482233503 Y83.58375634517768 I-27.921319796954315 J1.3350253807106598
G2 X48.29441624365482 Y80.19543147208122 I-103.84010152284263 J12.025380710659899
G3 X47.972081218274106 Y77.94670050761422 I231.497461928934 J-34.51015228426396
G3 X47.79441624365482 Y76.59644670050761 I85.92131979695431 J-11.956852791878172
G2 X46.723350253807105 Y74.19289340101523 I-4.467005076142132 J0.5507614213197969
G1 X45.73096446700507 Y73.05329949238579
G2 X42.82994923857868 Y71.53299492385787 I-3.3959390862944163 J2.9517766497461926
G3 X41.22081218274111 Y71.30964467005076 I3.2081218274111674 J-29.060913705583754
G3 X39.38832487309645 Y70.95685279187818 I6.177664974619289 J-36.984771573604064
G3 X38.29441624365482 Y70.70304568527919 I8.888324873096447 J-40.64467005076142
G3 X36.109137055837564 Y70.14720812182742 I37.296954314720814 J-150.91370558375635
G2 X34.055837563451774 Y69.62182741116752 I-40.96446700507614 J156.002538071066
G2 X32.964467005076145 Y69.36548223350255 I-9.961928934010153 J40.07360406091371
G2 X31.104060913705585 Y69.01015228426397 I-7.472081218274111 J33.97715736040609
G2 X29.48223350253807 Y68.7994923857868 I-3.9238578680203045 J24.005076142131976
G2 X25.398477157360407 Y68.80456852791879 I-2.012690355329949 J21.17766497461929
G2 X21.84263959390863 Y69.44923857868021 I2.1598984771573604 J22.09390862944162
G2 X20.939086294416246 Y69.55583756345177 I0.9771573604060914 J12.01015228426396
G2 X19.218274111675125 Y69.90609137055839 I3.1192893401015227 J19.741116751269033
G2 X18.251269035532996 Y70.16751269035532 I6.083756345177665 J24.368020304568528
G2 X16.507614213197968 Y70.69543147208121 I27.225888324873097 J93.10913705583756
G3 X14.893401015228427 Y71.18527918781726 I-26.736040609137056 J-85.43908629441624
G3 X14.230964467005077 Y71.36294416243655 I-4.939086294416244 J-16.890862944162436
G3 X13.33248730964467 Y71.55329949238579 I-3.063451776649746 J-12.223350253807105
G3 X13.36548223350254 Y69.61421319796953 I73.67005076142132 J0.25888324873096447
G3 X13.624365482233502 Y65.83248730964468 I49.15482233502538 J1.4670050761421318
G3 X14.329949238578681 Y61.487309644670056 I40.652284263959395 J4.365482233502538
G3 X15.324873096446701 Y57.994923857868024 I28.266497461928935 J6.16243654822335
G2 X15.581218274111674 Y56.63705583756345 I-4.241116751269035 J-1.50253807106599
G3 X15.774111675126903 Y55.535532994923855 I3.903553299492386 J0.12436548223350254
G3 X16.512690355329948 Y53.974619289340104 I6.720812182741117 J2.220812182741117
G3 X16.977157360406093 Y53.296954314720814 I9.33756345177665 J5.903553299492385
G3 X17.733502538071065 Y52.337563451776646 I16.95939086294416 J12.573604060913706
G3 X18.230964467005077 Y51.75888324873096 I20.66243654822335 J17.261421319796955
G3 X19.388324873096447 Y50.46700507614213 I92.61421319796953 J81.92893401015228
G2 X20.593908629441625 Y49.12690355329949 I-100.03045685279189 J-91.0228426395939
G2 X21.230964467005077 Y48.38578680203046 I-26.994923857868017 J-23.913705583756343
G2 X22.27157360406091 Y47.07106598984772 I-23.012690355329948 J-19.29695431472081
G2 X22.441624365482234 Y46.84263959390863 I-15.80203045685279 J-11.814720812182742
G2 X22.700507614213198 Y46.67005076142132 I-7.271573604060913 J-11.279187817258883
G2 X24.182741116751266 Y45.576142131979694 I-13.048223350253807 J-19.236040609137056
G2 X24.99746192893401 Y44.901015228426395 I-18.51015228426396 J-23.111675126903553
G2 X26.49238578680203 Y43.59137055837564 I-77.2994923857868 J-89.746192893401
G3 X28.058375634517766 Y42.2258883248731 I67.15482233502539 J75.37309644670052
G3 X28.723350253807105 Y41.68020304568528 I13.15736040609137 J15.395939086294417
G3 X29.812182741116754 Y40.90609137055837 I8.934010152284264 J11.398477157360407
G3 X30.395939086294415 Y40.58121827411168 I2.7918781725888326 J4.33248730964467
G3 X30.423857868020306 Y40.568527918781726 I1.1598984771573604 J2.4441624365482233
G2 X30.69289340101523 Y40.94923857868021 I6.977157360406091 J-4.66497461928934
G2 X31.484771573604064 Y41.901015228426395 I10.233502538071066 J-7.697969543147209
G2 X32.45939086294416 Y42.87563451776649 I11.659898477157359 J-10.685279187817258
G2 X33.619289340101524 Y43.90862944162436 I35.078680203045685 J-38.27918781725889
G2 X35.631979695431475 Y46.04314720812183 I4.101522842639594 J-1.850253807106599
G3 X37.18781725888325 Y46.94670050761421 I-9.796954314720812 J18.690355329949238
G3 X39.15736040609137 Y48.299492385786806 I-18.62944162436548 J29.185279187817258
G3 X40.319796954314725 Y49.192893401015226 I-25.28680203045685 J34.170050761421315
G3 X42.78934010152284 Y51.19035532994924 I-114.85279187817258 J144.48730964467006
G2 X44.63451776649747 Y52.69543147208122 I170.7081218274112 J-207.3248730964467
G2 X45.2741116751269 Y53.20812182741116 I44.37817258883249 J-54.88071065989848
G2 X46.85532994923858 Y54.555837563451774 I6.5126903553299496 J-6.040609137055838
G2 X49.263959390862944 Y55.72842639593909 I5.530456852791879 J-8.284263959390863
G2 X50.715736040609144 Y56.10406091370558 I3.550761421319797 J-10.763959390862945
G2 X52.85786802030457 Y56.43654822335026 I6.314720812182742 J-33.49238578680203
G3 X53.74365482233503 Y56.55329949238578 I-6.624365482233503 J53.700507614213194
G3 X53.80964467005076 Y56.56345177664974 I-1.3553299492385786 J9.66497461928934
G2 X56.16497461928934 Y57.00253807106599 I3.3654822335025383 J-11.49238578680203
G2 X58.91624365482233 Y56.89593908629441 I0.9416243654822334 J-11.119289340101524
G2 X61.213197969543145 Y56.27157360406091 I-1.8934010152284264 J-11.515228426395938
G2 X63.46446700507614 Y55.175126903553306 I-5.225888324873097 J-13.591370558375635
G2 X65.07868020304569 Y54.078680203045685 I-8.804568527918782 J-14.710659898477157
G2 X66.84010152284264 Y52.60659898477157 I-16.243654822335024 J-21.220812182741117
G2 X67.7994923857868 Y51.695431472081225 I-21.68781725888325 J-23.789340101522846
G2 X69.45685279187816 Y50.02030456852792 I-80.2258883248731 J-81.03807106598985
G3 X70.43401015228427 Y49.02030456852792 I107.80710659898476 J104.48477157360406
G3 X70.63959390862945 Y48.81472081218274 I21.276649746192895 J21.00761421319797
G2 X74.34010152284264 Y45.233502538071065 I-12.220812182741117 J-16.32233502538071
G2 X76.85532994923858 Y40.8020304568528 I-12.588832487309645 J-10.073604060913706
G2 X77.81725888324873 Y35.51269035532995 I-14.258883248730964 J-5.32741116751269
G2 X77.81725888324873 Y35.46954314720812 I-16.99492385786802 J-0.043147208121827416
G2 X77.19035532994924 Y30.89593908629442 I-16.99746192893401 J0
G2 X77.19035532994924 Y30.756345177664976 I-12.568527918781726 J-0.13959390862944163
G2 X76.751269035533 Y27.461928934010153 I-12.568527918781726 J0
G2 X74.86548223350253 Y23.253807106598984 I-14.329949238578681 J3.8908629441624365
G2 X73.84263959390863 Y21.829949238578678 I-15.80203045685279 J10.286802030456851
G2 X72.502538071066 Y20.256345177664976 I-22.78680203045685 J18.055837563451778
G2 X71.67258883248732 Y19.380710659898476 I-25.931472081218274 J23.73350253807107
G2 X70.10659898477157 Y17.809644670050762 I-94.37563451776649 J92.51269035532994
G3 X68.94162436548223 Y16.64213197969543 I79.70558375634518 J-80.80203045685279
G2 X69.93654822335026 Y13.81979695431472 I-3.50507614213198 J-2.8223350253807107
G2 X69.28680203045685 Y11.48984771573604 I-4.5 J0
G2 X70.68527918781726 Y10.974619289340101 I-0.850253807106599 J-4.449238578680203
G1 X70.7005076142132 Y10.98984771573604
G2 X71.15736040609137 Y11.459390862944163 I14.769035532994923 J-13.901015228426397
G2 X72.03553299492386 Y12.269035532994923 I10.761421319796954 J-10.807106598984772
G2 X72.91370558375634 Y12.921319796954315 I5.373096446700507 J-6.314720812182742
G2 X77.01522842639594 Y13.31979695431472 I2.4390862944162435 J-3.7817258883248734
G3 X79.61421319796953 Y15.799492385786802 I-52.08629441624366 J57.19543147208122
G3 X84.81979695431471 Y21.434010152284266 I-67.64213197969542 J67.68020304568527
G3 X89.12182741116752 Y26.827411167512693 I-81.86802030456853 J69.73096446700508
G3 X93.51776649746192 Y33.068527918781726 I-111.03553299492387 J82.9010152284264
G2 X94.07614213197971 Y34.0736040609137 I22.690355329949238 J-11.928934010152282
G2 X94.9517766497462 Y35.5 I33.32741116751269 J-19.4746192893401
G2 X95.49492385786803 Y36.32233502538071 I38.64467005076142 J-24.893401015228424
G2 X96.5279187817259 Y37.84010152284264 I142.88578680203045 J-96.43654822335024
G3 X97.69543147208122 Y39.558375634517766 I-110.44162436548223 J76.26142131979695
G3 X98.19289340101523 Y40.327411167512686 I-24.291878172588834 J16.22335025380711
G3 X98.93147208121829 Y41.60152284263959 I-19.45431472081218 J12.129441624365482
G3 X99.37055837563452 Y42.50507614213198 I-10.761421319796954 J5.784263959390863
G3 X99.96192893401016 Y44.5761421319797 I-7.472081218274111 J3.2563451776649748
G3 X100.0228426395939 Y45.40355329949239 I-5.626903553299493 J0.8274111675126904
G3 X99.9746192893401 Y46.13451776649746 I-5.687817258883249 J0
G3 X99.61675126903555 Y46.99746192893401 I-2.7918781725888326 J-0.6548223350253807
G3 X98.59644670050761 Y48.170050761421315 I-4.149746192893401 J-2.5862944162436547
G3 X97.94923857868021 Y48.65736040609137 I-5.456852791878173 J-6.555837563451776
G3 X96.85786802030456 Y49.345177664974614 I-9.98730964467005 J-14.629441624365482
G3 X96.1472081218274 Y49.74111675126903 I-11.614213197969542 J-19.997461928934012
G3 X94.47208121827413 Y50.61928934010152 I-51.53553299492386 J-96.37309644670052
G2 X92.9238578680203 Y51.423857868020306 I61.58629441624366 J120.12944162436548
G2 X92.0989847715736 Y51.8756345177665 I16.624365482233504 J31.418781725888323
G2 X90.71319796954315 Y52.70812182741117 I14.390862944162437 J25.53553299492386
G2 X90.5 Y52.84517766497462 I10.111675126903554 J15.837563451776651
G2 X88.32741116751268 Y53.68527918781726 I2.284263959390863 J9.142131979695431
G2 X85.58375634517766 Y56.18020304568528 I3.6116751269035534 J6.728426395939087
G2 X84.38324873096447 Y59.2258883248731 I6.472081218274112 J4.309644670050761
G2 X84.26903553299493 Y60.61421319796955 I8.421319796954315 J1.3883248730964468
G2 X84.47208121827413 Y62.45939086294416 I8.532994923857869 J0
G2 X85.69289340101523 Y65.36040609137056 I8.555837563451776 J-1.8934010152284264
G2 X87.88832487309645 Y67.62944162436548 I6.98984771573604 J-4.571065989847716
G2 X89.23096446700507 Y68.38832487309645 I4.619289340101523 J-6.591370558375634
G2 X88.59644670050761 Y69.66243654822335 I3.659898477157361 J2.6192893401015227
G3 X87.76903553299492 Y70.80964467005076 I-10.02284263959391 J-6.368020304568528
G3 X86.84517766497463 Y71.79441624365482 I-7.776649746192893 J-6.3578680203045685
G2 X86.64467005076142 Y71.8984771573604 I1.982233502538071 J4.040609137055838
G3 X84.38071065989847 Y73.03045685279189 I-14.517766497461928 J-26.192893401015226
G3 X82.97208121827411 Y73.56345177664974 I-5.126903553299492 J-11.434010152284264
G2 X80.88324873096447 Y74.30964467005076 I7.956852791878173 J25.606598984771573
G2 X77.62944162436548 Y75.69543147208121 I34.713197969543145 J85.92131979695431
G2 X75.54568527918781 Y76.45685279187818 I5.743654822335026 J19.00253807106599
G2 X73.63451776649745 Y77.51776649746193 I4.246192893401015 J9.893401015228427
G2 X71.8984771573604 Y79.12182741116752 I4.934010152284264 J7.0761421319796955
G2 X70.69289340101523 Y81.24619289340102 I5.538071065989848 J4.5456852791878175
G2 X70.27918781725889 Y83.24111675126903 I6.870558375634518 J2.467005076142132
G2 X70.25888324873097 Y83.85786802030458 I9.525380710659899 J0.616751269035533
G2 X70.35786802030456 Y85.2258883248731 I9.545685279187818 J0
G2 X70.56091370558376 Y86.2741116751269 I11.393401015228426 J-1.6472081218274113
G2 X70.97969543147208 Y87.86548223350253 I38.70812182741117 J-9.32741116751269
G3 X71.2766497461929 Y88.95939086294416 I-43.868020304568525 J12.51015228426396
G3 X71.37309644670052 Y89.37817258883248 I-8.725888324873097 J2.2563451776649748
G3 X71.47715736040608 Y90.03045685279189 I-6.852791878172589 J1.4263959390862944
G3 X71.49746192893402 Y90.39593908629442 I-3.302030456852792 J0.3680203045685279
G1 X71.49746192893402 Y90.40355329949239
G1 X71.49746192893402 Y90.42131979695432
G1 X71.49746192893402 Y90.4238578680203
G2 X71.5 Y90.52791878172587 I4.5 J0
G2 X71.53553299492386 Y91.41878172588832 I26.375634517766496 J-0.6065989847715736
G2 X71.63705583756345 Y92.98730964467005 I93.9517766497462 J-5.33756345177665
G3 X71.751269035533 Y95.26142131979695 I-49.10659898477157 J3.6116751269035534
G3 X71.75380710659898 Y95.48984771573603 I-8.390862944162436 J0.22842639593908629
G3 X71.73604060913705 Y96.05329949238579 I-8.395939086294415 J0
G3 X71.55076142131979 Y97.18274111675127 I-5.969543147208122 J-0.4010152284263959
G3 X71.44416243654823 Y97.50507614213198 I-2.875634517766498 J-0.7614213197969544
G3 X69.34517766497461 Y100.08375634517768 I-203.34517766497464 J-163.48730964467006
G3 X68.25634517766497 Y101.36802030456852 I-49.40609137055837 J-40.76903553299492
G3 X66.37309644670052 Y103.41624365482234 I-39.46954314720812 J-34.35279187817259
G3 X64.88324873096447 Y104.85532994923858 I-22.027918781725887 J-21.332487309644673
G3 X63.00253807106599 Y106.39086294416244 I-16.611675126903553 J-18.421319796954315
G3 X61.37817258883249 Y107.4517766497462 I-10.076142131979696 J-13.649746192893401
G3 X59.47208121827411 Y108.37055837563452 I-7.281725888324873 J-12.67258883248731
G3 X57.65989847715736 Y108.92893401015229 I-4.517766497461929 J-11.421319796954315
G2 X56.55076142131979 Y109.34010152284264 I0.9923857868020304 J4.388324873096447
G3 X50.78426395939086 Y112.15736040609137 I-48.29441624365482 J-91.51522842639594
G3 X43.94162436548223 Y115.0228426395939 I-56.253807106598984 J-124.77664974619289
G3 X38.068527918781726 Y117.16497461928935 I-57.99746192893401 J-149.8248730964467
G3 X31.048223350253807 Y119.45685279187816 I-80.59137055837564 J-234.96700507614213
G2 X29.631979695431472 Y119.70304568527919 I1.8908629441624367 J15.16243654822335
G2 X27.390862944162436 Y120.30710659898476 I5.461928934010151 J24.64467005076142
G2 X26.126903553299492 Y120.74365482233503 I9.606598984771574 J29.97969543147208
G2 X23.80964467005076 Y121.62182741116752 I41.79695431472081 J113.58375634517768
G3 X22.19035532994924 Y122.246192893401 I-54.71827411167513 J-139.7994923857868
G3 X21.644670050761423 Y122.44670050761421 I-11.327411167512691 J-29.956852791878173
G2 X20.236040609137053 Y121.1243654822335 I-4 J2.845177664974619
G2 X18.738578680203048 Y120.47461928934011 I-2.9441624365482233 J4.730964467005076
G2 X18.022842639593907 Y120.32233502538071 I-1.748730964467005 J6.51015228426396
G2 X17.586294416243653 Y118.7766497461929 I-4.598984771573605 J0.46700507614213194
G2 X16.64213197969543 Y117.44670050761421 I-4.4238578680203045 J2.1395939086294415
G2 X17.860406091370557 Y116.24365482233502 I-34.098984771573605 J-35.78934010152284
G3 X19.149746192893403 Y115.01015228426397 I19.893401015228427 J19.482233502538072
G3 X19.563451776649746 Y114.68274111675127 I2.8629441624365484 J3.187817258883249
G3 X20.373096446700508 Y114.21573604060913 I3.0761421319796955 J4.413705583756345
G3 X21.596446700507613 Y113.72081218274111 I5.586294416243654 J12.025380710659899
G1 X21.15 Y111.76040609137056 F400
G2 X25.017766497461928 Y111.0203045685279 I-3.1243654822335025 J-26.81218274111675 F400
G2 X29.23096446700508 Y109.55583756345177 I-7.974619289340101 J-29.743654822335024
G2 X32.89340101522843 Y107.70558375634519 I-13.263959390862945 J-30.77664974619289
G2 X36.48730964467005 Y105.32994923857869 I-19.9746192893401 J-34.131979695431475
G2 X40.02030456852792 Y102.74111675126903 I-13.690355329949238 J-22.388324873096444
G2 X42.873096446700515 Y99.73604060913706 I-14.261421319796954 J-16.395939086294415
G2 X45.246192893401016 Y95.84517766497463 I-15.449238578680202 J-12.088832487309645
G2 X46.565989847715734 Y91.68781725888324 I-16.078680203045685 J-7.395939086294416
G2 X46.58629441624366 Y91.56345177664974 I-2.456852791878173 J-0.45685279187817257
G2 X46.89340101522842 Y88.28172588832487 I-40.568527918781726 J-5.449238578680204
G2 X46.931472081218274 Y86.85025380710661 I-26.97715736040609 J-1.4314720812182742
G2 X46.901015228426395 Y85.56091370558376 I-27.01522842639594 J0
G2 X46.756345177664976 Y83.81472081218274 I-25.923857868020303 J1.2385786802030458
G2 X46.31725888324873 Y80.49238578680203 I-101.85279187817258 J11.79695431472081
G3 X45.98984771573604 Y78.22335025380711 I233.4771573604061 J-34.80710659898477
G3 X45.80964467005076 Y76.84010152284264 I87.90355329949239 J-12.233502538071066
G2 X45.21573604060913 Y75.50507614213198 I-2.482233502538071 J0.30456852791878175
G1 X44.223350253807105 Y74.36548223350255
G2 X42.611675126903556 Y73.52284263959392 I-1.885786802030457 J1.6395939086294418
G3 X40.890862944162436 Y73.28426395939087 I3.4263959390862944 J-31.048223350253807
G3 X38.95939086294416 Y72.91116751269035 I6.50761421319797 J-38.95685279187817
G3 X37.81472081218274 Y72.64467005076142 I9.31472081218274 J-42.598984771573605
G3 X35.601522842639596 Y72.08121827411168 I37.776649746192895 J-152.85532994923858
G2 X33.57360406091371 Y71.56091370558376 I-40.454314720812185 J154.06852791878174
G2 X32.53299492385787 Y71.31979695431471 I-9.47969543147208 J38.131979695431475
G2 X30.78172588832487 Y70.98223350253807 I-7.043147208121827 J32.025380710659896
G2 X29.291878172588834 Y70.79187817258882 I-3.6015228426395938 J22.03045685279188
G2 X25.591370558375633 Y70.79441624365482 I-1.8248730964467006 J19.18781725888325
G2 X22.18020304568528 Y71.42893401015228 I1.967005076142132 J20.104060913705585
G2 X21.251269035532996 Y71.53045685279187 I0.6395939086294417 J10.030456852791879
G2 X19.70304568527919 Y71.84771573604061 I2.8071065989847717 J17.766497461928935
G2 X18.814720812182742 Y72.08629441624366 I5.598984771573604 J22.426395939086294
G2 X17.104060913705585 Y72.60406091370558 I26.66243654822335 J91.18781725888326
G3 X15.454314720812183 Y73.10406091370558 I-27.33502538071066 J-87.3502538071066
G3 X14.718274111675127 Y73.30456852791878 I-5.5 J-18.809644670050762
G3 X13.522842639593907 Y73.55076142131979 I-3.548223350253807 J-14.162436548223349
G3 X12.781725888324873 Y73.62944162436548 I-1.0380710659898478 J-6.352791878172589
G3 X12.00507614213198 Y73.59390862944163 I-0.1979695431472081 J-4.281725888324873
G3 X11.583756345177665 Y73.48730964467005 I0.2614213197969543 J-1.9213197969543148
G3 X11.350253807106599 Y73.3756345177665 I0.5329949238578681 J-1.4111675126903553
G3 X11.33248730964467 Y71.81218274111674 I75.65482233502539 J-1.5609137055837563
G3 X11.368020304568526 Y69.55583756345177 I75.67005076142132 J0
G3 X11.637055837563452 Y65.61928934010152 I51.15228426395939 J1.5279187817258881
G3 X12.375634517766498 Y61.06091370558375 I42.63959390862944 J4.5786802030456855
G3 X13.439086294416242 Y57.32741116751269 I30.220812182741117 J6.588832487309645
G2 X13.581218274111675 Y56.57360406091371 I-2.3578680203045685 J-0.8350253807106599
G3 X13.875634517766498 Y54.90862944162436 I5.903553299492385 J0.18781725888324874
G3 X14.82233502538071 Y52.90609137055838 I8.621827411167512 J2.847715736040609
G3 X15.370558375634518 Y52.10659898477157 I11.027918781725887 J6.972081218274112
G3 X16.19796954314721 Y51.055837563451774 I18.565989847715734 J13.766497461928935
G3 X16.733502538071065 Y50.434010152284266 I22.197969543147206 J18.54314720812183
G3 X17.908629441624367 Y49.121827411167516 I94.11167512690355 J83.25380710659898
G2 X19.096446700507613 Y47.799492385786806 I-98.55076142131979 J-89.67766497461929
G2 X19.700507614213198 Y47.098984771573605 I-25.497461928934012 J-22.588832487309645
G2 X20.670050761421322 Y45.87309644670051 I-21.479695431472084 J-18.01269035532995
G2 X21.04314720812183 Y45.35786802030457 I-14.200507614213198 J-10.616751269035534
G2 X21.578680203045685 Y45.01522842639594 I-5.873096446700508 J-9.794416243654823
G2 X22.934010152284262 Y44.015228426395936 I-11.923857868020304 J-17.581218274111674
G2 X23.692893401015226 Y43.38578680203046 I-17.261421319796955 J-21.550761421319798
G2 X25.162436548223347 Y42.098984771573605 I-75.99492385786802 J-88.23096446700507
G3 X26.758883248730964 Y40.70558375634518 I68.48477157360406 J76.86548223350255
G3 X27.48984771573604 Y40.10659898477157 I14.456852791878172 J16.916243654822335
G3 X28.72842639593909 Y39.223350253807105 I10.167512690355329 J12.972081218274113
G3 X29.538071065989847 Y38.7741116751269 I3.8756345177664975 J6.0126903553299496
G3 X30.454314720812185 Y38.45177664974619 I2.015228426395939 J4.251269035532995
G3 X31.01269035532995 Y38.390862944162436 I0.5177664974619289 J2.1472081218274113
G3 X31.558375634517766 Y38.48223350253807 I-0.03807106598984772 J1.880710659898477
G2 X31.7994923857868 Y38.98730964467005 I4.596446700507614 J-1.8934010152284264
G2 X32.29187817258883 Y39.746192893401016 I5.598984771573604 J-3.086294416243655
G2 X32.95939086294416 Y40.5507614213198 I8.634517766497462 J-6.49492385786802
G2 X33.80964467005076 Y41.4010152284264 I10.18527918781726 J-9.33248730964467
G2 X35.31218274111675 Y42.72335025380711 I33.72842639593909 J-36.80456852791878
G2 X36.56091370558376 Y44.27157360406091 I2.4086294416243654 J-0.6649746192893401
G3 X38.263959390862944 Y45.25888324873097 I-10.725888324873097 J20.461928934010153
G3 X40.34517766497462 Y46.692893401015226 I-19.705583756345177 J30.870558375634516
G3 X41.565989847715734 Y47.6269035532995 I-26.477157360406093 J35.776649746192895
G3 X44.06091370558376 Y49.64720812182741 I-116.09644670050761 J146.05329949238578
G2 X45.89340101522843 Y51.142131979695435 I169.43654822335023 J-205.78172588832487
G2 X46.642131979695435 Y51.73857868020305 I43.11928934010152 J-53.3248730964467
G2 X47.96700507614213 Y52.890862944162436 I5.144670050761421 J-4.571065989847716
G2 X49.890862944162436 Y53.82994923857868 I4.418781725888325 J-6.621827411167512
G2 X51.08629441624365 Y54.139593908629436 I2.923857868020305 J-8.862944162436548
G2 X53.10406091370559 Y54.45177664974619 I5.944162436548224 J-31.52791878172589
G3 X54.02030456852792 Y54.57360406091371 I-6.868020304568528 J55.68527918781726
G3 X54.25126903553299 Y54.60659898477157 I-1.6319796954314723 J11.647208121827411
G2 X56.33248730964467 Y55.01015228426396 I2.923857868020305 J-9.538071065989849
G2 X58.59137055837564 Y54.92131979695431 I0.7715736040609138 J-9.126903553299492
G2 X60.494923857868024 Y54.40609137055837 I-1.5685279187817258 J-9.543147208121827
G2 X62.43654822335025 Y53.45939086294416 I-4.50761421319797 J-11.723350253807105
G2 X63.86294416243655 Y52.48984771573604 I-7.779187817258883 J-12.99492385786802
G2 X65.49238578680203 Y51.129441624365484 I-15.027918781725889 J-19.631979695431472
G2 X66.39340101522842 Y50.2741116751269 I-20.34263959390863 J-22.309644670050762
G2 X68.0228426395939 Y48.62690355329949 I-78.81979695431471 J-79.61675126903553
G3 X69.01269035532995 Y47.61675126903553 I109.24111675126903 J105.87817258883248
G3 X69.33248730964466 Y47.29441624365482 I22.700507614213198 J22.413705583756347
G2 X72.77918781725889 Y43.98223350253807 I-10.916243654822335 J-14.802030456852792
G2 X74.98223350253807 Y40.101522842639596 I-11.027918781725887 J-8.8248730964467
G2 X75.81725888324873 Y35.50761421319797 I-12.385786802030456 J-4.626903553299492
G2 X75.81725888324873 Y35.46954314720812 I-14.99746192893401 J-0.03807106598984772
G2 X75.18274111675127 Y31.154822335025383 I-14.99746192893401 J0
G2 X75.19035532994923 Y30.756345177664976 I-10.560913705583756 J-0.3984771573604061
G2 X74.82233502538071 Y27.98730964467005 I-10.568527918781726 J0
G2 X73.19035532994924 Y24.34517766497462 I-12.398477157360405 J3.368020304568528
G2 X72.2741116751269 Y23.071065989847718 I-14.126903553299492 J9.195431472081218
G2 X71.0253807106599 Y21.606598984771573 I-21.218274111675125 J16.812182741116754
G2 X70.24619289340102 Y20.78172588832487 I-24.45431472081218 J22.383248730964468
G2 X68.70304568527919 Y19.233502538071065 I-92.94670050761422 J91.11421319796955
G3 X67.10406091370558 Y17.626903553299492 I81.11167512690356 J-82.2258883248731
G3 X66.4010152284264 Y16.8756345177665 I18.36294416243655 J-17.898477157360407
G3 X65.88578680203045 Y16.279187817258883 I14.817258883248732 J-13.324873096446701
G2 X67.93654822335026 Y13.81979695431472 I-0.44923857868020306 J-2.4593908629441623
G2 X67.14467005076142 Y11.992385786802032 I-2.5 J0
G3 X66.34771573604061 Y11.228426395939087 I28.8248730964467 J-30.83756345177665
G3 X65.81472081218274 Y10.680203045685278 I11.205583756345177 J-11.375634517766498
G3 X65.73604060913706 Y10.593908629441625 I7.951776649746193 J-7.332487309644669
G2 X67.16497461928934 Y9.233502538071065 I-0.8705583756345179 J-2.3426395939086295
G2 X67.65482233502537 Y9.446700507614214 I1.3350253807106598 J-2.3857868020304567
G2 X70.73857868020305 Y8.088832487309645 I0.7817258883248732 J-2.4060913705583755
G3 X71.3527918781726 Y8.753807106598986 I-60.807106598984774 J56.83248730964466
G2 X72.15482233502539 Y9.619289340101524 I60.360406091370564 J-55.19796954314721
G2 X72.56852791878173 Y10.043147208121827 I13.312182741116752 J-12.530456852791879
G2 X73.33248730964468 Y10.746192893401014 I9.350253807106599 J-9.390862944162437
G2 X73.99746192893402 Y11.238578680203046 I4.0761421319796955 J-4.789340101522843
G2 X76.51269035532995 Y11.352791878172589 I1.3553299492385786 J-2.101522842639594
G2 X77.24365482233503 Y10.840101522842641 I-1.6040609137055837 J-3.0583756345177666
G3 X81.02791878172589 Y14.385786802030456 I-52.31218274111675 J59.675126903553306
G3 X86.34010152284263 Y20.13705583756345 I-69.05583756345177 J69.09644670050761
G3 X90.7233502538071 Y25.631979695431472 I-83.39086294416245 J71.02791878172589
G3 X95.24111675126903 Y32.04822335025381 I-112.63959390862944 J84.09898477157361
G2 X95.80203045685279 Y33.06345177664974 I20.96700507614213 J-10.908629441624365
G2 X96.63451776649745 Y34.41878172588832 I31.598984771573605 J-18.46700507614213
G2 X97.15228426395939 Y35.203045685279186 I36.96192893401015 J-23.80964467005076
G2 X98.17512690355329 Y36.703045685279186 I141.2284263959391 J-95.31725888324873
G3 X99.36040609137055 Y38.44670050761421 I-112.08629441624366 J77.3984771573604
G3 X99.89086294416242 Y39.26903553299492 I-25.95431472081218 J17.33502538071066
G3 X100.69289340101523 Y40.654822335025386 I-21.15228426395939 J13.187817258883248
G3 X101.20304568527919 Y41.70558375634518 I-12.52284263959391 J6.730964467005077
G3 X101.94162436548224 Y44.284263959390856 I-9.304568527918782 J4.055837563451777
G3 X102.0228426395939 Y45.40355329949239 I-7.606598984771573 J1.119289340101523
G3 X101.94670050761422 Y46.487309644670056 I-7.687817258883248 J0
G3 X101.31472081218274 Y48.05583756345178 I-4.763959390862944 J-1.0076142131979695
G3 X99.8756345177665 Y49.70812182741117 I-5.845177664974619 J-3.6446700507614214
G3 X99.07614213197971 Y50.309644670050766 I-6.736040609137056 J-8.093908629441625
G3 X97.86294416243655 Y51.076142131979694 I-11.114213197969542 J-16.281725888324875
G3 X97.09137055837564 Y51.505076142131976 I-12.619289340101522 J-21.725888324873097
G3 X95.38324873096445 Y52.398477157360404 I-52.477157360406096 J-98.13705583756345
G2 X93.86040609137055 Y53.192893401015226 I60.6751269035533 J118.3477157360406
G2 X93.08121827411168 Y53.619289340101524 I15.687817258883248 J29.6497461928934
G2 X91.78934010152284 Y54.39340101522842 I13.408629441624365 J23.794416243654823
G2 X91.30710659898477 Y54.713197969543145 I9.035532994923859 J14.152284263959391
G2 X89.2741116751269 Y55.44670050761422 I1.4771573604060915 J7.274111675126903
G2 X87.248730964467 Y57.28934010152284 I2.66497461928934 J4.967005076142132
G2 X86.35786802030458 Y59.5507614213198 I4.807106598984772 J3.2005076142131976
G2 X86.26903553299492 Y60.61421319796955 I6.446700507614214 J1.0634517766497462
G2 X86.4238578680203 Y62.0253807106599 I6.532994923857868 J0
G2 X87.36802030456852 Y64.26649746192894 I6.601522842639595 J-1.4619289340101524
G2 X89.03807106598984 Y65.98984771573603 I5.317258883248731 J-3.4771573604060912
G2 X91.54568527918782 Y67.01015228426397 I3.472081218274112 J-4.951776649746193
G2 X92.0736040609137 Y67.07360406091371 I1.116751269035533 J-6.916243654822335
G3 X91.86802030456853 Y67.80710659898477 I-7.149746192893401 J-1.5862944162436547
G3 X91.56598984771574 Y68.56852791878173 I-6.695431472081218 J-2.236040609137056
G3 X91.26142131979697 Y69.11167512690355 I-4.050761421319796 J-1.8984771573604062
G2 X90.47969543147207 Y70.3502538071066 I1.6294416243654821 J1.895939086294416
G3 X90.37309644670052 Y70.59390862944163 I-0.883248730964467 J-0.24111675126903553
G3 X89.31725888324874 Y72.0761421319797 I-11.799492385786802 J-7.299492385786802
G3 X88.03807106598984 Y73.41370558375634 I-9.324873096446701 J-7.624365482233503
G3 X87.84771573604061 Y73.53553299492387 I-0.46446700507614214 J-0.5152284263959391
G2 X87.61421319796953 Y73.6472081218274 I0.9796954314720813 J2.2994923857868024
G3 X85.2005076142132 Y74.85532994923858 I-15.48730964467005 J-27.944162436548226
G3 X83.56598984771574 Y75.4746192893401 I-5.946700507614214 J-13.258883248730964
G2 X81.63197969543147 Y76.16497461928934 I7.3629441624365475 J23.697969543147206
G2 X78.32994923857868 Y77.57360406091371 I33.964467005076145 J84.06852791878173
G2 X76.33502538071066 Y78.29441624365482 I5.043147208121828 J17.121827411167512
G2 X74.77918781725889 Y79.15736040609137 I3.456852791878173 J8.055837563451776
G2 X73.44416243654823 Y80.39086294416244 I3.7893401015228427 J5.436548223350254
G2 X72.5761421319797 Y81.92131979695432 I3.9923857868020307 J3.276649746192893
G2 X72.27664974619289 Y83.37055837563452 I4.987309644670051 J1.7918781725888324
G2 X72.25888324873097 Y83.85786802030458 I7.530456852791878 J0.4873096446700508
G2 X72.33756345177665 Y84.93908629441623 I7.545685279187817 J0
G2 X72.50507614213198 Y85.80456852791878 I9.413705583756345 J-1.3604060913705585
G2 X72.90101522842639 Y87.31725888324873 I36.763959390862944 J-8.860406091370558
G3 X73.21319796954315 Y88.45685279187818 I-45.79187817258883 J13.058375634517766
G3 X73.33248730964468 Y88.96954314720813 I-10.66243654822335 J2.7563451776649743
G3 X73.46446700507614 Y89.80710659898477 I-8.81218274111675 J1.83248730964467
G3 X73.49746192893402 Y90.39593908629442 I-5.289340101522843 J0.5888324873096447
G1 X73.49746192893402 Y90.41624365482234
G1 X73.49746192893402 Y90.4238578680203
G2 X73.49746192893402 Y90.48223350253807 I2.5 J0
G2 X73.53045685279187 Y91.30456852791879 I24.3756345177665 J-0.5609137055837563
G2 X73.63197969543148 Y92.84010152284264 I91.95431472081218 J-5.223350253807107
G3 X73.751269035533 Y95.20558375634519 I-51.101522842639596 J3.7588832487309642
G3 X73.75380710659898 Y95.48984771573603 I-10.390862944162436 J0.2817258883248731
G3 X73.73096446700508 Y96.18781725888326 I-10.395939086294417 J0
G3 X73.48223350253807 Y97.69289340101523 I-7.964467005076142 J-0.5355329949238579
G3 X73.17005076142132 Y98.5482233502538 I-4.809644670050762 J-1.2715736040609138
G2 X73.10406091370558 Y98.63197969543148 I2828.073604060914 J2271.020304568528
G3 X70.88578680203045 Y101.35532994923858 I-205.002538071066 J-164.61421319796955
G3 X69.76395939086294 Y102.68020304568529 I-50.94923857868021 J-42.04314720812182
G3 X67.80964467005076 Y104.80710659898477 I-40.97715736040609 J-35.66497461928934
G3 X66.22081218274111 Y106.34010152284263 I-23.464467005076145 J-22.725888324873097
G3 X64.19035532994924 Y108 I-17.951776649746193 J-19.906091370558375
G3 X62.3756345177665 Y109.18527918781726 I-11.263959390862944 J-15.258883248730966
G3 X60.20812182741117 Y110.23096446700508 I-8.279187817258883 J-14.408629441624365
G3 X58.101522842639596 Y110.88071065989848 I-5.253807106598984 J-13.281725888324873
G2 X57.48477157360406 Y111.10913705583756 I0.5507614213197969 J2.4390862944162435
G3 X51.60659898477157 Y113.98223350253808 I-49.22842639593909 J-93.28426395939087
G3 X44.662436548223354 Y116.88832487309645 I-57.0761421319797 J-126.59898477157361
G3 X38.71573604060914 Y119.05837563451776 I-58.71827411167513 J-151.69035532994923
G3 X31.46446700507614 Y121.42131979695432 I-81.23857868020303 J-236.86040609137055
G2 X30.065989847715734 Y121.65482233502537 I1.4746192893401013 J13.197969543147208
G2 X28.00253807106599 Y122.21319796954316 I5.030456852791878 J22.690355329949238
G2 X26.81725888324873 Y122.62182741116752 I8.99492385786802 J28.076142131979694
G2 X24.54060913705584 Y123.48477157360406 I41.10659898477158 J111.70812182741116
G3 X22.895939086294415 Y124.11675126903553 I-55.44670050761422 J-141.66243654822335
G3 X22.134517766497463 Y124.39593908629442 I-12.035532994923859 J-31.827411167512693
G3 X20.878172588832488 Y124.80203045685279 I-8.733502538071066 J-24.870558375634516
G3 X20.52030456852792 Y124.90101522842639 I-3.809644670050761 J-12.880710659898478
G2 X20.14720812182741 Y123.80964467005077 I-2.8274111675126905 J0.3604060913705584
G2 X19.180203045685282 Y122.82233502538071 I-2.50253807106599 J1.482233502538071
G2 X18.220812182741117 Y122.40609137055839 I-1.885786802030457 J3.032994923857868
G2 X16.982233502538072 Y122.24365482233502 I-1.2284263959390864 J4.5786802030456855
G2 X15.545685279187818 Y122.33756345177666 I0.017766497461928935 J11.347715736040609
G2 X15.936548223350254 Y121.54060913705584 I-2.1624365482233503 J-1.5609137055837563
G2 X16.048223350253807 Y120.78934010152284 I-2.512690355329949 J-0.751269035532995
G2 X15.784263959390863 Y119.6472081218274 I-2.6218274111675126 J0
G2 X15.093908629441623 Y118.73604060913706 I-2.624365482233503 J1.2690355329949239
G2 X14.657360406091371 Y118.40609137055837 I-2.3071065989847717 J2.6015228426395938
G2 X14.225888324873097 Y118.15482233502537 I-3.3375634517766493 J5.230964467005076
G2 X13.99492385786802 Y118.03553299492386 I-3.974619289340102 J7.50507614213198
G2 X13.563451776649746 Y117.8274111675127 I-16.565989847715738 J33.736040609137056
G3 X13.32994923857868 Y117.71573604060913 I9.708121827411167 J-20.421319796954315
G2 X14.48477157360406 Y116.72335025380711 I-16.46954314720812 J-20.340101522842637
G2 X16.431472081218274 Y114.84517766497461 I-31.944162436548226 J-35.065989847715734
G3 X17.814720812182742 Y113.5203045685279 I21.32233502538071 J20.880710659898476
G3 X18.421319796954315 Y113.04060913705584 I4.197969543147208 J4.675126903553299
G3 X19.53045685279188 Y112.40355329949239 I4.218274111675127 J6.055837563451777
G3 X21.1497461928934 Y111.76142131979695 I6.428934010152284 J13.840101522842641
G0 Z3
G0 X59.704314720812185 Y75.12944162436548
G1 Z-0.4 F50
G2 X57.69543147208122 Y69.03553299492386 I-16.375634517766496 J2.017766497461929 F400
G2 X60.86548223350253 Y68.73604060913705 I-0.5913705583756345 J-23.152284263959395
G2 X65.52030456852792 Y67.47208121827411 I-3.8426395939086295 J-23.35786802030457
G2 X69.62690355329948 Y65.47208121827411 I-9.532994923857869 J-24.78934010152284
G2 X72.3730964467005 Y63.60659898477158 I-14.969543147208121 J-25.00507614213198
G2 X72.4771573604061 Y63.52791878172589 I-23.53807106598985 J-30.748730964467008
G2 X72.68020304568527 Y64.69543147208122 I20.327411167512693 J-2.9137055837563453
G2 X70.81218274111676 Y65.42893401015229 I10.695431472081218 J30.00253807106599
G2 X66.7715736040609 Y67.6725888324873 I8.97969543147208 J20.921319796954315
G2 X62.621827411167516 Y71.51015228426397 I11.794416243654823 J16.921319796954315
G2 X59.82994923857868 Y76.0989847715736 I14.81472081218274 J12.157360406091371
G3 X59.703045685279186 Y75.12944162436548 I74.06345177664974 J-10.109137055837563
G1 X57.719289340101525 Y75.37385786802031 F400
G2 X54.26903553299493 Y67.63197969543147 I-14.390862944162437 J1.7741116751269035 F400
G1 X53.48984771573604 Y66.73604060913705
G2 X55.32233502538071 Y66.96700507614213 I3.6852791878172586 J-21.66497461928934
G2 X60.54060913705584 Y66.76142131979695 I1.784263959390863 J-21.083756345177665
G2 X64.80203045685279 Y65.60659898477158 I-3.517766497461929 J-21.383248730964468
G2 X68.6015228426396 Y63.75634517766497 I-8.81725888324873 J-22.923857868020306
G2 X71.15736040609137 Y62.02030456852792 I-13.941624365482232 J-23.289340101522843
G2 X73.57868020304568 Y59.99492385786802 I-22.32233502538071 J-29.16243654822335
G2 X74.31472081218274 Y59.307106598984774 I-28.426395939086294 J-31.17766497461929
G2 X74.26903553299493 Y60.61421319796955 I18.487309644670052 J1.3071065989847717
G2 X74.70812182741116 Y64.61928934010152 I18.532994923857867 J0
G2 X75.04314720812182 Y65.91116751269035 I18.319796954314718 J-4.055837563451777
G2 X74.0761421319797 Y66.33248730964466 I40.55583756345178 J94.31979695431473
G2 X71.6015228426396 Y67.26649746192894 I9.296954314720812 J28.36548223350254
G2 X67.91624365482234 Y69.31472081218274 I8.190355329949238 J19.083756345177665
G2 X64.17005076142132 Y72.77664974619289 I10.652284263959391 J15.279187817258883
G2 X61.28172588832487 Y77.86802030456853 I13.269035532994923 J10.890862944162436
G2 X60.30203045685279 Y82.59644670050761 I16.281725888324875 J5.845177664974619
G2 X60.25888324873097 Y83.85786802030458 I19.50507614213198 J1.2614213197969542
G2 X60.461928934010146 Y86.65736040609136 I19.545685279187815 J0
G2 X60.83756345177665 Y88.61675126903552 I21.289340101522846 J-3.078680203045685
G2 X61.36294416243655 Y90.60913705583756 I48.42893401015228 J-11.67005076142132
G3 X61.51269035532995 Y91.15228426395939 I-34.25126903553299 J9.769035532994923
G2 X61.55076142131979 Y91.98477157360406 I36.36294416243655 J-1.2309644670050761
G2 X61.65989847715736 Y93.68274111675127 I103.93401015228426 J-5.903553299492385
G3 X61.631979695431475 Y93.71827411167513 I-193.56091370558374 J-159.66497461928935
G3 X60.713197969543145 Y94.80203045685279 I-41.692893401015226 J-34.40609137055838
G3 X59.19035532994924 Y96.45939086294416 I-31.926395939086298 J-27.78680203045685
G3 X58.18527918781726 Y97.42893401015229 I-14.84517766497462 J-14.375634517766498
G3 X57.20558375634518 Y98.24111675126903 I-9.913705583756345 J-10.99492385786802
G2 X58.36294416243655 Y93.88324873096448 I-28.03553299492386 J-9.791878172588833
G2 X58.47969543147208 Y93.15989847715736 I-14.256345177664976 J-2.6522842639593907
G2 X58.8756345177665 Y88.91878172588832 I-52.46192893401015 J-7.048223350253807
G2 X58.931472081218274 Y86.85025380710661 I-38.95939086294416 J-2.068527918781726
G2 X58.88578680203046 Y84.98730964467006 I-39.01522842639594 J0
G2 X58.67766497461929 Y82.43401015228427 I-37.90862944162436 J1.8121827411167513
G2 X58.18527918781726 Y78.7233502538071 I-113.7741116751269 J13.17766497461929
G3 X57.87563451776649 Y76.56852791878173 I221.60659898477155 J-33.03807106598985
G3 X57.71827411167513 Y75.37309644670052 I76.01776649746193 J-10.578680203045685
G0 Z3
G0 X30.348223350253807 Y56.82893401015228
G1 Z-0.4 F50
G2 X29.83502538071066 Y56.78934010152284 I-2.8807106598984773 J33.14720812182741 F400
G2 X29.9746192893401 Y56.62690355329949 I-36.23857868020305 J-31.576142131979697
G2 X30.060913705583758 Y56.672588832487314 I7.746192893401015 J-14.568527918781726
G3 X30.34771573604061 Y56.829949238578685 I-4.225888324873097 J8.063451776649746
G1 X30.428426395939088 Y58.84467005076142 F400
G2 X25.403553299492387 Y58.77157360406091 I-2.9593908629441623 J31.131979695431472 F400
G1 X25.40609137055838 Y58.748730964467
G3 X25.720812182741113 Y58.38324873096447 I12.98984771573604 J10.847715736040609
G3 X26.784263959390863 Y57.19796954314721 I85.1243654822335 J75.30456852791878
G2 X28.078680203045685 Y55.75634517766497 I-107.42639593908629 J-97.753807106599
G2 X28.893401015228427 Y54.809644670050766 I-34.482233502538065 J-30.54568527918782
G2 X29.434010152284262 Y54.15482233502538 I-30.6751269035533 J-25.723350253807105
G2 X29.571065989847718 Y54.05076142131979 I-19.779187817258883 J-26.71827411167513
G2 X30.98984771573604 Y54.901015228426395 I8.149746192893401 J-11.992385786802032
G3 X31.80710659898477 Y55.37563451776649 I-5.154822335025381 J9.83248730964467
G3 X33.20812182741116 Y56.33756345177665 I-13.248730964467006 J20.756345177664976
G3 X34.098984771573605 Y57.02030456852792 I-19.340101522842637 J26.131979695431472
G3 X36.434010152284266 Y58.911167512690355 I-108.62944162436548 J136.65736040609136
G2 X38.20812182741116 Y60.35786802030457 I177.06598984771574 J-215.0456852791878
G2 X36.46700507614214 Y59.91624365482234 I-43.06091370558376 J165.79187817258884
G2 X35.111675126903556 Y59.598984771573605 I-12.373096446700506 J49.77918781725889
G2 X32.71827411167513 Y59.139593908629436 I-9.619289340101524 J43.74365482233503
G2 X30.428934010152282 Y58.845177664974614 I-5.538071065989848 J33.87309644670051
G0 Z3
G0 X30.239086294416243 Y60.83553299492386
G1 Z-0.4 F50
G2 X24.619289340101524 Y60.84263959390863 I-2.7715736040609134 J29.14213197969543 F400
G2 X22.720812182741117 Y61.088832487309645 I2.939086294416244 J30.055837563451778
G3 X22.865482233502537 Y60.66497461928934 I19.8756345177665 J6.560913705583756
G2 X23.5 Y57.934010152284266 I-11.784263959390863 J-4.1725888324873095
G3 X23.873096446700508 Y57.464467005076145 I10.436548223350254 J7.936548223350254
G3 X24.22335025380711 Y57.058375634517766 I14.52284263959391 J12.131979695431472
G3 X25.304568527918782 Y55.85279187817258 I86.62182741116752 J76.62944162436548
G2 X26.581218274111677 Y54.431472081218274 I-105.9492385786802 J-96.40609137055839
G2 X27.36294416243655 Y53.525380710659896 I-32.984771573604064 J-29.21827411167513
G2 X28.03553299492386 Y52.69796954314721 I-29.14213197969543 J-24.439086294416246
G2 X29.185279187817258 Y51.82233502538071 I-18.38071065989848 J-25.263959390862944
G2 X29.555837563451774 Y51.52030456852792 I-23.51269035532995 J-29.355329949238577
G2 X31.918781725888326 Y53.129441624365484 I8.16751269035533 J-9.461928934010151
G3 X32.88324873096447 Y53.69035532994924 I-6.083756345177665 J11.604060913705583
G3 X34.398477157360404 Y54.73096446700508 I-14.3248730964467 J22.441624365482234
G3 X35.34263959390863 Y55.454314720812185 I-20.527918781725887 J27.738578680203045
G3 X37.70558375634518 Y57.36802030456853 I-109.8756345177665 J138.2233502538071
G2 X39.60406091370559 Y58.91624365482233 I175.79441624365484 J-213.5
G2 X39.89593908629442 Y59.15228426395939 I49.40609137055837 J-61.101522842639596
G2 X42.41370558375635 Y61.20812182741116 I11.890862944162437 J-11.98477157360406
G2 X46.756345177664976 Y63.3248730964467 I9.972081218274111 J-14.939086294416244
G2 X49.23350253807107 Y63.96446700507614 I6.058375634517766 J-18.360406091370557
G2 X51.87817258883249 Y64.37817258883248 I7.7969543147208125 J-41.35532994923857
G3 X52.21065989847716 Y64.41878172588832 I-5.644670050761421 J45.76142131979695
G2 X55.48984771573604 Y64.9746192893401 I4.964467005076142 J-19.350253807106597
G2 X60.21573604060913 Y64.78934010152284 I1.6167512690355328 J-19.091370558375637
G2 X64.08375634517766 Y63.73857868020305 I-3.1928934010152283 J-19.411167512690355
G2 X67.57360406091371 Y62.038071065989854 I-8.098984771573605 J-21.055837563451778
G2 X69.94162436548224 Y60.431472081218274 I-12.913705583756345 J-21.573604060913706
G2 X72.23096446700508 Y58.51776649746193 I-21.106598984771573 J-27.573604060913706
G2 X73.42893401015229 Y57.38071065989848 I-27.078680203045685 J-29.700507614213198
G2 X75.20304568527918 Y55.58629441624365 I-85.85532994923858 J-86.72335025380711
G3 X75.93908629441624 Y54.83248730964468 I102.06091370558376 J98.91624365482232
G2 X78.30964467005076 Y52.75126903553299 I-17.52284263959391 J-22.340101522842637
G2 X76.48984771573603 Y57.92131979695432 I13.746192893401014 J7.738578680203045
G2 X76.26903553299492 Y60.61421319796955 I16.314720812182742 J2.6928934010152283
G2 X76.65989847715737 Y64.18781725888324 I16.53299492385787 J0
G2 X77.55837563451776 Y67.0253807106599 I16.365482233502537 J-3.6218274111675126
G2 X74.79441624365482 Y68.20304568527919 I38.03807106598985 J93.20558375634518
G2 X72.39086294416244 Y69.10406091370558 I8.581218274111675 J26.49492385786802
G2 X69.06091370558376 Y70.95431472081218 I7.401015228426396 J17.246192893401016
G2 X65.71573604060914 Y74.04568527918782 I9.50761421319797 J13.639593908629442
G2 X63.16497461928934 Y78.54314720812182 I11.723350253807105 J9.621827411167512
G2 X62.296954314720814 Y82.7258883248731 I14.401015228426397 J5.17005076142132
G2 X62.25888324873097 Y83.85786802030458 I17.51015228426396 J1.134517766497462
G2 X62.441624365482234 Y86.37055837563452 I17.54568527918782 J0
G2 X62.78172588832487 Y88.14720812182742 I19.309644670050762 J-2.7944162436548226
G2 X63.28426395939086 Y90.05837563451777 I46.484771573604064 J-11.203045685279188
G3 X63.50507614213198 Y90.86294416243655 I-36.1751269035533 J10.31725888324873
G2 X63.54822335025381 Y91.87309644670052 I34.370558375634516 J-0.9390862944162437
G2 X63.65736040609137 Y93.57360406091371 I101.93908629441624 J-5.789340101522843
G3 X63.70812182741116 Y94.34263959390863 I-41.12690355329949 J3.025380710659898
G3 X63.17258883248731 Y94.99238578680203 I-195.60659898477158 J-160.32487309644668
G3 X62.22081218274112 Y96.11421319796955 I-43.236040609137056 J-35.67766497461929
G3 X60.62690355329949 Y97.85025380710661 I-33.434010152284266 J-29.098984771573605
G3 X59.5253807106599 Y98.91624365482232 I-16.281725888324875 J-15.769035532994923
G3 X58.251269035533 Y99.95431472081219 I-11.253807106598986 J-12.479695431472082
G3 X57.39340101522843 Y100.51522842639594 I-5.324873096446701 J-7.213197969543147
G3 X56.53045685279188 Y100.93147208121827 I-3.296954314720812 J-5.738578680203046
G3 X55.89847715736041 Y101.12690355329948 I-1.5761421319796953 J-3.982233502538071
G2 X53.32233502538071 Y102.01269035532995 I2.753807106598985 J12.192893401015228
G2 X54.329949238578685 Y100.0253807106599 I-25.898477157360404 J-14.365482233502538
G2 X56.398477157360404 Y93.51776649746192 I-25.162436548223347 J-11.576142131979697
G2 X56.497461928934015 Y92.89340101522842 I-12.289340101522843 J-2.286802030456853
G2 X56.87817258883249 Y88.81218274111674 I-50.47969543147208 J-6.781725888324873
G2 X56.931472081218274 Y86.85025380710661 I-36.96192893401015 J-1.9619289340101522
G2 X56.88832487309645 Y85.08121827411168 I-37.015228426395936 J0
G2 X56.69035532994924 Y82.66243654822334 I-35.911167512690355 J1.7182741116751268
G2 X56.20812182741116 Y79.01776649746193 I-111.78680203045685 J12.946700507614214
G3 X55.89593908629442 Y76.84517766497461 I223.58629441624367 J-33.33248730964467
G3 X55.733502538071065 Y75.61928934010152 I77.997461928934 J-10.855329949238579
G2 X52.76142131979696 Y68.94416243654823 I-12.406091370558377 J1.5279187817258881
G1 X51.76903553299493 Y67.80456852791878
G2 X43.70812182741116 Y63.58121827411168 I-9.431472081218274 J8.203045685279188
