(Generated by PartKam Version 0.05)

G21 G90 G40

(follow path 1)
G0 Z3
T0 M6
G17
M3
G0 X2.3304568527918783 Y156.95939086294416
G1 Z-0.2 F100
G1 X131.44162436548223 Y156.95939086294416 F800
G1 X131.44162436548223 Y2.8248730964467006
G1 X2.3299492385786804 Y2.8248730964467006
G1 X2.3299492385786804 Y156.95939086294416

(pocket 2)
G0 Z3
T1 M6
G0 X112.52233502538071 Y29.476903553299493
G1 Z-0.2 F100
G3 X118.18020304568527 Y37.522842639593904 I-139.01015228426394 J103.78934010152284 F800
G2 X118.86040609137055 Y38.76142131979695 I23.055837563451774 J-11.83502538071066
G2 X119.80710659898477 Y40.30456852791878 I35.96700507614213 J-21.017766497461928
G2 X120.40355329949239 Y41.20812182741116 I42.54060913705584 J-27.403553299492387
G2 X121.62944162436548 Y43.00253807106599 I169.1827411167513 J-114.18274111675126
G3 X123.09137055837564 Y45.15736040609137 I-138.3984771573604 J95.56598984771574
G3 X123.78426395939087 Y46.23096446700508 I-33.83248730964467 J22.596446700507613
G3 X124.84771573604061 Y48.06598984771574 I-28.04822335025381 J17.48730964467005
G3 X125.56852791878173 Y49.54822335025381 I-17.659898477157363 J9.49238578680203
G3 X126.66751269035532 Y53.38832487309645 I-13.852791878172589 J6.038071065989847
G3 X126.79695431472082 Y55.1497461928934 I-11.992385786802032 J1.763959390862944
G3 X126.66243654822335 Y56.94416243654822 I-12.121827411167512 J0
G3 X126.16751269035532 Y58.601522842639596 I-9.02030456852792 J-1.7969543147208122
G3 X125.38324873096445 Y60.101522842639596 I-8.149746192893401 J-3.302030456852792
G3 X124.45685279187816 Y61.299492385786806 I-7.916243654822335 J-5.159898477157361
G3 X123.18274111675126 Y62.517766497461935 I-9.416243654822335 J-8.563451776649746
G3 X122.00253807106598 Y63.411167512690355 I-9.959390862944163 J-11.969543147208121
G3 X120.35786802030456 Y64.44670050761421 I-15.068527918781726 J-22.071065989847718
G3 X119.33502538071066 Y65.01776649746193 I-16.720812182741117 J-28.789340101522846
G3 X117.22081218274111 Y66.1243654822335 I-65.03553299492386 J-121.62182741116752
G2 X115.4010152284264 Y67.07360406091371 I72.40355329949239 J141.2284263959391
G2 X114.51776649746193 Y67.55583756345177 I17.746192893401016 J33.54314720812183
G2 X113.08375634517766 Y68.41624365482234 I14.913705583756345 J26.467005076142133
G2 X112.08629441624366 Y69.1015228426396 I9.474619289340101 J14.83756345177665
G2 X109.84517766497461 Y69.80203045685279 I0.7055837563451777 J6.187817258883249
G2 X108.38832487309645 Y71.12944162436548 I1.918781725888325 J3.5761421319796955
G2 X107.73604060913705 Y72.78426395939087 I3.517766497461929 J2.3426395939086295
G2 X107.66751269035532 Y73.62182741116752 I5.081218274111675 J0.8375634517766497
G2 X107.78934010152284 Y74.73350253807106 I5.149746192893401 J0
G2 X108.54568527918781 Y76.53045685279187 I5.2969543147208125 J-1.1725888324873095
G2 X109.84010152284264 Y77.87055837563452 I4.124365482233502 J-2.6979695431472086
G2 X111.73096446700507 Y78.63705583756345 I2.6167512690355332 J-3.7335025380710665
G2 X113.94670050761421 Y78.56091370558376 I0.9111675126903553 J-5.647208121827411
G3 X114.22335025380711 Y78.67005076142132 I-0.23096446700507614 J0.9746192893401016
G3 X114.4746192893401 Y78.88324873096447 I-0.46954314720812185 J0.8045685279187818
G3 X114.64467005076142 Y79.16497461928934 I-0.9238578680203046 J0.7563451776649746
G3 X114.78680203045685 Y79.61928934010152 I-2.093908629441624 J0.9060913705583756
G3 X114.86040609137056 Y80.34517766497461 I-3.5761421319796955 J0.7258883248730964
G3 X114.85532994923858 Y80.51776649746193 I-3.649746192893401 J0
G3 X114.6725888324873 Y81.9492385786802 I-8.98984771573604 J-0.42639593908629436
G3 X114.32233502538071 Y83.23857868020305 I-11.426395939086294 J-2.4086294416243654
G3 X113.83248730964468 Y84.46192893401016 I-10.771573604060913 J-3.596446700507614
G3 X113.18781725888326 Y85.59390862944163 I-7.441624365482234 J-3.489847715736041
G3 X112.76649746192894 Y86.04568527918781 I-1.6725888324873097 J-1.1370558375634519
G2 X112.68020304568529 Y86.17766497461929 I0.15482233502538073 J0.1954314720812183
G3 X112.23350253807106 Y87.20558375634518 I-3.761421319796954 J-1.0228426395939085
G3 X110.73604060913706 Y89.30203045685278 I-16.695431472081218 J-10.32994923857868
G3 X108.89086294416244 Y91.23604060913706 I-13.47969543147208 J-11.02030456852792
G3 X107.88832487309645 Y91.87309644670052 I-2.4238578680203045 J-2.7005076142131976
G2 X107.86548223350253 Y91.88578680203045 I0.09898477157360405 J0.23096446700507614
G3 X104.72081218274111 Y93.45939086294416 I-20.15736040609137 J-36.36548223350254
G3 X102.4238578680203 Y94.32741116751268 I-8.360406091370558 J-18.64213197969543
G2 X100.29187817258884 Y95.08629441624365 I8.114213197969542 J26.11421319796954
G2 X96.20558375634518 Y96.83756345177665 I40.19796954314721 J99.49492385786803
G2 X93.91370558375634 Y97.6497461928934 I5.159898477157361 J18.172588832487307
G2 X92.52030456852792 Y98.42639593908629 I3.098984771573604 J7.223350253807107
G2 X91.46192893401015 Y99.40355329949239 I3.0076142131979693 J4.314720812182741
G2 X90.87563451776649 Y100.43654822335026 I2.6954314720812182 J2.2106598984771573
G2 X90.66751269035534 Y101.43401015228426 I3.434010152284264 J1.233502538071066
G2 X90.65482233502537 Y101.84771573604061 I6.365482233502538 J0.4111675126903553
G2 X90.72081218274113 Y102.75888324873095 I6.378172588832487 J0
G2 X90.8730964467005 Y103.55837563451777 I8.67258883248731 J-1.2538071065989849
G2 X91.3274111675127 Y105.28172588832489 I41.93401015228426 J-10.104060913705585
G3 X91.72335025380711 Y106.73350253807106 I-58.28172588832487 J16.621827411167512
G3 X91.89847715736042 Y107.48730964467006 I-15.642131979695431 J4.043147208121828
G3 X92.10152284263958 Y108.76395939086294 I-13.426395939086294 J2.7944162436548226
G3 X92.15736040609137 Y109.78680203045685 I-9.192893401015228 J1.0228426395939085
G3 X92.15736040609137 Y109.8274111675127 I-9.248730964467004 J0
G2 X92.19289340101524 Y110.73096446700507 I26.814720812182742 J-0.616751269035533
G2 X92.31218274111676 Y112.5482233502538 I108.87817258883248 J-6.185279187817258
G3 X92.46446700507613 Y115.5507614213198 I-64.82994923857868 J4.769035532994924
G3 X92.46954314720811 Y115.96954314720811 I-15.401015228426395 J0.41878172588832485
G3 X92.43401015228427 Y117.00507614213197 I-15.408629441624367 J0
G3 X92.0482233502538 Y119.36040609137055 I-12.451776649746193 J-0.8401015228426396
G3 X91.33248730964468 Y121.19796954314721 I-8.532994923857869 J-2.2563451776649748
G2 X91.25380710659898 Y121.29695431472081 I852.6015228426395 J684.8807106598985
G2 X91.06598984771574 Y121.53045685279189 I3430.713197969543 J2755.1802030456856
G3 X88.3502538071066 Y124.86802030456852 I-251.10406091370555 J-201.63197969543148
G3 X86.93908629441624 Y126.53045685279189 I-64.01522842639594 J-52.824873096446694
G3 X84.46700507614213 Y129.2233502538071 I-51.857868020304565 J-45.13705583756345
G3 X82.40355329949239 Y131.21573604060913 I-30.49492385786802 J-29.532994923857867
G3 X79.7258883248731 Y133.4035532994924 I-23.662436548223347 J-26.241116751269033
G3 X77.25380710659898 Y135.01776649746193 I-15.33248730964467 J-20.76903553299492
G3 X74.26142131979695 Y136.46192893401013 I-11.441624365482232 J-19.911167512690355
G3 X71.28934010152284 Y137.37817258883248 I-7.403553299492386 J-18.718274111675125
G2 X71.2284263959391 Y137.4010152284264 I0.05583756345177665 J0.2436548223350254
G3 X63.93654822335026 Y140.96446700507616 I-61.078680203045685 J-115.74111675126903
G3 X55.36548223350253 Y144.55329949238578 I-70.4517766497462 J-156.2690355329949
G3 X48.04060913705584 Y147.2233502538071 I-72.30710659898477 J-186.7944162436548
G3 X38.890862944162436 Y150.2030456852792 I-99.55329949238578 J-290.25380710659897
G2 X37.236040609137056 Y150.46192893401016 I1.2309644670050761 J13.284263959390863
G2 X34.977157360406096 Y151.0736040609137 I5.50507614213198 J24.83502538071066
G2 X33.6497461928934 Y151.53045685279187 I10.073604060913706 J31.439086294416242
G2 X30.939086294416246 Y152.55837563451777 I48.95431472081218 J133.02791878172587
G3 X28.913705583756343 Y153.33756345177665 I-68.34263959390863 J-174.61167512690355
G3 X27.92639593908629 Y153.6979695431472 I-15.598984771573603 J-41.253807106598984
G3 X26.26649746192893 Y154.23604060913706 I-11.527918781725887 J-32.82741116751269
G3 X25.02030456852792 Y154.55837563451777 I-5.416243654822335 J-18.31218274111675
G3 X21.928934010152282 Y154.85279187817258 I-2.7233502538071064 J-12.17258883248731
G3 X20.253807106598988 Y154.56598984771574 I0.1802030456852792 J-6.088832487309644
G2 X21.629441624365484 Y153.36802030456855 I-10.281725888324873 J-13.20304568527919
G2 X22.1751269035533 Y152.6015228426396 I-1.8121827411167513 J-1.8680203045685277
G2 X22.284263959390863 Y152.1548223350254 I-1.0786802030456852 J-0.5025380710659898
G2 X22.286802030456855 Y152.1243654822335 I-0.6751269035532994 J-0.03299492385786802
G2 X22.19035532994924 Y151.77918781725887 I-0.6751269035532994 J0
G2 X21.944162436548226 Y151.5253807106599 I-0.6421319796954316 J0.3807106598984772
G2 X21.52791878172589 Y151.3451776649746 I-0.8197969543147209 J1.3172588832487309
G2 X20.751269035532992 Y151.24365482233503 I-0.7715736040609138 J2.8705583756345177
G2 X19.299492385786802 Y151.34263959390861 I0.017766497461928935 J10.99238578680203
G2 X18 Y151.5710659898477 I2.220812182741117 J16.451776649746193
G2 X16.543147208121827 Y151.93908629441626 I4.588832487309645 J21.14467005076142
G2 X16.507614213197968 Y151.9543147208122 I0.07106598984771574 J0.24111675126903553
G3 X14.936548223350254 Y152.4263959390863 I-2.4137055837563453 J-5.180203045685278
G3 X13.857868020304569 Y152.36040609137058 I-0.383248730964467 J-2.5685279187817263
G3 X13.083756345177664 Y151.90862944162436 I0.47461928934010156 J-1.7055837563451774
G3 X12.708121827411167 Y151.2258883248731 I0.9746192893401016 J-0.9796954314720813
G3 X12.667512690355329 Y150.86040609137055 I1.6624365482233503 J-0.3654822335025381
G3 X12.741116751269034 Y150.36802030456852 I1.700507614213198 J0
G3 X13.31725888324873 Y149.26395939086294 I3.2081218274111674 J0.9720812182741116
G3 X14.421319796954315 Y148.23604060913706 I3.8883248730964466 J3.068527918781726
G3 X16.34771573604061 Y147.21319796954316 I5.647208121827411 J8.312182741116752
G2 X16.65228426395939 Y147.03553299492387 I-0.5152284263959391 J-1.2284263959390864
G2 X16.80710659898477 Y146.80710659898477 I-0.27918781725888325 J-0.35786802030456855
G2 X16.8248730964467 Y146.69289340101523 I-0.3807106598984772 J-0.11421319796954314
G2 X16.784263959390863 Y146.51776649746193 I-0.3984771573604061 J0
G2 X16.606598984771573 Y146.28172588832487 I-0.6802030456852792 J0.32741116751269034
G2 X16.426395939086294 Y146.14720812182742 I-0.9517766497461928 J1.0761421319796955
G2 X16.096446700507613 Y145.9543147208122 I-2.5532994923857864 J4.00253807106599
G2 X15.888324873096447 Y145.85025380710658 I-3.5228426395939088 J6.65228426395939
G2 X15.401015228426395 Y145.61167512690355 I-18.888324873096447 J38.464467005076145
G3 X14.423857868020304 Y145.12690355329948 I12.98477157360406 J-27.312182741116754
G3 X13.951776649746193 Y144.86040609137058 I3.5431472081218276 J-6.807106598984771
G3 X13.220812182741117 Y144.3223350253807 I2.860406091370558 J-4.662436548223351
G3 X12.860406091370557 Y143.91370558375633 I1.3857868020304567 J-1.5913705583756346
G3 X12.647208121827411 Y143.35786802030458 I1.0888324873096447 J-0.7360406091370558
G3 X12.634517766497462 Y143.19035532994923 I1.2081218274111676 J-0.16751269035532995
G3 X12.7005076142132 Y142.79187817258884 I1.2208121827411167 J0
G3 X13.068527918781726 Y142.14467005076142 I1.916243654822335 J0.6649746192893401
G3 X14.096446700507615 Y141.16243654822335 I5.220812182741117 J4.418781725888325
G2 X15.837563451776651 Y139.69543147208122 I-17.78172588832487 J-22.9010152284264
G2 X18.088832487309645 Y137.5253807106599 I-36.91370558375635 J-40.52030456852792
G3 X19.895939086294415 Y135.79441624365484 I27.880710659898476 J27.304568527918782
G3 X20.901015228426395 Y134.997461928934 I6.959390862944162 J7.748730964467006
G3 X22.66751269035533 Y133.98223350253807 I6.715736040609137 J9.637055837563452
G3 X25.215736040609137 Y132.99238578680203 I8.97969543147208 J19.33248730964467
G2 X29.781725888324875 Y132.13959390862945 I-3.2030456852791875 J-29.819796954314718
G2 X34.515228426395936 Y130.49492385786803 I-8.961928934010153 J-33.4263959390863
G2 X38.65736040609137 Y128.3984771573604 I-15.00253807106599 J-34.81218274111675
G2 X42.873096446700515 Y125.60659898477157 I-22.84771573604061 J-39.04314720812182
G2 X46.89340101522842 Y122.6725888324873 I-15.065989847715734 J-24.875634517766496
G2 X49.98984771573604 Y119.41116751269035 I-15.48984771573604 J-17.807106598984774
G2 X52.535532994923855 Y115.23857868020303 I-16.565989847715738 J-12.961928934010151
G2 X53.934010152284266 Y110.83248730964468 I-16.992385786802032 J-7.817258883248731
G2 X54.284263959390856 Y107.07106598984772 I-46.5 J-6.246192893401014
G2 X54.32741116751269 Y105.47969543147207 I-29.9746192893401 J-1.5913705583756346
G2 X54.29187817258884 Y104.04568527918782 I-30.017766497461928 J0
G2 X54.203045685279186 Y102.74619289340102 I-31.708121827411166 J1.515228426395939
G2 X54.03807106598984 Y101.18781725888326 I-45.75634517766497 J4.0761421319796955
G2 X53.911167512690355 Y100.23350253807106 I-55.83502538071066 J6.898477157360406
G2 X53.61167512690355 Y98.17005076142132 I-261.02030456852793 J36.80456852791878
G3 X53.21065989847716 Y95.38832487309645 I286.26395939086296 J-42.675126903553306
G3 X52.98477157360406 Y93.66751269035532 I109.49746192893402 J-15.238578680203045
G2 X52.92639593908629 Y93.53299492385787 I-0.24873096446700507 J0.030456852791878174
G1 X51.723350253807105 Y92.14974619289339
G2 X51.56091370558376 Y92.06345177664974 I-0.18781725888324874 J0.1649746192893401
G3 X49.319796954314725 Y91.75380710659897 I4.467005076142132 J-40.46954314720813
G3 X46.837563451776646 Y91.2766497461929 I8.360406091370558 J-50.05329949238579
G3 X45.373096446700515 Y90.93401015228426 I11.906091370558375 J-54.4492385786802
G3 X42.6497461928934 Y90.24111675126903 I46.54060913705584 J-188.3147208121827
G2 X40.21827411167513 Y89.61928934010153 I-48.41624365482233 J184.39086294416242
G2 X39.03299492385787 Y89.34010152284264 I-10.837563451776651 J43.601522842639596
G2 X37.05329949238579 Y88.96192893401015 I-7.9543147208121825 J36.16497461928934
G2 X35.431472081218274 Y88.751269035533 I-3.9238578680203045 J24.00253807106599
G2 X31.472081218274113 Y88.75888324873097 I-1.951776649746193 J20.525380710659896
G2 X27.51269035532995 Y89.52030456852793 I2.1167512690355332 J21.63705583756345
G2 X26.365482233502537 Y89.62944162436548 I0.3223350253807106 J9.413705583756345
G2 X24.723350253807105 Y89.96446700507613 I2.9746192893401013 J18.81979695431472
G2 X23.751269035532996 Y90.2284263959391 I6.124365482233502 J24.53045685279188
G2 X21.725888324873097 Y90.84010152284264 I31.596446700507613 J108.05583756345177
G3 X19.67258883248731 Y91.46192893401015 I-34.022842639593904 J-108.7258883248731
G3 X18.6751269035533 Y91.73350253807106 I-7.459390862944163 J-25.51522842639594
G3 X16.99492385786802 Y92.08121827411168 I-4.987309644670051 J-19.898477157360407
G3 X15.774111675126903 Y92.20812182741116 I-1.7081218274111676 J-10.464467005076141
G3 X14.3248730964467 Y92.14213197969544 I-0.3680203045685279 J-7.982233502538071
G3 X13.208121827411167 Y91.86040609137055 I0.6954314720812182 J-5.091370558375634
G3 X12.086294416243655 Y91.248730964467 I1.6294416243654821 J-4.319796954314721
G3 X11.152284263959391 Y90.36040609137055 I3.1446700507614214 J-4.243654822335025
G3 X11.101522842639593 Y87.22081218274111 I94.61928934010153 J-3.1395939086294415
G3 X11.142131979695431 Y84.39593908629442 I94.67005076142131 J0
G3 X11.48477157360406 Y79.4010152284264 I64.8984771573604 J1.9365482233502538
G3 X12.431472081218274 Y73.57106598984772 I54.545685279187815 J5.8578680203045685
G3 X13.81725888324873 Y68.70304568527919 I39.41878172588832 J8.596446700507613
G2 X13.83248730964467 Y68.62690355329948 I-0.23604060913705582 J-0.08375634517766498
G3 X14.329949238578681 Y65.81979695431473 I9.951776649746192 J0.31725888324873097
G3 X15.769035532994923 Y62.7741116751269 I13.114213197969544 J4.33248730964467
G3 X16.550761421319798 Y61.631979695431475 I15.746192893401014 J9.954314720812183
G3 X17.65736040609137 Y60.22842639593908 I24.781725888324875 J18.375634517766496
G3 X18.35532994923858 Y59.41370558375635 I29.091370558375633 J24.30203045685279
G3 X19.81218274111675 Y57.79187817258883 I116.36548223350253 J102.93908629441624
G2 X21.22842639593909 Y56.21573604060914 I-117.60913705583758 J-107.01776649746193
G2 X21.911167512690355 Y55.42131979695432 I-28.878172588832488 J-25.581218274111674
G2 X22.99492385786802 Y54.055837563451774 I-23.949238578680202 J-20.08375634517766
G2 X23.72842639593909 Y52.99746192893401 I-15.01269035532995 J-11.225888324873097
G2 X24.763959390862947 Y52.3756345177665 I-5.185279187817259 J-9.791878172588833
G2 X26.230964467005077 Y51.29187817258884 I-12.916243654822335 J-19.043147208121827
G2 X27.076142131979694 Y50.59137055837564 I-19.218274111675125 J-23.99492385786802
G2 X28.8248730964467 Y49.058375634517766 I-90.46192893401015 J-105.0253807106599
G3 X30.80710659898477 Y47.32994923857868 I85.01522842639594 J95.41624365482234
G3 X31.78680203045685 Y46.52791878172589 I19.365482233502537 J22.65736040609137
G3 X33.502538071065985 Y45.307106598984774 I14.063451776649746 J17.944162436548222
G3 X34.799492385786806 Y44.58375634517766 I6.213197969543147 J9.644670050761421
G3 X36.45177664974619 Y44 I3.6421319796954315 J7.680203045685278
G3 X37.84010152284264 Y43.8502538071066 I1.2791878172588833 J5.314720812182742
G3 X39.36548223350254 Y44.11675126903553 I-0.09898477157360405 J5.068527918781726
G3 X40.82994923857868 Y44.824873096446694 I-2.098984771573604 J6.203045685279188
G2 X40.82994923857868 Y44.86548223350254 I1.5761421319796953 J0.04060913705583757
G2 X40.878172588832484 Y45.25888324873097 I1.5761421319796953 J0
G2 X41.18020304568528 Y46.01776649746193 I3.1472081218274113 J-0.8121827411167513
G2 X41.56091370558376 Y46.60659898477157 I4.3604060913705585 J-2.4010152284263957
G2 X42.200507614213194 Y47.3756345177665 I8.258883248730966 J-6.213197969543147
G2 X43.06345177664974 Y48.23857868020305 I10.31472081218274 J-9.451776649746193
G2 X44.91370558375635 Y49.86294416243655 I39.0736040609137 J-42.63705583756345
G3 X45.51015228426395 Y50.370558375634516 I-66.2741116751269 J78.80456852791879
G3 X45.74111675126904 Y50.57106598984771 I-10.357868020304569 J12.126903553299492
G3 X46.055837563451774 Y50.86294416243655 I-6.027918781725888 J6.789340101522843
G3 X45.99238578680203 Y50.84771573604061 I0.6142131979695432 J-2.6522842639593907
G2 X45.680203045685275 Y51.088832487309645 I-0.06345177664974619 J0.24111675126903553
G2 X45.81218274111676 Y51.30964467005076 I0.2512690355329949 J0
G3 X48.088832487309645 Y52.62944162436548 I-14.317258883248732 J27.314720812182742
G3 X50.7741116751269 Y54.477157360406096 I-25.42639593908629 J39.83502538071066
G3 X52.32994923857868 Y55.67258883248731 I-33.80964467005076 J45.68527918781726
G3 X55.398477157360404 Y58.154822335025386 I-142.71065989847716 J179.53299492385787
G2 X57.60406091370559 Y59.95177664974619 I203.98477157360406 J-247.74111675126903
G2 X58.69796954314721 Y60.82233502538071 I50.61167512690355 J-62.588832487309645
G2 X59.91624365482234 Y61.9263959390863 I4.309644670050761 J-3.527918781725888
G2 X61.578680203045685 Y62.73857868020305 I3.8197969543147208 J-5.723350253807107
G2 X62.30456852791878 Y62.944162436548226 I2.8350253807106602 J-8.588832487309645
G2 X63.243654822335024 Y63.13705583756345 I3.4289340101522843 J-14.299492385786802
G2 X63.80964467005076 Y63.2258883248731 I3.0532994923857872 J-17.756345177664976
G2 X64.9492385786802 Y63.3756345177665 I10.098984771573605 J-72.48477157360406
G3 X66.10659898477158 Y63.52791878172589 I-8.68020304568528 J70.37817258883248
G3 X66.65228426395939 Y63.61421319796954 I-2.368020304568528 J16.898477157360404
G2 X68.76395939086295 Y64.04060913705584 I2.8984771573604062 J-8.865482233502538
G2 X70.81979695431473 Y63.96192893401015 I0.7030456852791878 J-8.307106598984772
G2 X72.58121827411168 Y63.48223350253807 I-1.4543147208121825 J-8.83756345177665
G2 X74.51015228426397 Y62.54314720812182 I-4.474619289340102 J-11.63451776649746
G2 X75.97969543147208 Y61.54568527918782 I-8.01522842639594 J-13.388324873096447
G2 X77.77664974619289 Y60.045685279187815 I-16.555837563451774 J-21.626903553299492
G2 X78.78426395939086 Y59.08629441624366 I-22.82233502538071 J-25.03299492385787
G2 X80.7233502538071 Y57.126903553299485 I-93.748730964467 J-94.6979695431472
G3 X81.94162436548224 Y55.880710659898476 I134.6522842639594 J130.50507614213197
G3 X82.51015228426397 Y55.317258883248726 I29.545685279187815 J29.175126903553302
G2 X86.32233502538071 Y51.68527918781726 I-11.449238578680204 J-15.842639593908629
G2 X88.56345177664976 Y47.73857868020305 I-11.215736040609137 J-8.974619289340101
G2 X89.40355329949239 Y43.129441624365484 I-12.431472081218274 J-4.644670050761421
G2 X89.40355329949239 Y43.088832487309645 I-15.423857868020306 J-0.04060913705583757
G2 X88.60659898477158 Y38.2005076142132 I-15.423857868020306 J0
G2 X88.64467005076142 Y37.31979695431472 I-10.538071065989847 J-0.8807106598984772
G2 X88.59644670050761 Y36.30203045685279 I-10.576142131979696 J0
G2 X88.23350253807106 Y34.421319796954315 I-10.147208121827411 J0.9796954314720813
G2 X87.6243654822335 Y32.819796954314725 I-10.48477157360406 J3.068527918781726
G2 X86.66497461928934 Y31.098984771573605 I-13.149746192893401 J6.215736040609137
G2 X85.70304568527918 Y29.763959390862947 I-14.819796954314722 J9.647208121827411
G2 X84.31725888324874 Y28.13705583756345 I-23.581218274111677 J18.685279187817258
G2 X83.43401015228426 Y27.205583756345177 I-27.63959390862944 J25.296954314720814
G2 X81.59390862944163 Y25.357868020304572 I-110.8730964467005 J108.68781725888326
G3 X79.61421319796953 Y23.368020304568525 I100.44670050761422 J-101.82994923857868
G3 X78.68274111675126 Y22.373096446700508 I24.291878172588834 J-23.68020304568528
G3 X77.24365482233503 Y20.62944162436548 I20.06345177664975 J-18.043147208121827
G3 X76.28680203045685 Y19.21319796954315 I12.388324873096446 J-9.390862944162437
G2 X76.251269035533 Y19.164974619289342 I-0.21573604060913704 J0.12944162436548223
G3 X75.4238578680203 Y18.038071065989847 I3.5558375634517763 J-3.4771573604060912
G3 X75.20558375634518 Y17.248730964467004 I1.6294416243654821 J-0.8730964467005076
G3 X75.20558375634518 Y17.192893401015226 I1.2385786802030458 J-0.05583756345177665
G3 X75.35279187817258 Y16.606598984771573 I1.2411167512690355 J0
G3 X75.80456852791878 Y16.12944162436548 I1.098984771573604 J0.5888324873096447
G3 X76.48984771573603 Y15.890862944162436 I0.8934010152284264 J1.4746192893401013
G3 X77.46446700507614 Y15.936548223350254 I0.3553299492385787 J2.9263959390862944
G3 X78.50507614213198 Y16.33248730964467 I-0.7690355329949239 J3.5761421319796955
G3 X79.41624365482234 Y16.98730964467005 I-2.6522842639593907 J4.662436548223351
G2 X79.83248730964468 Y16.799492385786802 I0.1649746192893401 J-0.18781725888324874
G2 X79.75380710659898 Y16.616751269035532 I-0.2512690355329949 J0
G3 X78.73604060913705 Y15.639593908629442 I36.90862944162437 J-39.482233502538065
G3 X77.99492385786803 Y14.875634517766498 I15.560913705583756 J-15.796954314720812
G3 X76.90609137055837 Y13.558375634517768 I11.703045685279188 J-10.794416243654823
G3 X76.37817258883248 Y12.695431472081218 I4.596446700507614 J-3.4035532994923856
G3 X76.15989847715736 Y12.147208121827411 I3.215736040609137 J-1.5964467005076142
G3 X76.08883248730965 Y11.761421319796954 I1.619289340101523 J-0.49492385786802034
G3 X76.08883248730965 Y11.687817258883248 I1.1573604060913705 J-0.07360406091370558
G3 X76.13197969543148 Y11.370558375634518 I1.1598984771573604 J0
G3 X76.28172588832487 Y11.071065989847714 I0.8527918781725887 J0.24111675126903553
G3 X76.56852791878173 Y10.812182741116752 I0.8756345177664975 J0.6751269035532994
G3 X77.12690355329948 Y10.548223350253807 I1.352791878172589 J2.1446700507614214
G3 X77.80964467005076 Y10.385786802030456 I1.2842639593908631 J3.8908629441624365
G3 X78.9010152284264 Y10.286802030456851 I1.4187817258883249 J9.550761421319796
G2 X79.14213197969544 Y10.038071065989849 I-0.007614213197969543 J-0.24873096446700507
G2 X79.1015228426396 Y9.898477157360405 I-0.2512690355329949 J0
G3 X78.64213197969544 Y8.98477157360406 I3.5939086294416245 J-2.3705583756345177
G3 X78.38578680203045 Y7.911167512690356 I4.685279187817259 J-1.6827411167512691
G3 X78.35532994923858 Y7.3908629441624365 I4.215736040609137 J-0.5203045685279188
G3 X78.38832487309645 Y6.855329949238579 I4.248730964467005 J0
G3 X78.59390862944163 Y6.220812182741117 I1.8096446700507616 J0.23096446700507614
G3 X78.78426395939086 Y5.961928934010152 I0.9822335025380711 J0.5304568527918782
G3 X78.97715736040608 Y5.8274111675126905 I0.4847715736040609 J0.48223350253807107
G3 X79.22081218274113 Y5.763959390862944 I0.28426395939086296 J0.6015228426395939
G3 X79.56345177664974 Y5.7969543147208125 I0.06852791878172589 J1.1218274111675126
G3 X80.34010152284264 Y6.175126903553299 I-0.5152284263959391 J2.0406091370558377
G3 X81.74365482233503 Y7.5126903553299496 I-5.918781725888325 J7.614213197969542
G2 X82.34010152284264 Y8.152284263959391 I36.6497461928934 J-33.578680203045685
G2 X82.63959390862944 Y8.456852791878172 I8.398477157360405 J-7.969543147208121
G2 X82.96700507614213 Y8.748730964467006 I3.314720812182741 J-3.385786802030457
G2 X83.13705583756345 Y8.84010152284264 I0.3375634517766497 J-0.416243654822335
G2 X83.49492385786802 Y8.66497461928934 I0.08883248730964467 J-0.2715736040609137
G2 X83.5228426395939 Y8.50507614213198 I-0.45177664974619286 J-0.16243654822335027
G2 X83.51269035532995 Y8.401015228426395 I-0.47969543147208127 J0
G2 X83.4771573604061 Y8.266497461928935 I-1.4492385786802031 J0.31725888324873097
G2 X83.3477157360406 Y7.880710659898477 I-14.01776649746193 J4.49238578680203
G3 X83.03553299492386 Y6.852791878172589 I11.954314720812182 J-4.197969543147208
G3 X82.9517766497462 Y6.362944162436548 I2.8020304568527923 J-0.7233502538071066
G3 X82.94416243654823 Y6.203045685279188 I1.9847715736040608 J-0.16243654822335027
G3 X82.95939086294416 Y5.974619289340102 I1.9923857868020303 J0
G3 X83.02030456852792 Y5.736040609137056 I0.8984771573604061 J0.10406091370558375
G3 X83.16243654822335 Y5.522842639593909 I0.5964467005076142 J0.2436548223350254
G3 X83.38832487309645 Y5.370558375634518 I0.5050761421319797 J0.5050761421319797
G2 X83.41370558375635 Y5.3578680203045685 I-0.09644670050761422 J-0.23096446700507614
G3 X83.93654822335024 Y5.187817258883248 I0.6852791878172588 J1.2106598984771573
G3 X84.56345177664974 Y5.228426395939087 I0.20304568527918782 J1.7385786802030456
G3 X85.1269035532995 Y5.439086294416243 I-0.6269035532994924 J2.515228426395939
G3 X85.91624365482234 Y5.928934010152284 I-2.6954314720812182 J5.218274111675127
G3 X86.5253807106599 Y6.423857868020305 I-5.149746192893401 J6.987309644670051
G3 X87.36802030456852 Y7.218274111675127 I-12.34517766497462 J13.913705583756347
G3 X87.85025380710661 Y7.718274111675127 I-17.388324873096444 J17.299492385786802
G3 X88.82487309644671 Y8.769035532994923 I-75.66497461928934 J71.13451776649745
G2 X89.7715736040609 Y9.789340101522843 I71.23857868020305 J-65.14720812182742
G2 X90.20812182741118 Y10.238578680203045 I14.137055837563452 J-13.307106598984772
G2 X90.9746192893401 Y10.944162436548224 I9.388324873096446 J-9.428934010152284
G2 X91.48984771573603 Y11.327411167512691 I3.1446700507614214 J-3.6954314720812182
G2 X91.74111675126903 Y11.33756345177665 I0.13451776649746194 J-0.21065989847715735
G2 X92.17005076142131 Y10.98984771573604 I-0.6548223350253807 J-1.248730964467005
G2 X92.55583756345177 Y10.373096446700508 I-2.0786802030456855 J-1.7258883248730963
G3 X92.79441624365482 Y9.961928934010153 I2.1472081218274113 J0.967005076142132
G3 X92.94162436548223 Y9.819796954314722 I0.45685279187817257 J0.3299492385786802
G3 X93.29187817258884 Y9.682741116751268 I0.49492385786802034 J0.751269035532995
G3 X94.06091370558374 Y9.637055837563452 I0.6192893401015229 J3.817258883248731
G3 X100.48730964467005 Y15.51522842639594 I-63.66497461928934 J76.01015228426397
G3 X107.08883248730965 Y22.66497461928934 I-85.82233502538071 J85.8730964467005
G3 X112.5228426395939 Y29.47715736040609 I-103.38071065989848 J88.05329949238578
G0 Z3
M5
M30
