(Generated by PartKam Version 0.05)

G21 G90 G40

(follow path 1)
G0 Z3
T0 M6
G17
M3
G0 X0.44543147208121825 Y55.33984771573604
G1 Z-0.1 F10
G1 X46.012690355329944 Y55.34010152284264 F150
G1 X46.012690355329944 Y0.9390862944162437
G1 X0.44416243654822335 Y0.9390862944162437
G1 X0.44416243654822335 Y55.34010152284264

(follow path 2)
G0 Z3
G0 X37.73553299492386 Y32.4497461928934
G1 Z-0.1 F10
G2 X38.11421319796955 Y32.20812182741117 I-0.5355329949238579 J-1.2588832487309645 F150
G2 X38.7741116751269 Y31.517766497461928 I-4.16497461928934 J-4.637055837563452
G2 X39.309644670050766 Y30.766497461928935 I-5.431472081218274 J-4.441624365482234
G2 X39.47715736040609 Y30.380710659898476 I-1.2436548223350254 J-0.7690355329949239
G2 X39.82741116751269 Y29.941624365482234 I-0.7538071065989848 J-0.9568527918781726
G2 X40.18274111675127 Y28.883248730964468 I-4.362944162436548 J-2.053299492385787
G2 X40.24873096446701 Y28.36548223350254 I-3.1928934010152283 J-0.6725888324873096
G2 X40.22335025380711 Y28.025380710659896 I-1.3756345177664975 J-0.06598984771573604
G2 X40.068527918781726 Y27.71065989847716 I-0.6802030456852792 J0.13705583756345177
G2 X39.83756345177665 Y27.578680203045685 I-0.3020304568527919 J0.2614213197969543
G3 X39.07106598984772 Y27.609137055837564 I-0.4593908629441624 J-1.8756345177664975
G3 X38.441624365482234 Y27.35279187817259 I0.24111675126903553 J-1.50253807106599
G3 X38.00761421319797 Y26.906091370558375 I0.9467005076142132 J-1.352791878172589
G3 X37.75126903553299 Y26.299492385786802 I1.5279187817258881 J-1
G3 X37.733502538071065 Y25.644670050761423 I1.6878172588832487 J-0.3730964467005076
G3 X37.95177664974619 Y25.096446700507613 I1.3857868020304567 J0.22842639593908629
G3 X38.434010152284266 Y24.65736040609137 I1.119289340101523 J0.7461928934010152
G3 X39.21573604060914 Y24.416243654822335 I0.9974619289340102 J1.8578680203045685
G3 X39.77157360406091 Y24.050761421319798 I3.4847715736040605 J4.6725888324873095
G3 X41.03553299492386 Y23.36040609137056 I13.687817258883248 J23.54314720812183
G2 X42.51015228426396 Y22.535532994923855 I-10.931472081218274 J-21.32233502538071
G2 X43.154822335025386 Y22.076142131979694 I-2.7461928934010156 J-4.538071065989848
G2 X43.997461928934015 Y21.111675126903556 I-2.5736040609137056 J-3.0939086294416245
G2 X44.41370558375635 Y20.058375634517766 I-2.6802030456852792 J-1.6700507614213198
G2 X44.41624365482234 Y18.771573604060915 I-4.317258883248731 J-0.6497461928934011
G2 X44.02284263959391 Y17.395939086294415 I-5.362944162436548 J0.7893401015228427
G2 X43.61675126903553 Y16.611675126903553 I-6.192893401015228 J2.7005076142131976
G2 X42.6243654822335 Y15.071065989847716 I-25.060913705583758 J15.076142131979696
G3 X41.77918781725889 Y13.79187817258883 I29.39593908629442 J-20.299492385786802
G3 X41.411167512690355 Y13.139593908629442 I7.223350253807107 J-4.543147208121827
G2 X39.40609137055838 Y10.294416243654823 I-51.13451776649746 J33.83502538071066
G2 X37.48477157360406 Y7.885786802030457 I-38.474619289340104 J28.725888324873097
G2 X35.1497461928934 Y5.355329949238579 I-32.68781725888325 J27.840101522842637
G2 X32.85532994923858 Y3.2563451776649748 I-24.799492385786802 J24.814720812182742
G2 X32.535532994923855 Y3.2741116751269033 I-0.08629441624365483 J1.4492385786802031
G2 X32.378172588832484 Y3.3350253807106602 I0.06598984771573604 J0.4010152284263959
G2 X32.30203045685279 Y3.4060913705583755 I0.15736040609137056 J0.24111675126903553
G2 X32.20812182741117 Y3.568527918781726 I0.7461928934010152 J0.5380710659898478
G3 X32.08629441624366 Y3.7639593908629445 I-0.7893401015228427 J-0.3553299492385787
G3 X31.961928934010153 Y3.865482233502538 I-0.3147208121827411 J-0.2614213197969543
G3 X31.710659898477157 Y3.66751269035533 I0.8984771573604061 J-1.3934010152284264
G3 X31.03807106598985 Y2.9771573604060912 I10.454314720812183 J-10.86548223350254
G2 X30.3248730964467 Y2.2411167512690353 I-13.19035532994924 J12.063451776649746
G2 X29.99746192893401 Y1.9644670050761421 I-2.1751269035532994 J2.230964467005076
G2 X29.403553299492383 Y1.6979695431472082 I-0.9137055837563451 J1.2385786802030458
G2 X29.02030456852792 Y1.7563451776649748 I-0.11421319796954314 J0.5380710659898478
G2 X28.865482233502537 Y1.9060913705583757 I0.11675126903553298 J0.2766497461928934
G2 X28.81218274111675 Y2.1954314720812182 I0.5177664974619289 J0.2436548223350254
G2 X28.84263959390863 Y2.383248730964467 I1.1065989847715736 J-0.08883248730964467
G2 X28.95685279187817 Y2.753807106598985 I4.413705583756345 J-1.1421319796954315
G3 X29 Y2.8857868020304567 I-4.817258883248731 J1.6928934010152286
G3 X29.012690355329948 Y2.9263959390862944 I-0.4137055837563452 J0.1319796954314721
G3 X29.007614213197968 Y2.972081218274112 I-0.07868020304568528 J0.017766497461928935
G1 X28.99238578680203 Y2.9796954314720816
G3 X28.95939086294416 Y2.9619289340101522 I0.030456852791878174 J-0.09644670050761422
G3 X28.8502538071066 Y2.8629441624365484 I0.9974619289340102 J-1.2284263959390864
G3 X28.748730964467004 Y2.7588832487309647 I2.796954314720812 J-2.8578680203045685
G3 X28.53807106598985 Y2.535532994923858 I12.65989847715736 J-12.01522842639594
G2 X28.032994923857867 Y2.053299492385787 I-2.6497461928934007 J2.2741116751269037
G2 X27.725888324873097 Y1.9035532994923856 I-0.5101522842639594 J0.6573604060913706
G2 X27.46954314720812 Y1.9238578680203045 I-0.09644670050761422 J0.383248730964467
G2 X27.284263959390863 Y2.0964467005076144 I0.15482233502538073 J0.35786802030456855
G2 X27.172588832487307 Y2.6979695431472086 I0.8756345177664975 J0.47208121827411165
G2 X27.46700507614213 Y3.4847715736040605 I1.8604060913705585 J-0.24619289340101522
G2 X26.746192893401016 Y3.6091370558375635 I0.09137055837563453 J2.7106598984771573
G2 X26.477157360406093 Y3.7969543147208125 I0.1649746192893401 J0.5228426395939086
G2 X26.395939086294415 Y4.048223350253807 I0.3071065989847716 J0.23857868020304568
G2 X26.5 Y4.461928934010152 I1.015228426395939 J-0.03807106598984772
G2 X26.695431472081218 Y4.779187817258883 I1.8883248730964466 J-0.9365482233502538
G2 X27.086294416243657 Y5.251269035532995 I4.586294416243655 J-3.3984771573604062
G2 X27.350253807106597 Y5.525380710659898 I5.81725888324873 J-5.365482233502537
G2 X27.776649746192895 Y5.934010152284264 I13.444162436548224 J-13.649746192893401
G2 X26.95177664974619 Y5.469543147208121 I-1.2868020304568528 J1.3223350253807107
G2 X26.332487309644673 Y5.558375634517766 I-0.20050761421319796 J0.7791878172588833
G2 X26.139593908629443 Y5.761421319796955 I0.27411167512690354 J0.45177664974619286
G2 X26.078680203045685 Y6.032994923857869 I0.46446700507614214 J0.24873096446700507
G2 X26.16497461928934 Y6.3502538071066 I0.7411167512690355 J-0.03299492385786802
G2 X26.472081218274113 Y6.769035532994923 I1.6243654822335025 J-0.8705583756345179
G2 X26.814720812182742 Y7.276649746192893 I4.784263959390863 J-2.8578680203045685
G2 X27.32741116751269 Y7.898477157360406 I7.659898477157361 J-5.807106598984771
G2 X27.659898477157363 Y8.251269035532996 I8.969543147208123 J-8.065989847715736
G2 X28.35786802030457 Y8.954314720812183 I36.213197969543145 J-35.2994923857868
G3 X29.007614213197968 Y9.606598984771574 I-38.421319796954315 J38.9492385786802
G3 X29.31725888324873 Y9.931472081218274 I-9.380710659898476 J9.195431472081218
G3 X29.80203045685279 Y10.50253807106599 I-7.769035532994923 J7.1091370558375635
G3 X30.13705583756345 Y10.967005076142131 I-4.822335025380711 J3.8197969543147208
G3 X30.69796954314721 Y12.223350253807105 I-3.715736040609137 J2.4187817258883246
G3 X30.80710659898477 Y13.436548223350254 I-3.3375634517766493 J0.9060913705583756
G3 X31.088832487309645 Y15.164974619289339 I-5.073604060913706 J1.715736040609137
G3 X30.796954314720814 Y16.761421319796955 I-4.596446700507614 J-0.012690355329949238
G3 X30.02030456852792 Y18.129441624365484 I-4.66497461928934 J-1.7436548223350254
G3 X28.68781725888325 Y19.398477157360404 I-5.317258883248731 J-4.256345177664975
G2 X28.47969543147208 Y19.604060913705585 I10.284263959390863 J10.563451776649746
G2 X28.050761421319798 Y20.043147208121827 I47.15736040609137 J46.56345177664974
G3 X27.36802030456853 Y20.733502538071065 I-33.70812182741117 J-32.67005076142132
G3 X27.01269035532995 Y21.068527918781726 I-8.350253807106599 J-8.434010152284264
G3 X26.38578680203046 Y21.593908629441625 I-6.416243654822335 J-7.038071065989849
G3 X25.875634517766496 Y21.941624365482234 I-3.2944162436548226 J-4.302030456852791
G3 X24.48223350253807 Y22.428934010152286 I-1.885786802030457 J-3.149746192893401
G3 X23.170050761421322 Y22.30710659898477 I-0.3959390862944162 J-2.9137055837563453
G2 X22.967005076142133 Y22.27664974619289 I-1.050761421319797 J6.020304568527919
G2 X22.555837563451778 Y22.223350253807105 I-3.4847715736040605 J24.873096446700508
G3 X21.758883248730964 Y22.0989847715736 I1.550761421319797 J-12.583756345177665
G3 X21.38578680203046 Y22.002538071065988 I0.5431472081218274 J-2.878172588832487
G3 X20.819796954314718 Y21.725888324873097 I0.7335025380710659 J-2.2233502538071064
G3 X20.4010152284264 Y21.345177664974617 I1.0431472081218274 J-1.5609137055837563
G3 X20.01015228426396 Y21.032994923857867 I17.413705583756347 J-22.33248730964467
G3 X19.230964467005077 Y20.398477157360407 I71.15989847715736 J-88.00253807106598
G2 X18.14720812182741 Y19.52284263959391 I-51.50761421319797 J62.555837563451774
G2 X17.596446700507617 Y19.098984771573605 I-12.535532994923857 J15.771573604060913
G2 X16.64213197969543 Y18.444162436548226 I-9.974619289340103 J13.47715736040609
G2 X15.83248730964467 Y17.9746192893401 I-5.903553299492385 J9.248730964467004
G2 X15.984771573604062 Y18 I0.2614213197969543 J-1.015228426395939
G2 X16.0253807106599 Y17.99492385786802 I0.007614213197969543 J-0.07614213197969544
G2 X16.038071065989847 Y17.96954314720812 I-0.010152284263959392 J-0.020304568527918784
G2 X16.007614213197968 Y17.903553299492387 I-0.15736040609137056 J0.03299492385786802
G2 X15.926395939086294 Y17.81979695431472 I-0.5507614213197969 J0.4365482233502538
G2 X15.530456852791879 Y17.4746192893401 I-9.629441624365482 J10.634517766497462
G3 X14.880710659898478 Y16.903553299492387 I13.081218274111674 J-15.553299492385786
G3 X14.581218274111675 Y16.60406091370558 I3.276649746192893 J-3.5761421319796955
G3 X14.18020304568528 Y16.027918781725887 I1.9619289340101522 J-1.7969543147208122
G3 X14.124365482233504 Y15.718274111675129 I0.46954314720812185 J-0.24111675126903553
G2 X13.545685279187818 Y15.428934010152284 I-1.3502538071065988 J1.9847715736040608
G2 X12.97969543147208 Y15.32994923857868 I-0.6015228426395939 J1.779187817258883
G2 X12.467005076142133 Y15.385786802030456 I-0.04060913705583757 J2.017766497461929
G2 X11.868020304568528 Y15.598984771573603 I0.7233502538071066 J3.00253807106599
G2 X11.398477157360407 Y15.857868020304569 I1.7715736040609138 J3.738578680203046
G2 X10.786802030456853 Y16.294416243654823 I4.406091370558375 J6.837563451776649
G2 X10.439086294416244 Y16.578680203045685 I6.543147208121828 J8.350253807106599
G2 X9.738578680203046 Y17.190355329949238 I29.36294416243655 J34.35532994923858
G3 X9.121827411167512 Y17.730964467005077 I-32.48730964467005 J-36.46192893401015
G3 X8.8248730964467 Y17.97715736040609 I-7.022842639593908 J-8.154822335025381
G3 X8.312182741116752 Y18.35532994923858 I-5.022842639593908 J-6.269035532994924
G3 X7.936548223350254 Y18.581218274111674 I-2.1472081218274113 J-3.16497461928934
G3 X7.522842639593908 Y19.15228426395939 I-5.2030456852791875 J-3.33248730964467
G3 X6.550761421319797 Y20.27918781725888 I-21.302030456852794 J-17.373096446700508
G2 X5.5456852791878175 Y21.449238578680202 I20.081218274111677 J18.27157360406091
G2 X5.114213197969542 Y22.050761421319795 I4.8908629441624365 J3.967005076142132
G2 X4.596446700507614 Y23.144670050761423 I4.195431472081218 J2.6522842639593907
G2 X4.416243654822335 Y24.15989847715736 I3.4213197969543145 J1.1294416243654823
G2 X3.9238578680203045 Y25.89086294416244 I13.50507614213198 J4.781725888324873
G2 X3.588832487309644 Y27.95685279187817 I19.00507614213198 J4.144670050761421
G2 X3.4670050761421316 Y29.725888324873097 I22.873096446700508 J2.456852791878173
G2 X3.472081218274112 Y31.868020304568528 I33.48730964467005 J1
G2 X4.180203045685279 Y32.39847715736041 I1.3781725888324872 J-1.098984771573604
G2 X5.192893401015228 Y32.57360406091371 I0.9035532994923857 J-2.2030456852791875
G2 X5.850253807106599 Y32.48477157360406 I-0.1700507614213198 J-3.7030456852791875
G2 X7.317258883248731 Y32.088832487309645 I-4.345177664974619 J-18.967005076142133
G3 X8.030456852791879 Y31.873096446700508 I11.84010152284264 J37.83756345177665
G3 X8.370558375634518 Y31.779187817258887 I2.479695431472081 J8.47969543147208
G3 X8.941624365482234 Y31.66497461928934 I1.6065989847715736 J6.439086294416244
G3 X9.347715736040609 Y31.626903553299492 I0.5050761421319797 J3.1954314720812182
G3 X10.738578680203046 Y31.35532994923858 I2.1294416243654823 J7.279187817258883
G3 X12.119289340101522 Y31.35532994923858 I0.7005076142131981 J7.15482233502538
G3 X12.964467005076141 Y31.482233502538072 I-0.7436548223350253 J7.82741116751269
G3 X14.65228426395939 Y31.878172588832484 I-6.565989847715736 J31.83756345177665
G2 X16.61928934010152 Y32.33502538071066 I9.33248730964467 J-35.54060913705584
G2 X17.81218274111675 Y32.522842639593904 I2.6345177664974617 J-12.868020304568528
G1 X18.236040609137056 Y33.01269035532995
G2 X18.314720812182742 Y33.621827411167516 I38.81218274111675 J-4.781725888324873
G2 X18.456852791878173 Y34.60406091370559 I101.26142131979697 J-14.091370558375635
G3 X18.64213197969543 Y35.99238578680203 I-42.40355329949239 J6.322335025380711
G3 X18.69796954314721 Y36.670050761421315 I-9.98477157360406 J1.1573604060913705
G3 X18.69289340101523 Y37.72842639593909 I-10.49492385786802 J0.5025380710659898
G3 X18.571065989847714 Y39.04822335025381 I-16.446700507614214 J-0.8730964467005076
G3 X18.083756345177665 Y40.578680203045685 I-6.403553299492386 J-1.1903553299492384
G3 X17.19796954314721 Y42.03299492385787 I-6.66497461928934 J-3.065989847715736
G3 X16.11421319796954 Y43.17258883248731 I-6.48984771573604 J-5.0786802030456855
G3 X14.705583756345177 Y44.200507614213194 I-6.677664974619289 J-7.677664974619289
G3 X13.223350253807107 Y45.18274111675127 I-9.50253807106599 J-12.720812182741117
G3 X11.769035532994925 Y45.91878172588832 I-6.713197969543147 J-11.472081218274113
G3 X10.111675126903554 Y46.49492385786802 I-4.799492385786802 J-11.134517766497463
G3 X8.50507614213198 Y46.79441624365482 I-2.718274111675127 J-10.13959390862944
G2 X7.586294416243655 Y47.1497461928934 I2.286802030456853 J7.258883248730964
G2 X6.949238578680204 Y47.51522842639594 I1.784263959390863 J3.840101522842639
G2 X6.586294416243654 Y47.80456852791878 I2.152284263959391 J3.0888324873096447
G2 X5.944162436548224 Y48.41878172588832 I9.261421319796954 J10.31218274111675
G3 X5.152284263959391 Y49.18020304568528 I-13.758883248730964 J-13.474619289340101
G3 X4.543147208121827 Y49.69543147208122 I-6.83248730964467 J-7.5
G2 X4.16751269035533 Y50.05329949238579 I1.5355329949238579 J1.9771573604060912
G2 X4.022842639593909 Y50.309644670050766 I0.6142131979695432 J0.5203045685279188
G2 X3.99746192893401 Y50.5507614213198 I0.48984771573604063 J0.1700507614213198
G2 X4.088832487309645 Y50.78426395939086 I0.5482233502538071 J-0.07614213197969544
G2 X4.230964467005077 Y50.94670050761422 I0.6903553299492386 J-0.46700507614213194
G2 X4.5 Y51.14467005076143 I1.3248730964467004 J-1.5228426395939088
G2 X4.6725888324873095 Y51.24111675126904 I1.4619289340101524 J-2.383248730964467
G2 X5.020304568527919 Y51.41370558375635 I4.967005076142132 J-9.545685279187818
G3 X5.34517766497462 Y51.58121827411168 I-2.6497461928934007 J5.5761421319796955
G3 X5.426395939086294 Y51.63705583756345 I-0.21319796954314718 J0.3857868020304569
G3 X5.446700507614213 Y51.7258883248731 I-0.053299492385786795 J0.06091370558375635
G3 X5.3578680203045685 Y51.81725888324873 I-0.14974619289340102 J-0.05583756345177665
G2 X4.203045685279188 Y52.63197969543147 I1.1294416243654823 J2.8274111675126905
G2 X4.022842639593909 Y53.33502538071066 I0.6015228426395939 J0.5304568527918782
G2 X4.177664974619289 Y53.619289340101524 I0.5634517766497462 J-0.12436548223350254
G2 X4.48984771573604 Y53.80203045685279 I0.5025380710659898 J-0.5050761421319797
G2 X4.906091370558376 Y53.82741116751269 I0.2690355329949239 J-0.9695431472081218
G2 X5.4873096446700504 Y53.65228426395939 I-0.30964467005076146 J-2.0812182741116754
G3 X6.68274111675127 Y53.40862944162437 I2.1167512690355332 J7.279187817258883
G3 X7.197969543147208 Y53.444162436548226 I0.1649746192893401 J1.3401015228426396
G3 X7.3629441624365475 Y53.576142131979694 I-0.06852791878172589 J0.25888324873096447
G3 X7.368020304568528 Y53.763959390862944 I-0.18527918781725888 J0.09898477157360405
G3 X7.195431472081219 Y54.01015228426396 I-0.751269035532995 J-0.35025380710659904
G3 X6.588832487309645 Y54.52284263959391 I-4.053299492385786 J-4.1725888324873095
G2 X7.3604060913705585 Y54.68527918781726 I0.8375634517766497 J-2.0761421319796955
G2 X8.472081218274111 Y54.57868020304568 I0.1319796954314721 J-4.48984771573604
G2 X9.137055837563452 Y54.39340101522842 I-1.4289340101522843 J-6.3908629441624365
G2 X10.573604060913706 Y53.868020304568525 I-10.284263959390863 J-30.472081218274113
G3 X11.530456852791877 Y53.50761421319797 I18.20304568527919 J46.505076142131976
G3 X11.99492385786802 Y53.34771573604061 I3.9923857868020307 J10.852791878172589
G3 X12.784263959390863 Y53.13197969543147 I2.713197969543147 J8.464467005076141
G3 X13.36548223350254 Y53.04314720812183 I1 J4.51015228426396
G2 X16.606598984771573 Y51.98730964467005 I-31.928934010152282 J-103.59644670050761
G2 X19.195431472081218 Y51.04314720812183 I-22.96446700507614 J-66.95685279187816
G2 X22.225888324873097 Y49.7741116751269 I-21.873096446700508 J-56.502538071065985
G2 X24.804568527918782 Y48.515228426395936 I-19.02030456852792 J-42.18781725888324
G2 X26.705583756345177 Y47.78934010152284 I-1.5837563451776648 J-7.015228426395939
G2 X28.763959390862944 Y46.31979695431472 I-5.395939086294417 J-9.738578680203046
G2 X29.49746192893401 Y45.61167512690355 I-10.093908629441623 J-11.19289340101523
G2 X30.373096446700508 Y44.65736040609137 I-17.49492385786802 J-16.941624365482234
G2 X30.873096446700508 Y44.068527918781726 I-22.16243654822335 J-19.289340101522843
G2 X31.83248730964467 Y42.890862944162436 I-87.73604060913705 J-72.3984771573604
G3 X31.898477157360404 Y42.807106598984774 I1211.4568527918782 J972.7715736040609
G3 X31.931472081218274 Y42.766497461928935 I301.03299492385787 J241.75634517766497
G2 X32.19543147208122 Y42.09137055837563 I-2.8324873096446703 J-1.4949238578680202
G2 X32.33502538071066 Y41.24365482233503 I-4.342639593908629 J-1.1497461928934012
G2 X32.34517766497462 Y40.723350253807105 I-5.512690355329949 J-0.37055837563451777
G2 X32.29187817258883 Y39.65989847715736 I-23.02284263959391 J0.6269035532994924
G3 X32.24873096446701 Y39.02030456852792 I38.296954314720814 J-2.817258883248731
G3 X32.23857868020305 Y38.70304568527919 I9.362944162436548 J-0.5329949238578681
G2 X32.18781725888325 Y38.129441624365484 I-3.126903553299493 J-0.010152284263959392
G2 X31.941624365482234 Y37.076142131979694 I-10.923857868020303 J1.9923857868020303
G3 X31.78172588832487 Y36.47208121827411 I14.555837563451776 J-4.149746192893401
G3 X31.72842639593909 Y36.19796954314721 I2.9213197969543145 J-0.7030456852791878
G3 X31.710659898477157 Y35.74873096446701 I2.1395939086294415 J-0.30964467005076146
G3 X31.779187817258887 Y35.421319796954315 I1.1979695431472082 J0.07868020304568528
G3 X32.23857868020305 Y34.83502538071066 I1.116751269035533 J0.4010152284263959
G3 X33.609137055837564 Y34.203045685279186 I2.6903553299492384 J4.043147208121828
G3 X35.05329949238578 Y33.58375634517766 I15.601522842639595 J34.41878172588832
G3 X35.799492385786806 Y33.31725888324873 I3.583756345177665 J8.868020304568528
G2 X36.619289340101524 Y33.00761421319797 I-2.16497461928934 J-6.972081218274112
G2 X37.736040609137056 Y32.4492385786802 I-6.040609137055838 J-13.472081218274113
G0 Z3
M5
M30
