(Generated by PartKam Version 0.05)

G20 G90 G40

(pocket 1)
G0 Z0.5
T0 M6
G17
M3
G0 X3.5964 Y5.978
G1 Z-0.0312 F10
G2 X3.6616 Y6.0815 I0.8504 J-0.4632 F30
G3 X3.577 Y6.1619 I-4.1522 J-4.2826
G3 X3.5405 Y6.1954 I-1.8932 J-2.0307
G2 X3.5284 Y6.2024 I0.6368 J1.107
G2 X3.5296 Y6.1892 I-0.9666 J-0.0942
G2 X3.5563 Y6.0882 I-1.0824 J-0.3408
G2 X3.5594 Y6.0734 I-1.0159 J-0.2196
G2 X3.5964 Y5.978 I-1.084 J-0.4755
G1 X3.5698 Y5.8939 F30
G2 X3.5847 Y5.8314 I-1.0355 J-0.2801 F30
G2 X3.7281 Y6.0865 I0.8621 J-0.3165
G3 X3.699 Y6.1149 I-4.1467 J-4.2135
G3 X3.6111 Y6.1985 I-4.1895 J-4.316
G3 X3.5699 Y6.2361 I-1.9273 J-2.0673
G2 X3.527 Y6.2618 I0.6074 J1.0662
G2 X3.4616 Y6.3054 I0.7022 J1.1236
G2 X3.4647 Y6.2908 I-0.9023 J-0.1976
G2 X3.4802 Y6.1795 I-0.9029 J-0.1826
G2 X3.5074 Y6.0777 I-1.033 J-0.3311
G2 X3.5114 Y6.0583 I-0.967 J-0.2091
G2 X3.5698 Y5.8939 I-1.0361 J-0.4604
G1 X3.5215 Y5.8809 F30
G2 X3.556 Y5.6587 I-0.9872 J-0.2671 F30
G1 X3.556 Y5.6582
G2 X3.561 Y5.6335 I-0.9411 J-0.2012
G2 X3.5617 Y5.6295 I-0.9772 J-0.1823
G2 X3.5863 Y5.6317 I0.0971 J-0.9544
G2 X3.7959 Y6.0896 I0.8605 J-0.1169
G3 X3.7338 Y6.1508 I-4.2146 J-4.2166
G3 X3.6452 Y6.2351 I-4.2244 J-4.3519
G3 X3.5993 Y6.277 I-1.9614 J-2.1039
G2 X3.5535 Y6.3042 I0.578 J1.0254
G2 X3.4682 Y6.3624 I0.6757 J1.0812
G2 X3.4264 Y6.3949 I0.7334 J0.9858
G3 X3.4251 Y6.3955 I-0.168 J-0.3449
G2 X3.3935 Y6.4 I0.1344 J1.0594
G2 X3.382 Y6.4019 I0.146 J0.9275
G2 X3.4157 Y6.2809 I-0.8227 J-0.2941
G2 X3.4308 Y6.1698 I-0.8539 J-0.1727
G2 X3.4586 Y6.0671 I-0.9836 J-0.3214
G2 X3.4634 Y6.0431 I-0.9181 J-0.1985
G2 X3.5215 Y5.8809 I-0.9881 J-0.4453
G1 X3.4733 Y5.8678 F30
G2 X3.5061 Y5.6565 I-0.939 J-0.254 F30
G2 X3.5063 Y5.6518 I-0.8583 J-0.0377
G2 X3.5118 Y5.6243 I-0.8913 J-0.1948
G2 X3.5198 Y5.5738 I-0.9281 J-0.1731
G2 X3.5489 Y5.5778 I0.1574 J-1.0504
G2 X3.6179 Y5.5835 I0.1099 J-0.9027
G2 X3.6332 Y5.6025 I0.6681 J-0.5224
G2 X3.8653 Y6.0906 I0.8137 J-0.0877
G3 X3.856 Y6.1001 I-1.871 J-1.8315
G3 X3.7686 Y6.1867 I-4.2747 J-4.2271
G3 X3.6793 Y6.2716 I-4.2592 J-4.3877
G3 X3.6285 Y6.3179 I-1.9955 J-2.1404
G2 X3.58 Y6.3466 I0.5488 J0.9844
G2 X3.498 Y6.4025 I0.6492 J1.0388
G2 X3.4537 Y6.4372 I0.7035 J0.9457
G3 X3.4392 Y6.4442 I-0.1952 J-0.3872
G2 X3.4013 Y6.4494 I0.1204 J1.0107
G2 X3.2981 Y6.472 I0.1382 J0.8781
G2 X3.3667 Y6.271 I-0.7388 J-0.3642
G2 X3.3813 Y6.1602 I-0.8049 J-0.1628
G2 X3.4097 Y6.0565 I-0.9341 J-0.3117
G2 X3.4154 Y6.028 I-0.8693 J-0.1879
G2 X3.4164 Y6.0258 I-0.9494 J-0.4344
G2 X3.4733 Y5.8678 I-0.941 J-0.4279
G1 X3.425 Y5.8548 F30
G2 X3.4561 Y5.6543 I-0.8907 J-0.2409 F30
G2 X3.4565 Y5.6455 I-0.8084 J-0.0355
G2 X3.4627 Y5.6151 I-0.8415 J-0.1885
G2 X3.4755 Y5.5153 I-0.8789 J-0.1639
G2 X3.4816 Y5.5165 I0.2327 J-1.1492
G2 X3.5549 Y5.5281 I0.1956 J-0.993
G2 X3.6433 Y5.5343 I0.1038 J-0.8531
G2 X3.6814 Y5.5821 I0.6427 J-0.4732
G2 X3.6823 Y5.5915 I0.7696 J-0.0677
G2 X3.9091 Y6.0637 I0.7646 J-0.0767
G2 X3.9352 Y6.0881 I0.5424 J-0.5536
G2 X3.9317 Y6.0938 I0.6963 J0.4343
G3 X3.8916 Y6.1352 I-1.9374 J-1.8346
G3 X3.8034 Y6.2225 I-4.3103 J-4.2622
G3 X3.7134 Y6.3082 I-4.294 J-4.4236
G3 X3.6575 Y6.359 I-2.0296 J-2.177
G2 X3.6065 Y6.389 I0.5198 J0.9434
G2 X3.5279 Y6.4426 I0.6227 J0.9964
G2 X3.4813 Y6.4792 I0.6737 J0.9056
G3 X3.4531 Y6.4927 I-0.2229 J-0.4292
G1 X3.4525 Y6.493
G2 X3.409 Y6.4988 I0.107 J0.9619
G2 X3.295 Y6.525 I0.1304 J0.8287
G2 X3.2055 Y6.5332 I0.0256 J0.7685
G2 X3.3177 Y6.2611 I-0.6462 J-0.4255
G2 X3.3318 Y6.1505 I-0.7559 J-0.1529
G2 X3.3608 Y6.046 I-0.8846 J-0.3021
G2 X3.3673 Y6.0129 I-0.8204 J-0.1774
G2 X3.3709 Y6.0051 I-0.9014 J-0.4193
G2 X3.425 Y5.8548 I-0.8955 J-0.4072
G1 X3.3767 Y5.8417 F30
G2 X3.4062 Y5.6521 I-0.8425 J-0.2279 F30
G2 X3.4066 Y5.6391 I-0.7584 J-0.0333
G2 X3.4135 Y5.606 I-0.7917 J-0.1821
G2 X3.4278 Y5.453 I-0.8297 J-0.1548
G2 X3.4913 Y5.4674 I0.2804 J-1.087
G2 X3.561 Y5.4785 I0.186 J-0.944
G2 X3.6561 Y5.4844 I0.0978 J-0.8034
G2 X3.6691 Y5.4844 I0.0036 J-0.761
G2 X3.73 Y5.5616 I0.6169 J-0.4233
G2 X3.732 Y5.5865 I0.721 J-0.0472
G2 X3.9441 Y6.028 I0.7148 J-0.0717
G2 X3.9976 Y6.0755 I0.5074 J-0.5179
G3 X3.9977 Y6.0839 I-1.4853 J0.0316
G2 X3.9717 Y6.1243 I0.6338 J0.4385
G3 X3.9271 Y6.1704 I-1.9774 J-1.8651
G3 X3.8383 Y6.2584 I-4.3458 J-4.2974
G3 X3.7475 Y6.3448 I-4.3288 J-4.4595
G3 X3.6865 Y6.4001 I-2.0637 J-2.2136
G2 X3.633 Y6.4314 I0.4909 J0.9022
G2 X3.5577 Y6.4828 I0.5962 J0.954
G2 X3.5093 Y6.521 I0.6438 J0.8654
G3 X3.4732 Y6.5385 I-0.2508 J-0.471
G3 X3.4653 Y6.5419 I-0.1896 J-0.4314
G2 X3.4168 Y6.5482 I0.0942 J0.913
G2 X3.3033 Y6.5748 I0.1227 J0.7794
G2 X3.0715 Y6.6191 I0.0174 J0.7188
G2 X3.0984 Y6.5906 I-0.5432 J-0.5391
G2 X3.2686 Y6.2512 I-0.539 J-0.4828
G2 X3.2822 Y6.1409 I-0.7069 J-0.1429
G2 X3.312 Y6.0354 I-0.835 J-0.2925
G2 X3.3191 Y5.9978 I-0.7715 J-0.1668
G2 X3.3254 Y5.9844 I-0.8532 J-0.4042
G2 X3.3767 Y5.8417 I-0.85 J-0.3865
G1 X3.3285 Y5.8286 F30
G2 X3.3562 Y5.6499 I-0.7942 J-0.2148 F30
G2 X3.3568 Y5.6328 I-0.7085 J-0.0311
G2 X3.3644 Y5.5968 I-0.7418 J-0.1758
G2 X3.3778 Y5.4512 I-0.7806 J-0.1456
G2 X3.3751 Y5.3857 I-0.7941 J0
G2 X3.4109 Y5.3965 I0.4587 J-1.4548
G2 X3.501 Y5.4184 I0.2974 J-1.0305
G2 X3.567 Y5.4289 I0.1763 J-0.8949
G2 X3.6563 Y5.4344 I0.0918 J-0.7538
G2 X3.6904 Y5.4337 I0.0024 J-0.711
G2 X3.6963 Y5.4348 I0.2253 J-1.1788
G2 X3.779 Y5.541 I0.5897 J-0.3737
G2 X3.7818 Y5.5815 I0.672 J-0.0266
G2 X3.9791 Y5.9923 I0.6651 J-0.0667
G2 X4.0469 Y6.0504 I0.4725 J-0.4822
G3 X4.0479 Y6.0996 I-1.5346 J0.0567
G2 X4.0118 Y6.1546 I0.5836 J0.4228
G3 X3.9627 Y6.2055 I-2.0175 J-1.8955
G3 X3.8731 Y6.2943 I-4.3814 J-4.3326
G3 X3.7816 Y6.3813 I-4.3637 J-4.4954
G3 X3.7191 Y6.4381 I-2.0978 J-2.2502
G3 X3.7152 Y6.4414 I-1.0772 J-1.2209
G2 X3.6595 Y6.4738 I0.4621 J0.8609
G2 X3.5876 Y6.5229 I0.5697 J0.9116
G2 X3.5375 Y6.5626 I0.614 J0.8253
G3 X3.4933 Y6.5843 I-0.2791 J-0.5126
G3 X3.4775 Y6.5909 I-0.2098 J-0.4772
G2 X3.4246 Y6.5976 I0.082 J0.864
G2 X3.3115 Y6.6246 I0.1149 J0.73
G2 X2.7784 Y6.9018 I0.0091 J0.6689
G2 X2.7411 Y6.9188 I1.8314 J4.0544
G3 X2.7219 Y6.9275 I-0.487 J-1.0523
G2 X2.7729 Y6.881 I-1.6619 J-1.8719
G2 X2.8598 Y6.7948 I-1.5516 J-1.6534
G2 X2.934 Y6.7111 I-1.0525 J-1.0067
G2 X2.978 Y6.6539 I-0.9058 J-0.7421
G2 X3.0063 Y6.6122 I-0.7177 J-0.5175
G2 X3.0611 Y6.5572 I-0.478 J-0.5322
G2 X3.2196 Y6.2413 I-0.5018 J-0.4495
G2 X3.2326 Y6.1313 I-0.6579 J-0.133
G2 X3.2631 Y6.0248 I-0.7853 J-0.2829
G2 X3.2709 Y5.9827 I-0.7227 J-0.1562
G2 X3.2799 Y5.9637 I-0.805 J-0.3892
G2 X3.3285 Y5.8286 I-0.8045 J-0.3658
G1 X3.2802 Y5.8156 F30
G2 X3.3063 Y5.6477 I-0.7459 J-0.2018 F30
G2 X3.3069 Y5.6265 I-0.6585 J-0.0289
G2 X3.3152 Y5.5876 I-0.6919 J-0.1695
G2 X3.3278 Y5.4512 I-0.7314 J-0.1364
G2 X3.3253 Y5.3896 I-0.7441 J0
G2 X3.316 Y5.3175 I-0.7974 J0.0662
G2 X3.3315 Y5.3182 I0.0385 J-0.6441
G2 X3.341 Y5.3216 I0.5445 J-1.5065
G2 X3.4247 Y5.3485 I0.4928 J-1.3907
G2 X3.5106 Y5.3693 I0.2835 J-0.9825
G2 X3.5731 Y5.3792 I0.1666 J-0.8459
G2 X3.6564 Y5.3844 I0.0857 J-0.7042
G2 X3.694 Y5.3835 I0.0022 J-0.661
G2 X3.7272 Y5.3895 I0.2217 J-1.1286
G2 X3.8285 Y5.5202 I0.5588 J-0.3284
G2 X3.8315 Y5.5766 I0.6225 J-0.0058
G2 X4.0141 Y5.9565 I0.6153 J-0.0617
G2 X4.0958 Y6.024 I0.4375 J-0.4465
G3 X4.0979 Y6.1071 I-1.5835 J0.0831
G3 X4.0979 Y6.1161 I-1.5857 J0
G2 X4.0521 Y6.1847 I0.5336 J0.4063
G3 X3.9982 Y6.2407 I-2.0578 J-1.9256
G3 X3.9079 Y6.3302 I-4.4169 J-4.3677
G3 X3.8157 Y6.4179 I-4.3985 J-4.5312
G3 X3.7521 Y6.4755 I-2.1319 J-2.2867
G3 X3.7438 Y6.4829 I-1.1102 J-1.2584
G2 X3.686 Y6.5162 I0.4335 J0.8195
G2 X3.6174 Y6.563 I0.5432 J0.8692
G2 X3.566 Y6.604 I0.5842 J0.7852
G3 X3.5134 Y6.6301 I-0.3076 J-0.554
G3 X3.4891 Y6.6401 I-0.2299 J-0.523
G2 X3.4324 Y6.647 I0.0704 J0.8148
G2 X3.3197 Y6.6746 I0.1071 J0.6806
G2 X2.8113 Y6.9418 I0.0009 J0.619
G2 X2.7621 Y6.9642 I1.7984 J4.0144
G3 X2.6849 Y6.9968 I-0.508 J-1.0977
G3 X2.4172 Y7.0954 I-4.6373 J-12.165
G2 X2.4597 Y7.0684 I-0.6115 J-1.0049
G2 X2.565 Y6.9927 I-1.0678 J-1.5967
G2 X2.6525 Y6.9216 I-1.3907 J-1.8031
G2 X2.7387 Y6.8445 I-1.5926 J-1.8659
G2 X2.8237 Y6.7603 I-1.5173 J-1.6169
G2 X2.8953 Y6.6794 I-1.0164 J-0.9721
G2 X2.9374 Y6.6247 I-0.8671 J-0.7104
G2 X2.9678 Y6.5795 I-0.6771 J-0.4882
G2 X3.0239 Y6.5239 I-0.4395 J-0.4995
G2 X3.1706 Y6.2314 I-0.4645 J-0.4161
G2 X3.1828 Y6.1218 I-0.6089 J-0.1231
G2 X3.2142 Y6.0143 I-0.7356 J-0.2733
G2 X3.2226 Y5.9677 I-0.6738 J-0.1457
G2 X3.2343 Y5.943 I-0.7567 J-0.3741
G2 X3.2802 Y5.8156 I-0.759 J-0.3451
G1 X3.2319 Y5.8025 F30
G2 X3.2563 Y5.6455 I-0.6977 J-0.1887 F30
G2 X3.2569 Y5.6202 I-0.6086 J-0.0267
G2 X3.2661 Y5.5785 I-0.642 J-0.1632
G2 X3.2778 Y5.4512 I-0.6823 J-0.1273
G2 X3.2755 Y5.3938 I-0.6941 J0
G2 X3.2626 Y5.3046 I-0.7476 J0.0621
G2 X3.2724 Y5.2629 I-0.6611 J-0.1771
G2 X3.3411 Y5.2685 I0.0821 J-0.5896
G2 X3.3577 Y5.2745 I0.535 J-1.4568
G2 X3.4386 Y5.3004 I0.4761 J-1.3436
G2 X3.5203 Y5.3202 I0.2697 J-0.9344
G2 X3.5791 Y5.3296 I0.157 J-0.7968
G2 X3.6566 Y5.3344 I0.0797 J-0.6545
G2 X3.6975 Y5.3332 I0.002 J-0.611
G2 X3.7589 Y5.3438 I0.2182 J-1.0783
G2 X3.8786 Y5.4991 I0.5271 J-0.2827
G2 X3.8784 Y5.5144 I0.5724 J0.0153
G2 X3.8813 Y5.5716 I0.5726 J0
G2 X4.0491 Y5.9208 I0.5656 J-0.0567
G2 X4.1442 Y5.9961 I0.4025 J-0.4108
G3 X4.1479 Y6.1071 I-1.6319 J0.111
G3 X4.1477 Y6.1336 I-1.6357 J0
G2 X4.0925 Y6.2147 I0.4838 J0.3888
G3 X4.0911 Y6.2162 I-1.0692 J-0.9951
G3 X4.0338 Y6.2759 I-2.0968 J-1.957
G3 X3.9427 Y6.3661 I-4.4525 J-4.4029
G3 X3.8498 Y6.4545 I-4.4333 J-4.5671
G3 X3.7852 Y6.513 I-2.166 J-2.3233
G3 X3.7722 Y6.5244 I-1.1433 J-1.2959
G2 X3.7125 Y6.5586 I0.4051 J0.7779
G2 X3.6472 Y6.6031 I0.5167 J0.8268
G2 X3.5948 Y6.6451 I0.5543 J0.7451
G3 X3.5335 Y6.6758 I-0.3364 J-0.5951
G3 X3.5015 Y6.6889 I-0.25 J-0.5687
G3 X3.5003 Y6.6893 I-0.0847 J-0.2262
G2 X3.4401 Y6.6964 I0.0593 J0.7656
G2 X3.328 Y6.7246 I0.0993 J0.6312
G2 X2.8448 Y6.9816 I-0.0073 J0.5689
G2 X2.7831 Y7.0096 I1.765 J3.9746
G3 X2.7027 Y7.0435 I-0.529 J-1.143
G3 X2.3919 Y7.1574 I-4.6551 J-12.2117
G3 X2.2828 Y7.1956 I-7.4988 J-21.2757
G2 X2.2934 Y7.1741 I-0.5585 J-0.2888
G2 X2.3254 Y7.09 I-0.5366 J-0.2521
G3 X2.3324 Y7.0862 I0.1985 J0.3582
G2 X2.4319 Y7.0268 I-0.5267 J-0.9956
G2 X2.5344 Y6.9531 I-1.04 J-1.5551
G2 X2.6201 Y6.8836 I-1.3602 J-1.7635
G2 X2.7044 Y6.8081 I-1.5601 J-1.8279
G2 X2.7876 Y6.7257 I-1.4831 J-1.5805
G2 X2.8566 Y6.6477 I-0.9802 J-0.9376
G2 X2.8968 Y6.5954 I-0.8284 J-0.6787
G2 X2.9293 Y6.5467 I-0.6365 J-0.459
G2 X2.9866 Y6.4905 I-0.401 J-0.4667
G2 X3.1216 Y6.2215 I-0.4273 J-0.3828
G2 X3.1329 Y6.1123 I-0.5599 J-0.1132
G2 X3.1654 Y6.0037 I-0.6857 J-0.2638
G2 X3.1742 Y5.9527 I-0.6249 J-0.1351
G2 X3.1888 Y5.9223 I-0.7083 J-0.3591
G2 X3.2319 Y5.8025 I-0.7134 J-0.3244
G1 X3.1837 Y5.7895 F30
G2 X3.2064 Y5.6433 I-0.6494 J-0.1757 F30
G2 X3.2069 Y5.6188 I-0.5586 J-0.0245
G2 X3.2069 Y5.6139 I-0.5591 J0
G2 X3.2169 Y5.5693 I-0.5919 J-0.1569
G2 X3.2278 Y5.4512 I-0.6331 J-0.1181
G2 X3.2256 Y5.3979 I-0.6441 J0
G2 X3.2112 Y5.3031 I-0.6978 J0.0579
G2 X3.2259 Y5.2399 I-0.6096 J-0.1756
G2 X3.2313 Y5.2045 I-0.6558 J-0.1181
G2 X3.3504 Y5.2186 I0.1232 J-0.5312
G2 X3.3744 Y5.2273 I0.5257 J-1.4069
G2 X3.4524 Y5.2524 I0.4594 J-1.2964
G2 X3.5299 Y5.2712 I0.2558 J-0.8864
G2 X3.5852 Y5.28 I0.1473 J-0.7477
G2 X3.6568 Y5.2844 I0.0736 J-0.6049
G2 X3.7009 Y5.2828 I0.0019 J-0.561
G2 X3.7916 Y5.2977 I0.2148 J-1.028
G2 X3.9297 Y5.4777 I0.4944 J-0.2366
G2 X3.9284 Y5.5144 I0.5213 J0.0367
G2 X3.931 Y5.5666 I0.5226 J0
G2 X4.084 Y5.8851 I0.5158 J-0.0517
G2 X4.1922 Y5.9666 I0.3675 J-0.3751
G2 X4.1934 Y5.9838 I2.5533 J-0.17
G3 X4.1979 Y6.1071 I-1.6812 J0.1233
G3 X4.1975 Y6.1461 I-1.6857 J0
G3 X4.1973 Y6.1521 I-0.4922 J-0.0114
G2 X4.1332 Y6.2444 I0.4342 J0.3703
G3 X4.1277 Y6.2503 I-1.1098 J-1.0248
G3 X4.0693 Y6.311 I-2.1334 J-1.9912
G3 X3.9776 Y6.4019 I-4.488 J-4.438
G3 X3.8839 Y6.4911 I-4.4681 J-4.603
G3 X3.8183 Y6.5505 I-2.2001 J-2.3599
G3 X3.8004 Y6.5662 I-1.1764 J-1.3334
G2 X3.739 Y6.601 I0.377 J0.7362
G2 X3.6771 Y6.6432 I0.4902 J0.7844
G2 X3.6239 Y6.6861 I0.5245 J0.705
G3 X3.5537 Y6.7216 I-0.3654 J-0.6361
G3 X3.519 Y6.7357 I-0.2701 J-0.6145
G3 X3.5106 Y6.7387 I-0.1023 J-0.273
G2 X3.4479 Y6.7458 I0.0489 J0.7162
G2 X3.3361 Y6.7748 I0.0916 J0.5818
G2 X2.8788 Y7.0212 I-0.0155 J0.5187
G2 X2.8041 Y7.055 I1.7309 J3.935
G3 X2.7205 Y7.0902 I-0.5501 J-1.1884
G3 X2.4085 Y7.2046 I-4.6729 J-12.2585
G3 X2.1564 Y7.2918 I-7.5155 J-21.3228
G1 X2.1567 Y7.2915
G2 X2.2481 Y7.1529 I-0.4324 J-0.3847
G2 X2.2816 Y7.061 I-0.4914 J-0.2309
G2 X2.2924 Y7.0512 I-0.3485 J-0.398
G3 X2.309 Y7.042 I0.2314 J0.397
G2 X2.4041 Y6.9852 I-0.5033 J-0.9514
G2 X2.5039 Y6.9135 I-1.0122 J-1.5136
G2 X2.5876 Y6.8455 I-1.3297 J-1.7239
G2 X2.6702 Y6.7716 I-1.5277 J-1.7899
G2 X2.7514 Y6.6911 I-1.4489 J-1.544
G2 X2.8179 Y6.6161 I-0.9441 J-0.903
G2 X2.8563 Y6.5662 I-0.7898 J-0.647
G2 X2.8907 Y6.5138 I-0.596 J-0.4297
G2 X2.9494 Y6.4572 I-0.3624 J-0.4338
G2 X3.0726 Y6.2116 I-0.3901 J-0.3494
G2 X3.083 Y6.1083 I-0.5109 J-0.1033
G2 X3.0829 Y6.1029 I-0.5212 J0
G2 X3.1165 Y5.9931 I-0.6357 J-0.2544
G2 X3.1257 Y5.9377 I-0.576 J-0.1245
G2 X3.1433 Y5.9016 I-0.6598 J-0.3441
G2 X3.1837 Y5.7895 I-0.6679 J-0.3037
G0 Z0.5
G0 X1.5819 Y7.4807
G1 Z-0.0312 F10
G3 X1.3845 Y7.5429 I-10.007 J-31.3851 F30
G3 X1.3121 Y7.5654 I-5.1235 J-16.4247
G2 X1.3075 Y7.5619 I-0.312 J0.414
G2 X1.3401 Y7.5233 I-0.3751 J-0.3492
G2 X1.393 Y7.5175 I-0.0294 J-0.5169
G2 X1.5376 Y7.4719 I-0.0826 J-0.5134
G2 X1.5819 Y7.4807 I0.1241 J-0.5084
G0 Z0.5
G0 X1.5319 Y7.4186
G1 Z-0.0312 F10
G2 X1.6554 Y7.4367 I0.1298 J-0.4552 F30
G2 X1.7843 Y7.4365 I0.0634 J-0.4663
G2 X1.9079 Y7.4045 I-0.0784 J-0.5584
G2 X2.0229 Y7.3437 I-0.1945 J-0.5068
G2 X2.1193 Y7.2582 I-0.3106 J-0.4477
G2 X2.2029 Y7.1316 I-0.395 J-0.3515
G2 X2.2369 Y7.0333 I-0.4461 J-0.2096
G2 X2.2623 Y7.0109 I-0.3038 J-0.3703
G1 X2.2631 Y7.0104
G3 X2.2856 Y6.9978 I0.2608 J0.4377
G2 X2.3763 Y6.9437 I-0.4799 J-0.9072
G2 X2.4734 Y6.8739 I-0.9844 J-1.472
G2 X2.5552 Y6.8075 I-1.2991 J-1.6844
G2 X2.636 Y6.7351 I-1.4952 J-1.7518
G2 X2.7153 Y6.6566 I-1.4147 J-1.5075
G2 X2.7792 Y6.5844 I-0.908 J-0.8684
G2 X2.8157 Y6.5369 I-0.7511 J-0.6153
G2 X2.8506 Y6.4835 I-0.5554 J-0.4005
G2 X2.8522 Y6.4808 I-0.5066 J-0.2978
G2 X2.9122 Y6.4238 I-0.3239 J-0.4008
G2 X3.0236 Y6.2017 I-0.3528 J-0.316
G2 X3.033 Y6.1083 I-0.4619 J-0.0934
G2 X3.0327 Y6.0935 I-0.4712 J0
G2 X3.0676 Y5.9826 I-0.5855 J-0.2451
G2 X3.0771 Y5.9227 I-0.5272 J-0.114
G2 X3.0978 Y5.8809 I-0.6111 J-0.3291
G2 X3.1354 Y5.7764 I-0.6224 J-0.283
G2 X3.1564 Y5.6412 I-0.6011 J-0.1626
G2 X3.1569 Y5.6188 I-0.5086 J-0.0224
G2 X3.1568 Y5.6076 I-0.5091 J0
G2 X3.1678 Y5.5601 I-0.5418 J-0.1506
G2 X3.1778 Y5.4512 I-0.584 J-0.1089
G2 X3.1758 Y5.4021 I-0.5941 J0
G2 X3.1594 Y5.3015 I-0.6479 J0.0538
G2 X3.1767 Y5.2311 I-0.5579 J-0.174
G2 X3.1852 Y5.1608 I-0.6066 J-0.1092
G2 X3.1954 Y5.1424 I-0.4506 J-0.2605
G2 X3.1968 Y5.1429 I0.2013 J-0.5948
G2 X3.3595 Y5.1686 I0.1577 J-0.4695
G2 X3.3911 Y5.1802 I0.5166 J-1.3569
G2 X3.4663 Y5.2044 I0.4427 J-1.2493
G2 X3.5396 Y5.2221 I0.2419 J-0.8383
G2 X3.5912 Y5.2303 I0.1376 J-0.6987
G2 X3.6569 Y5.2344 I0.0676 J-0.5553
G2 X3.7041 Y5.2324 I0.0017 J-0.511
G2 X3.8255 Y5.251 I0.2116 J-0.9775
G2 X3.9821 Y5.4558 I0.4605 J-0.1898
G2 X3.9784 Y5.5144 I0.4689 J0.0586
G2 X3.9808 Y5.5616 I0.4726 J0
G2 X4.119 Y5.8494 I0.4661 J-0.0468
G2 X4.2404 Y5.9357 I0.3325 J-0.3393
G2 X4.2433 Y5.9801 I2.5051 J-0.139
G3 X4.2479 Y6.1071 I-1.731 J0.1269
G3 X4.2475 Y6.1472 I-1.7357 J0
G3 X4.2463 Y6.1721 I-0.5422 J-0.0125
G2 X4.1741 Y6.2738 I0.3852 J0.3503
G3 X4.1642 Y6.2844 I-1.1507 J-1.0542
G3 X4.1049 Y6.3462 I-2.1699 J-2.0253
G3 X4.0124 Y6.4378 I-4.5236 J-4.4732
G3 X3.918 Y6.5276 I-4.503 J-4.6389
G3 X3.8514 Y6.588 I-2.2342 J-2.3964
G3 X3.8283 Y6.608 I-1.2095 J-1.3709
G2 X3.7655 Y6.6434 I0.349 J0.6943
G2 X3.7069 Y6.6833 I0.4637 J0.742
G2 X3.6531 Y6.727 I0.4946 J0.6649
G3 X3.5738 Y6.7674 I-0.3947 J-0.677
G3 X3.5365 Y6.7825 I-0.2902 J-0.6603
G3 X3.5201 Y6.7882 I-0.1198 J-0.3198
G2 X3.4557 Y6.7952 I0.0394 J0.6667
G2 X3.3443 Y6.8252 I0.0838 J0.5324
G2 X2.9164 Y7.0558 I-0.0237 J0.4684
G2 X2.9136 Y7.0606 I0.4211 J0.2476
G2 X2.8251 Y7.1003 I1.6962 J3.8956
G3 X2.7383 Y7.1369 I-0.5711 J-1.2338
G3 X2.4252 Y7.2518 I-4.6907 J-12.3052
G3 X2.1316 Y7.353 I-7.5321 J-21.37
G3 X1.7659 Y7.474 I-11.0564 J-32.7961
G3 X1.3994 Y7.5907 I-10.191 J-31.3784
G3 X1.3016 Y7.6209 I-5.1384 J-16.4724
G2 X1.2268 Y7.5694 I-0.3015 J0.3585
G2 X1.314 Y7.4741 I-0.2943 J-0.3568
G2 X1.385 Y7.4682 I-0.0033 J-0.4678
G2 X1.5319 Y7.4186 I-0.0747 J-0.464
G1 X1.5261 Y7.3645 F30
G2 X1.6591 Y7.3868 I0.1356 J-0.4011 F30
G2 X1.7773 Y7.387 I0.0597 J-0.4164
G2 X1.89 Y7.3578 I-0.0714 J-0.5089
G2 X1.9944 Y7.3026 I-0.1765 J-0.4601
G2 X2.082 Y7.225 I-0.2821 J-0.4066
G2 X2.1576 Y7.1103 I-0.3576 J-0.3182
G2 X2.1918 Y7.0052 I-0.4009 J-0.1884
G2 X2.2316 Y6.9711 I-0.2587 J-0.3422
G3 X2.2375 Y6.9675 I0.1794 J0.2877
G3 X2.2622 Y6.9536 I0.2864 J0.4807
G2 X2.3485 Y6.9021 I-0.4565 J-0.863
G2 X2.4428 Y6.8343 I-0.9566 J-1.4304
G2 X2.5227 Y6.7695 I-1.2686 J-1.6448
G2 X2.6018 Y6.6987 I-1.4628 J-1.7138
G2 X2.6792 Y6.622 I-1.3805 J-1.4711
G2 X2.7406 Y6.5527 I-0.8718 J-0.8339
G2 X2.7752 Y6.5077 I-0.7124 J-0.5837
G2 X2.8075 Y6.4581 I-0.5149 J-0.3713
G2 X2.8135 Y6.4476 I-0.4635 J-0.2725
G2 X2.8749 Y6.3904 I-0.2852 J-0.3677
G2 X2.9746 Y6.1917 I-0.3156 J-0.2827
G2 X2.983 Y6.1083 I-0.4129 J-0.0835
G2 X2.9823 Y6.0843 I-0.4212 J0
G2 X3.0187 Y5.972 I-0.5351 J-0.2359
G2 X3.0282 Y5.9078 I-0.4783 J-0.1034
G2 X3.0523 Y5.8602 I-0.5623 J-0.3142
G2 X3.0871 Y5.7634 I-0.5769 J-0.2623
G2 X3.1065 Y5.639 I-0.5529 J-0.1496
G2 X3.1069 Y5.6188 I-0.4587 J-0.0202
G2 X3.1066 Y5.6013 I-0.4591 J0
G2 X3.1186 Y5.551 I-0.4916 J-0.1443
G2 X3.1278 Y5.4512 I-0.5348 J-0.0998
G2 X3.126 Y5.4062 I-0.5441 J0
G2 X3.1074 Y5.2998 I-0.5981 J0.0496
G2 X3.1275 Y5.2222 I-0.5059 J-0.1723
G2 X3.1359 Y5.1458 I-0.5574 J-0.1004
G2 X3.1698 Y5.0791 I-0.4013 J-0.2456
G2 X3.2127 Y5.0955 I0.2269 J-0.5315
G2 X3.3683 Y5.1184 I0.1417 J-0.4221
G2 X3.4078 Y5.1331 I0.5078 J-1.3067
G2 X3.4802 Y5.1563 I0.426 J-1.2022
G2 X3.5493 Y5.1731 I0.2281 J-0.7903
G2 X3.5972 Y5.1807 I0.128 J-0.6496
G2 X3.6571 Y5.1844 I0.0616 J-0.5056
G2 X3.7071 Y5.1819 I0.0015 J-0.461
G2 X3.8566 Y5.2032 I0.2086 J-0.927
G2 X3.861 Y5.2035 I0.0422 J-0.6761
G2 X3.8659 Y5.2171 I0.53 J-0.1814
G2 X4.0363 Y5.4332 I0.4201 J-0.156
G2 X4.0284 Y5.5144 I0.4147 J0.0812
G2 X4.0305 Y5.5566 I0.4226 J0
G2 X4.154 Y5.8137 I0.4163 J-0.0418
G2 X4.2889 Y5.9028 I0.2975 J-0.3036
G2 X4.2931 Y5.9765 I2.4566 J-0.1061
G3 X4.2979 Y6.1071 I-1.7809 J0.1306
G3 X4.2975 Y6.1484 I-1.7857 J0
G3 X4.2947 Y6.1937 I-0.5921 J-0.0137
G2 X4.2875 Y6.2012 I0.3501 J0.3411
G2 X4.2152 Y6.3029 I0.344 J0.3212
G3 X4.2008 Y6.3185 I-1.1919 J-1.0833
G3 X4.1404 Y6.3813 I-2.2065 J-2.0594
G3 X4.0472 Y6.4737 I-4.5591 J-4.5083
G3 X3.9521 Y6.5642 I-4.5378 J-4.6748
G3 X3.8845 Y6.6255 I-2.2683 J-2.433
G3 X3.8561 Y6.6501 I-1.2426 J-1.4084
G2 X3.792 Y6.6858 I0.3213 J0.6523
G2 X3.7368 Y6.7235 I0.4372 J0.6996
G2 X3.6848 Y6.7657 I0.4648 J0.6247
G3 X3.6801 Y6.7691 I-0.0198 J-0.0223
G3 X3.5939 Y6.8132 I-0.4217 J-0.7191
G3 X3.5541 Y6.8293 I-0.3103 J-0.7061
G3 X3.529 Y6.8378 I-0.1373 J-0.3667
G2 X3.4635 Y6.8445 I0.0305 J0.6171
G2 X3.3524 Y6.8758 I0.076 J0.483
G2 X3.3498 Y6.8756 I-0.0327 J0.4308
G2 X2.9595 Y7.0812 I-0.0292 J0.418
G2 X2.9492 Y7.0997 I0.378 J0.2223
G2 X2.9436 Y7.1021 I1.1388 J2.6494
G2 X2.8461 Y7.1457 I1.6661 J3.8541
G3 X2.7561 Y7.1836 I-0.5921 J-1.2792
G3 X2.4418 Y7.2989 I-4.7085 J-12.3519
G3 X2.1475 Y7.4004 I-7.5487 J-21.4171
G3 X1.7814 Y7.5216 I-11.0724 J-32.8434
G3 X1.4143 Y7.6384 I-10.2065 J-31.426
G3 X1.2892 Y7.6769 I-5.1532 J-16.5201
G2 X1.1219 Y7.5791 I-0.2891 J0.3024
G2 X1.287 Y7.4234 I-0.1895 J-0.3664
G2 X1.3771 Y7.4188 I0.0237 J-0.4171
G2 X1.5261 Y7.3645 I-0.0667 J-0.4147
G1 X1.5201 Y7.3089 F30
G2 X1.6628 Y7.3368 I0.1415 J-0.3455 F30
G2 X1.7704 Y7.3374 I0.056 J-0.3664
G2 X1.8721 Y7.3112 I-0.0645 J-0.4594
G2 X1.9659 Y7.2615 I-0.1586 J-0.4134
G2 X2.0446 Y7.1918 I-0.2536 J-0.3655
G2 X2.1124 Y7.0891 I-0.3203 J-0.285
G2 X2.1458 Y6.9767 I-0.3556 J-0.1671
G2 X2.1604 Y6.9662 I-0.2544 J-0.3694
G2 X2.2004 Y6.9317 I-0.2273 J-0.3033
G3 X2.2119 Y6.9245 I0.2107 J0.3271
G3 X2.2389 Y6.9094 I0.3119 J0.5236
G2 X2.3207 Y6.8605 I-0.4332 J-0.8188
G2 X2.4123 Y6.7947 I-0.9289 J-1.3889
G2 X2.4902 Y6.7314 I-1.2381 J-1.6052
G2 X2.5676 Y6.6622 I-1.4303 J-1.6758
G2 X2.643 Y6.5875 I-1.3463 J-1.4346
G2 X2.7019 Y6.521 I-0.8357 J-0.7993
G2 X2.7346 Y6.4784 I-0.6737 J-0.552
G2 X2.7644 Y6.4328 I-0.4743 J-0.342
G2 X2.7748 Y6.4143 I-0.4204 J-0.2471
G2 X2.8377 Y6.3571 I-0.2464 J-0.3343
G2 X2.9256 Y6.1818 I-0.2783 J-0.2493
G2 X2.933 Y6.1083 I-0.3639 J-0.0736
G2 X2.9315 Y6.0752 I-0.3712 J0
G1 X2.9317 Y6.0748
G2 X2.9699 Y5.9614 I-0.4845 J-0.2263
G2 X2.9791 Y5.893 I-0.4294 J-0.0928
G2 X3.0068 Y5.8395 I-0.5132 J-0.2994
G2 X3.0389 Y5.7503 I-0.5314 J-0.2416
G2 X3.0565 Y5.6368 I-0.5046 J-0.1365
G2 X3.0569 Y5.6188 I-0.4087 J-0.018
G2 X3.0562 Y5.5951 I-0.4091 J0
G2 X3.0695 Y5.5418 I-0.4413 J-0.1381
G2 X3.0778 Y5.4512 I-0.4857 J-0.0906
G2 X3.0762 Y5.4103 I-0.4941 J0
G2 X3.0575 Y5.307 I-0.5483 J0.0455
G2 X3.0549 Y5.298 I-0.7758 J0.2179
G2 X3.0783 Y5.2133 I-0.4534 J-0.1705
G2 X3.0864 Y5.1307 I-0.5081 J-0.0915
G2 X3.1404 Y5.0104 I-0.3517 J-0.2304
G3 X3.1508 Y5.0148 I-0.6975 J1.6721
G2 X3.2287 Y5.0481 I0.2459 J-0.4672
G2 X3.3758 Y5.068 I0.1258 J-0.3747
G1 X3.3767 Y5.068
G2 X3.4245 Y5.086 I0.4994 J-1.2563
G2 X3.494 Y5.1083 I0.4093 J-1.1551
G2 X3.5589 Y5.124 I0.2142 J-0.7423
G2 X3.6033 Y5.1311 I0.1183 J-0.6006
G2 X3.6573 Y5.1344 I0.0555 J-0.456
G2 X3.7099 Y5.1312 I0.0014 J-0.411
G3 X3.7136 Y5.1321 I-0.0833 J0.3785
G2 X3.8597 Y5.1533 I0.2021 J-0.8772
G2 X3.8983 Y5.1545 I0.039 J-0.6262
G2 X3.9128 Y5.1997 I0.4927 J-0.1324
G2 X4.0744 Y5.3983 I0.3732 J-0.1386
G2 X4.0912 Y5.4083 I0.1988 J-0.3168
G2 X4.0907 Y5.4197 I0.3728 J0.0229
G2 X4.0784 Y5.5144 I0.3603 J0.0947
G2 X4.0803 Y5.5516 I0.3726 J0
G2 X4.189 Y5.778 I0.3666 J-0.0368
G2 X4.3376 Y5.8674 I0.2625 J-0.2679
G2 X4.343 Y5.9728 I2.4079 J-0.0708
G3 X4.3479 Y6.1071 I-1.8308 J0.1343
G3 X4.3474 Y6.1495 I-1.8357 J0
G3 X4.3423 Y6.2169 I-0.6421 J-0.0149
G2 X4.324 Y6.2353 I0.3025 J0.318
G2 X4.2566 Y6.3316 I0.3075 J0.2871
G3 X4.2373 Y6.3526 I-1.2333 J-1.1121
G3 X4.176 Y6.4165 I-2.243 J-2.0935
G3 X4.082 Y6.5096 I-4.5947 J-4.5435
G3 X3.9862 Y6.6008 I-4.5726 J-4.7106
G3 X3.9175 Y6.663 I-2.3024 J-2.4696
G3 X3.8835 Y6.6923 I-1.2756 J-1.4459
G2 X3.8807 Y6.6937 I0.189 J0.3951
G2 X3.8185 Y6.7282 I0.2966 J0.6086
G2 X3.7666 Y6.7636 I0.4107 J0.6572
G2 X3.718 Y6.8031 I0.4349 J0.5846
G3 X3.7054 Y6.8122 I-0.053 J-0.0597
G3 X3.614 Y6.8589 I-0.447 J-0.7622
G3 X3.5716 Y6.8762 I-0.3305 J-0.7518
G3 X3.5433 Y6.8857 I-0.1549 J-0.4135
G3 X3.5369 Y6.8875 I-0.054 J-0.1806
G2 X3.4712 Y6.8939 I0.0226 J0.5674
G2 X3.3635 Y6.9254 I0.0682 J0.4336
G2 X3.3605 Y6.9267 I0.1553 J0.3549
G2 X3.3463 Y6.9255 I-0.0408 J0.3799
G2 X3.0026 Y7.1065 I-0.0257 J0.3681
G2 X2.9857 Y7.1384 I0.3349 J0.1969
G2 X2.9635 Y7.148 I1.1022 J2.6107
G2 X2.8671 Y7.1911 I1.6463 J3.8083
G3 X2.7739 Y7.2304 I-0.6131 J-1.3245
G3 X2.4584 Y7.3461 I-4.7263 J-12.3986
G3 X2.1635 Y7.4477 I-7.5653 J-21.4643
G3 X1.7968 Y7.5691 I-11.0883 J-32.8908
G3 X1.4292 Y7.6861 I-10.2219 J-31.4735
G3 X1.2745 Y7.7336 I-5.1681 J-16.5679
G2 X1.092 Y7.6226 I-0.2745 J0.2458
G2 X1.0106 Y7.6095 I-0.1118 J0.434
G2 X0.9799 Y7.6082 I-0.0404 J0.5943
G2 X0.9613 Y7.6079 I-0.0386 J2.3657
G2 X0.9498 Y7.5882 I-0.3208 J0.1728
G3 X0.9558 Y7.5848 I0.3581 J0.6228
G3 X0.9713 Y7.5765 I0.2088 J0.3714
G1 X1.0193 Y7.5646
G2 X1.2588 Y7.3704 I-0.0868 J-0.3519
G2 X1.3691 Y7.3694 I0.0519 J-0.3641
G2 X1.5201 Y7.3089 I-0.0588 J-0.3653
G1 X1.5078 Y7.256 F30
G2 X1.5139 Y7.2511 I-0.2085 J-0.266 F30
G2 X1.6666 Y7.2867 I0.1478 J-0.2876
G2 X1.7634 Y7.2879 I0.0523 J-0.3163
G2 X1.8542 Y7.2645 I-0.0575 J-0.4099
G2 X1.9374 Y7.2205 I-0.1407 J-0.3667
G2 X2.0073 Y7.1585 I-0.2251 J-0.3244
G2 X2.0671 Y7.0678 I-0.2829 J-0.2518
G2 X2.0987 Y6.9477 I-0.3104 J-0.1458
G2 X2.1304 Y6.9262 I-0.2073 J-0.3404
G2 X2.1686 Y6.8927 I-0.1973 J-0.2633
G3 X2.1863 Y6.8816 I0.2425 J0.366
G3 X2.2155 Y6.8652 I0.3375 J0.5666
G2 X2.2929 Y6.819 I-0.4098 J-0.7746
G2 X2.3817 Y6.7551 I-0.9011 J-1.3473
G2 X2.4578 Y6.6934 I-1.2075 J-1.5656
G2 X2.5334 Y6.6258 I-1.3978 J-1.6378
G2 X2.6069 Y6.5529 I-1.3121 J-1.3982
G2 X2.6632 Y6.4893 I-0.7996 J-0.7648
G2 X2.6941 Y6.4492 I-0.6351 J-0.5203
G2 X2.7213 Y6.4074 I-0.4338 J-0.3128
G2 X2.7358 Y6.3806 I-0.3773 J-0.2218
G2 X2.8004 Y6.3237 I-0.2075 J-0.3006
G2 X2.8766 Y6.1719 I-0.2411 J-0.216
G2 X2.883 Y6.1083 I-0.3148 J-0.0637
G2 X2.8802 Y6.0664 I-0.3212 J0
G2 X2.8864 Y6.0536 I-0.4685 J-0.2345
G2 X2.921 Y5.9509 I-0.4392 J-0.2052
G2 X2.9297 Y5.8782 I-0.3806 J-0.0823
G2 X2.9612 Y5.8188 I-0.4637 J-0.2846
G2 X2.9906 Y5.7373 I-0.4859 J-0.2209
G2 X3.0066 Y5.6346 I-0.4563 J-0.1234
G2 X3.0069 Y5.6188 I-0.3588 J-0.0158
G2 X3.0057 Y5.5889 I-0.3591 J0
G2 X3.0203 Y5.5326 I-0.3907 J-0.1319
G2 X3.0278 Y5.4512 I-0.4365 J-0.0814
G2 X3.0263 Y5.4145 I-0.4441 J0
G2 X3.0094 Y5.3206 I-0.4985 J0.0414
G2 X3.002 Y5.2958 I-0.7277 J0.2044
G2 X3.0291 Y5.2045 I-0.4005 J-0.1684
G2 X3.0364 Y5.1218 I-0.4589 J-0.0827
G2 X3.0364 Y5.1152 I-0.4663 J0
G2 X3.1028 Y4.9416 I-0.3017 J-0.2149
G3 X3.1186 Y4.9477 I-1.2154 J3.167
G3 X3.1723 Y4.9696 I-0.6757 J1.7348
G2 X3.2446 Y5.0007 I0.2244 J-0.422
G2 X3.3731 Y5.0181 I0.1099 J-0.3273
G2 X3.3846 Y5.0173 I-0.0175 J-0.3243
G2 X3.4412 Y5.0388 I0.4914 J-1.2056
G2 X3.5079 Y5.0602 I0.3926 J-1.1079
G2 X3.5686 Y5.075 I0.2004 J-0.6942
G2 X3.6093 Y5.0814 I0.1086 J-0.5515
G2 X3.6574 Y5.0844 I0.0495 J-0.4064
G2 X3.7116 Y5.0805 I0.0012 J-0.361
G3 X3.7248 Y5.0833 I-0.0851 J0.4292
G2 X3.8628 Y5.1034 I0.1909 J-0.8285
G2 X3.9381 Y5.1032 I0.0359 J-0.5763
G2 X3.9596 Y5.1823 I0.453 J-0.0811
G2 X4.1009 Y5.356 I0.3263 J-0.1212
G2 X4.1447 Y5.379 I0.1723 J-0.2745
G2 X4.1405 Y5.4269 I0.3193 J0.0522
G2 X4.1284 Y5.5144 I0.3105 J0.0875
G2 X4.13 Y5.5466 I0.3226 J0
G2 X4.224 Y5.7423 I0.3168 J-0.0318
G2 X4.3545 Y5.8203 I0.2275 J-0.2322
G2 X4.3868 Y5.8287 I0.1022 J-0.3267
G2 X4.3929 Y5.9692 I2.3587 J-0.0321
G3 X4.3979 Y6.1071 I-1.8806 J0.1379
G3 X4.3974 Y6.1507 I-1.8857 J0
G3 X4.3893 Y6.2417 I-0.6921 J-0.016
G2 X4.3606 Y6.2695 I0.2555 J0.2931
G2 X4.2992 Y6.3581 I0.2709 J0.2529
G2 X4.2983 Y6.36 I0.3014 J0.149
G3 X4.2739 Y6.3867 I-1.275 J-1.1405
G3 X4.2115 Y6.4516 I-2.2796 J-2.1276
G3 X4.1169 Y6.5454 I-4.6302 J-4.5787
G3 X4.0203 Y6.6373 I-4.6074 J-4.7465
G3 X3.9506 Y6.7005 I-2.3365 J-2.5062
G3 X3.9157 Y6.7306 I-1.3087 J-1.4833
G3 X3.9106 Y6.7349 I-0.3499 J-0.4157
G2 X3.9026 Y6.7386 I0.162 J0.3526
G2 X3.845 Y6.7706 I0.2747 J0.5637
G2 X3.7965 Y6.8037 I0.3842 J0.6147
G2 X3.7512 Y6.8405 I0.4051 J0.5445
G3 X3.7307 Y6.8554 I-0.0861 J-0.0971
G3 X3.6341 Y6.9047 I-0.4723 J-0.8054
G3 X3.5891 Y6.923 I-0.3506 J-0.7976
G3 X3.5576 Y6.9336 I-0.1724 J-0.4603
G3 X3.5439 Y6.9373 I-0.0684 J-0.2285
G2 X3.479 Y6.9433 I0.0156 J0.5176
G2 X3.3836 Y6.9712 I0.0605 J0.3842
G2 X3.3687 Y6.9782 I0.1352 J0.3091
G2 X3.3428 Y6.9754 I-0.0489 J0.3285
G2 X3.0457 Y7.1319 I-0.0222 J0.3182
G2 X3.0235 Y7.1768 I0.2918 J0.1716
G2 X2.9833 Y7.1939 I1.0644 J2.5723
G2 X2.8881 Y7.2365 I1.6264 J3.7624
G3 X2.7917 Y7.2771 I-0.6341 J-1.3699
G3 X2.475 Y7.3932 I-4.7441 J-12.4453
G3 X2.1795 Y7.4951 I-7.582 J-21.5114
G3 X1.8122 Y7.6167 I-11.1043 J-32.9382
G3 X1.444 Y7.7339 I-10.2374 J-31.5211
G3 X1.2569 Y7.7911 I-5.183 J-16.6156
G2 X1.0795 Y7.671 I-0.2568 J0.1882
G2 X1.0072 Y7.6593 I-0.0994 J0.3856
G2 X0.9791 Y7.6582 I-0.037 J0.5444
G2 X0.9383 Y7.6578 I-0.0378 J2.3157
G2 X0.9299 Y7.6579 I0.0008 J0.6474
G2 X0.8776 Y7.5743 I-0.2894 J0.1228
G3 X0.8916 Y7.5651 I0.4007 J0.5907
G3 X0.9313 Y7.5412 I0.4163 J0.6458
G3 X0.9539 Y7.5293 I0.2334 J0.415
G1 X1.0073 Y7.5161
G2 X1.2283 Y7.3132 I-0.0749 J-0.3034
G2 X1.3612 Y7.3201 I0.0824 J-0.3069
G2 X1.5078 Y7.256 I-0.0508 J-0.3159
G1 X1.4769 Y7.2166 F30
G2 X1.5073 Y7.1891 I-0.1776 J-0.2266 F30
G2 X1.5232 Y7.1991 I0.1561 J-0.2287
G2 X1.6703 Y7.2366 I0.1385 J-0.2357
G2 X1.7565 Y7.2384 I0.0486 J-0.2662
G2 X1.8363 Y7.2178 I-0.0506 J-0.3604
G2 X1.9089 Y7.1794 I-0.1228 J-0.32
G2 X1.9699 Y7.1253 I-0.1966 J-0.2834
G2 X2.0218 Y7.0466 I-0.2456 J-0.2185
G2 X2.0495 Y6.9324 I-0.2651 J-0.1246
G3 X2.0515 Y6.9169 I0.5047 J0.0587
G1 X2.0523 Y6.9165
G2 X2.1004 Y6.8862 I-0.1609 J-0.3091
G2 X2.1362 Y6.8542 I-0.1673 J-0.2233
G1 X2.1369 Y6.8537
G3 X2.1607 Y6.8386 I0.2741 J0.405
G3 X2.1921 Y6.821 I0.3631 J0.6095
G2 X2.2651 Y6.7774 I-0.3864 J-0.7304
G2 X2.3512 Y6.7155 I-0.8733 J-1.3058
G2 X2.4253 Y6.6554 I-1.177 J-1.526
G2 X2.4991 Y6.5893 I-1.3654 J-1.5997
G2 X2.5708 Y6.5183 I-1.2778 J-1.3617
G2 X2.6245 Y6.4576 I-0.7634 J-0.7302
G2 X2.6535 Y6.42 I-0.5964 J-0.4886
G2 X2.6782 Y6.3821 I-0.3932 J-0.2835
G2 X2.6967 Y6.3466 I-0.3342 J-0.1964
G2 X2.706 Y6.3405 I-0.2063 J-0.3223
G2 X2.7632 Y6.2904 I-0.1776 J-0.2605
G2 X2.8276 Y6.162 I-0.2038 J-0.1826
G2 X2.833 Y6.1083 I-0.2658 J-0.0538
G2 X2.8282 Y6.0579 I-0.2712 J0
G2 X2.8411 Y6.0324 I-0.4166 J-0.2261
G2 X2.8721 Y5.9403 I-0.3939 J-0.184
G2 X2.8798 Y5.8686 I-0.3317 J-0.0717
G2 X2.8798 Y5.8636 I-0.3394 J0
G2 X2.9157 Y5.7981 I-0.4138 J-0.27
G2 X2.9423 Y5.7242 I-0.4404 J-0.2003
G2 X2.9566 Y5.6324 I-0.4081 J-0.1104
G2 X2.9569 Y5.6188 I-0.3088 J-0.0136
G2 X2.9548 Y5.5827 I-0.3091 J0
G2 X2.9712 Y5.5234 I-0.3399 J-0.1257
G2 X2.9778 Y5.4512 I-0.3874 J-0.0723
G2 X2.9765 Y5.4186 I-0.3941 J0
G2 X2.9613 Y5.3341 I-0.4486 J0.0372
G2 X2.9484 Y5.2932 I-0.6795 J0.1909
G2 X2.9799 Y5.1956 I-0.3469 J-0.1657
G2 X2.9864 Y5.1218 I-0.4097 J-0.0738
G2 X2.9861 Y5.1049 I-0.4163 J0
G2 X2.9858 Y5.0993 I-0.5607 J0.0228
G2 X3.0535 Y4.9327 I-0.2512 J-0.199
G2 X3.0551 Y4.9013 I-0.3082 J-0.0314
G2 X3.0535 Y4.8698 I-0.3098 J0
G3 X3.0816 Y4.8801 I-1.8273 J5.0265
G3 X3.1367 Y4.9011 I-1.1941 J3.2284
G3 X3.1931 Y4.9241 I-0.6938 J1.7814
G3 X3.1948 Y4.9249 I-0.0084 J0.0196
G2 X3.2605 Y4.9533 I0.2019 J-0.3773
G2 X3.3704 Y4.9682 I0.094 J-0.2799
G2 X3.3919 Y4.9662 I-0.0148 J-0.2744
G2 X3.4579 Y4.9917 I0.4842 J-1.1545
G2 X3.5218 Y5.0122 I0.3759 J-1.0608
G2 X3.5783 Y5.0259 I0.1865 J-0.6462
G2 X3.6154 Y5.0318 I0.099 J-0.5025
G2 X3.6576 Y5.0344 I0.0434 J-0.3567
G2 X3.7123 Y5.0298 I0.001 J-0.311
G3 X3.7361 Y5.0346 I-0.0857 J0.4799
G2 X3.8659 Y5.0535 I0.1797 J-0.7797
G2 X3.9817 Y5.048 I0.0328 J-0.5264
G2 X4.0065 Y5.1649 I0.4094 J-0.0258
G2 X4.1275 Y5.3136 I0.2795 J-0.1038
G2 X4.2039 Y5.3466 I0.1457 J-0.2321
G2 X4.1905 Y5.4312 I0.2601 J0.0846
G2 X4.1905 Y5.4342 I0.2735 J0
G2 X4.1784 Y5.5144 I0.2605 J0.0802
G2 X4.1798 Y5.5416 I0.2726 J0
G2 X4.259 Y5.7065 I0.2671 J-0.0268
G2 X4.3694 Y5.7726 I0.1925 J-0.1965
G2 X4.4279 Y5.7845 I0.0873 J-0.279
G2 X4.4366 Y5.7853 I0.0384 J-0.3892
G2 X4.4366 Y5.7967 I2.3089 J0.0114
G2 X4.4427 Y5.9655 I2.3089 J0
G3 X4.4479 Y6.1071 I-1.9305 J0.1416
G3 X4.4474 Y6.1519 I-1.9357 J0
G3 X4.4374 Y6.2571 I-0.7421 J-0.0172
G3 X4.4354 Y6.2684 I-0.3606 J-0.0603
G2 X4.3971 Y6.3036 I0.2094 J0.2664
G2 X4.3441 Y6.3803 I0.2344 J0.2188
G2 X4.3405 Y6.3879 I0.2566 J0.1269
G3 X4.3104 Y6.4209 I-1.3171 J-1.1683
G3 X4.2471 Y6.4868 I-2.3161 J-2.1617
G3 X4.1517 Y6.5813 I-4.6658 J-4.6138
G3 X4.0544 Y6.6739 I-4.6423 J-4.7824
G3 X3.9837 Y6.738 I-2.3706 J-2.5427
G3 X3.9479 Y6.7689 I-1.3418 J-1.5208
G3 X3.937 Y6.7778 I-0.3821 J-0.454
G2 X3.9245 Y6.7836 I0.1356 J0.3097
G2 X3.8715 Y6.813 I0.2528 J0.5188
G2 X3.8263 Y6.8438 I0.3577 J0.5723
G2 X3.7844 Y6.8779 I0.3752 J0.5044
G3 X3.756 Y6.8985 I-0.1193 J-0.1345
G3 X3.6542 Y6.9505 I-0.4975 J-0.8485
G3 X3.6067 Y6.9698 I-0.3707 J-0.8434
G3 X3.572 Y6.9815 I-0.19 J-0.5071
G3 X3.5501 Y6.9871 I-0.0827 J-0.2764
G2 X3.4868 Y6.9927 I0.0095 J0.4678
G2 X3.4036 Y7.017 I0.0527 J0.3348
G2 X3.3769 Y7.0304 I0.1152 J0.2633
G2 X3.3394 Y7.0252 I-0.0572 J0.2762
G2 X3.0888 Y7.1572 I-0.0187 J0.2683
G2 X3.0629 Y7.2147 I0.2487 J0.1462
G2 X3.0032 Y7.2397 I1.025 J2.5344
G2 X2.9091 Y7.2818 I1.6066 J3.7165
G3 X2.8095 Y7.3238 I-0.6551 J-1.4153
G3 X2.4916 Y7.4404 I-4.762 J-12.4921
G3 X2.1955 Y7.5425 I-7.5986 J-21.5586
G3 X1.8277 Y7.6642 I-11.1203 J-32.9856
G3 X1.4589 Y7.7816 I-10.2528 J-31.5686
G3 X1.2351 Y7.8498 I-5.1979 J-16.6633
G2 X1.2213 Y7.8273 I-0.2329 J0.1281
G2 X1.0671 Y7.7194 I-0.2212 J0.152
G2 X1.0038 Y7.7092 I-0.0869 J0.3372
G2 X0.9783 Y7.7081 I-0.0336 J0.4945
G2 X0.9384 Y7.7078 I-0.037 J2.2657
G2 X0.8951 Y7.7095 I0.0007 J0.5974
G2 X0.8146 Y7.5818 I-0.2546 J0.0713
G2 X0.8192 Y7.5613 I-0.3042 J-0.0791
G2 X0.8205 Y7.5537 I-0.321 J-0.061
G3 X0.8256 Y7.5499 I0.3531 J0.4691
G3 X0.8645 Y7.5231 I0.4527 J0.6151
G3 X0.9068 Y7.4976 I0.4434 J0.6878
G3 X0.9368 Y7.482 I0.2579 J0.4585
G1 X0.9953 Y7.4675
G2 X1.1927 Y7.2467 I-0.0629 J-0.2549
G2 X1.3533 Y7.2707 I0.118 J-0.2404
G2 X1.4769 Y7.2166 I-0.0429 J-0.2666
G1 X1.4461 Y7.1773 F30
G2 X1.48 Y7.1448 I-0.1468 J-0.1873 F30
G3 X1.4811 Y7.144 I0.0588 J0.0742
G3 X1.4921 Y7.1361 I0.1139 J0.1481
G3 X1.5009 Y7.1308 I0.0731 J0.1107
G2 X1.5087 Y7.1263 I-0.1546 J-0.2792
G2 X1.5485 Y7.156 I0.1547 J-0.1659
G2 X1.674 Y7.1864 I0.1131 J-0.1926
G2 X1.7495 Y7.1889 I0.0448 J-0.216
G2 X1.8183 Y7.1711 I-0.0436 J-0.3109
G2 X1.8804 Y7.1383 I-0.1049 J-0.2733
G2 X1.9326 Y7.0921 I-0.1681 J-0.2423
G2 X1.9766 Y7.0253 I-0.2082 J-0.1853
G2 X1.9996 Y6.9287 I-0.2199 J-0.1033
G3 X2.0021 Y6.9094 I0.5546 J0.0623
G3 X2.006 Y6.8853 I0.899 J0.133
G3 X2.0064 Y6.883 I0.9515 J0.167
G2 X2.0292 Y6.8721 I-0.1469 J-0.3371
G2 X2.0704 Y6.8462 I-0.1378 J-0.2648
G2 X2.1031 Y6.8164 I-0.1373 J-0.1833
G3 X2.1089 Y6.8123 I0.1374 J0.1903
G3 X2.1351 Y6.7956 I0.3021 J0.4464
G3 X2.1687 Y6.7768 I0.3887 J0.6525
G2 X2.2373 Y6.7359 I-0.363 J-0.6863
G2 X2.3207 Y6.6759 I-0.8455 J-1.2642
G2 X2.3929 Y6.6173 I-1.1465 J-1.4864
G2 X2.4649 Y6.5528 I-1.3329 J-1.5617
G2 X2.5346 Y6.4838 I-1.2436 J-1.3252
G2 X2.5859 Y6.4259 I-0.7273 J-0.6956
G2 X2.613 Y6.3907 I-0.5577 J-0.4569
G2 X2.6351 Y6.3568 I-0.3526 J-0.2543
G2 X2.657 Y6.3122 I-0.291 J-0.1711
G2 X2.6778 Y6.2992 I-0.1667 J-0.2879
G2 X2.7259 Y6.257 I-0.1495 J-0.2192
G2 X2.7786 Y6.1521 I-0.1666 J-0.1492
G2 X2.783 Y6.1083 I-0.2168 J-0.0438
G2 X2.7752 Y6.0501 I-0.2212 J0
G2 X2.7958 Y6.0113 I-0.3635 J-0.2182
G2 X2.8233 Y5.9297 I-0.3486 J-0.1628
G2 X2.8298 Y5.8686 I-0.2828 J-0.0612
G2 X2.8294 Y5.8544 I-0.2894 J0
G3 X2.8339 Y5.8429 I0.0959 J0.0306
G3 X2.836 Y5.8391 I0.0255 J0.0118
G2 X2.8702 Y5.7774 I-0.3701 J-0.2455
G2 X2.8941 Y5.7111 I-0.3948 J-0.1796
G2 X2.9067 Y5.6302 I-0.3598 J-0.0973
G2 X2.9069 Y5.6188 I-0.2589 J-0.0114
G2 X2.9035 Y5.5767 I-0.2591 J0
G2 X2.922 Y5.5143 I-0.2885 J-0.1197
G2 X2.9278 Y5.4512 I-0.3382 J-0.0631
G2 X2.9267 Y5.4227 I-0.3441 J0
G2 X2.9131 Y5.3476 I-0.3988 J0.0331
G2 X2.8939 Y5.2897 I-0.6314 J0.1774
G2 X2.9023 Y5.2737 I-0.2857 J-0.159
G2 X2.9306 Y5.1868 I-0.3008 J-0.1462
G2 X2.9364 Y5.1218 I-0.3605 J-0.0649
G2 X2.9361 Y5.107 I-0.3663 J0
G2 X2.9346 Y5.0825 I-0.5107 J0.0207
G2 X2.9423 Y5.0736 I-0.2156 J-0.1954
G2 X3.0037 Y4.9277 I-0.2076 J-0.1733
G2 X3.0051 Y4.9013 I-0.2584 J-0.0263
G2 X2.9951 Y4.8299 I-0.2598 J0
G2 X3.006 Y4.7998 I-0.2459 J-0.1063
G3 X3.0283 Y4.8077 I-1.6834 J4.8244
G3 X3.0989 Y4.8332 I-1.8021 J5.0886
G3 X3.1549 Y4.8545 I-1.2115 J3.2753
G3 X3.2127 Y4.8781 I-0.712 J1.828
G3 X3.2184 Y4.8808 I-0.028 J0.0656
G2 X3.2764 Y4.9059 I0.1783 J-0.3332
G2 X3.3677 Y4.9183 I0.0781 J-0.2325
G2 X3.3982 Y4.9145 I-0.0121 J-0.2244
G2 X3.4746 Y4.9446 I0.4779 J-1.1028
G2 X3.5356 Y4.9642 I0.3592 J-1.0137
G2 X3.5879 Y4.9768 I0.1726 J-0.5981
G2 X3.6214 Y4.9822 I0.0893 J-0.4534
G2 X3.6578 Y4.9844 I0.0374 J-0.3071
G2 X3.7117 Y4.979 I0.0009 J-0.261
G3 X3.7156 Y4.9796 I-0.0375 J0.2468
G3 X3.7473 Y4.9859 I-0.089 J0.5301
G2 X3.869 Y5.0036 I0.1684 J-0.731
G2 X3.9804 Y4.9975 I0.0297 J-0.4765
G2 X4.0204 Y4.9881 I-0.0599 J-0.3453
G2 X4.0238 Y4.9962 I0.3107 J-0.1246
G3 X4.0274 Y5.0109 I-0.2019 J0.0578
G3 X4.0306 Y5.0291 I-0.245 J0.0514
G3 X4.0311 Y5.0359 I-0.0716 J0.0096
G2 X4.0534 Y5.1475 I0.3599 J-0.0138
G2 X4.1541 Y5.2713 I0.2326 J-0.0864
G2 X4.278 Y5.3055 I0.1191 J-0.1898
G2 X4.2548 Y5.3525 I0.2255 J0.1405
G2 X4.2405 Y5.4312 I0.2092 J0.0787
G2 X4.2407 Y5.4415 I0.2235 J0
G2 X4.2284 Y5.5144 I0.2103 J0.0729
G2 X4.2295 Y5.5366 I0.2226 J0
G2 X4.294 Y5.6708 I0.2173 J-0.0218
G2 X4.3843 Y5.7249 I0.1575 J-0.1608
G2 X4.4329 Y5.7348 I0.0723 J-0.2312
G2 X4.4664 Y5.7364 I0.0335 J-0.3395
G2 X4.4872 Y5.7355 I0 J-0.2407
G2 X4.4867 Y5.7756 I4.0903 J0.0782
G2 X4.4866 Y5.7967 I2.2588 J0.021
G2 X4.4926 Y5.9619 I2.2589 J0
G3 X4.4979 Y6.1071 I-1.9804 J0.1452
G3 X4.4974 Y6.153 I-1.9857 J0
G3 X4.4868 Y6.2654 I-0.7921 J-0.0183
G3 X4.4801 Y6.2976 I-0.4099 J-0.0685
G2 X4.4337 Y6.3377 I0.1648 J0.2373
G2 X4.3889 Y6.4024 I0.1978 J0.1847
G2 X4.3831 Y6.415 I0.2118 J0.1047
G3 X4.3781 Y6.4208 I-0.361 J-0.3098
G3 X4.347 Y6.455 I-1.3547 J-1.2013
G3 X4.2826 Y6.522 I-2.3527 J-2.1959
G3 X4.1865 Y6.6172 I-4.7013 J-4.649
G3 X4.0884 Y6.7105 I-4.6771 J-4.8183
G3 X4.0168 Y6.7755 I-2.4047 J-2.5793
G3 X3.98 Y6.8071 I-1.3749 J-1.5583
G3 X3.9628 Y6.8212 I-0.4143 J-0.4922
G2 X3.9464 Y6.8285 I0.1098 J0.2663
G2 X3.898 Y6.8554 I0.2309 J0.4738
G2 X3.8562 Y6.8839 I0.3312 J0.5299
G2 X3.8175 Y6.9153 I0.3454 J0.4643
G3 X3.7813 Y6.9416 I-0.1525 J-0.1719
G3 X3.6744 Y6.9962 I-0.5228 J-0.8916
G3 X3.6242 Y7.0166 I-0.3908 J-0.8892
G3 X3.5863 Y7.0294 I-0.2075 J-0.554
G3 X3.5555 Y7.0371 I-0.097 J-0.3243
G2 X3.4945 Y7.0421 I0.004 J0.4178
G2 X3.4237 Y7.0628 I0.0449 J0.2854
G2 X3.3853 Y7.084 I0.0952 J0.2175
G2 X3.3359 Y7.0751 I-0.0656 J0.2226
G2 X3.1319 Y7.1826 I-0.0153 J0.2184
G2 X3.1046 Y7.252 I0.2056 J0.1209
G2 X3.1011 Y7.2533 I0.6702 J1.705
G2 X3.023 Y7.2856 I0.9868 J2.4958
G2 X2.9301 Y7.3272 I1.5867 J3.6706
G3 X2.8273 Y7.3705 I-0.6761 J-1.4607
G3 X2.5083 Y7.4875 I-4.7798 J-12.5388
G3 X2.2114 Y7.5899 I-7.6152 J-21.6058
G3 X1.8431 Y7.7118 I-11.1363 J-33.033
G3 X1.4738 Y7.8293 I-10.2682 J-31.6162
G3 X1.2071 Y7.9102 I-5.2128 J-16.7111
G2 X1.1801 Y7.8557 I-0.205 J0.0677
G2 X1.0546 Y7.7678 I-0.18 J0.1237
G2 X1.0004 Y7.7591 I-0.0744 J0.2888
G2 X0.9774 Y7.7581 I-0.0302 J0.4446
G2 X0.9385 Y7.7578 I-0.0362 J2.2158
G2 X0.8801 Y7.761 I0.0006 J0.5474
G2 X0.8542 Y7.764 I0.1886 J1.7403
G2 X0.853 Y7.7524 I-0.2141 J0.0167
G2 X0.7561 Y7.6002 I-0.2125 J0.0283
G2 X0.7701 Y7.552 I-0.2457 J-0.0975
G2 X0.7736 Y7.5268 I-0.2719 J-0.0516
G3 X0.7959 Y7.5096 I0.4 J0.4959
G3 X0.8374 Y7.4811 I0.4824 J0.6554
G3 X0.8823 Y7.454 I0.4705 J0.7298
G3 X0.9199 Y7.4346 I0.2824 J0.5021
G1 X0.9833 Y7.419
G2 X1.1449 Y7.2127 I-0.0509 J-0.2063
G2 X1.1213 Y7.1153 I-0.2125 J0
G2 X1.1309 Y7.1301 I0.2042 J-0.122
G2 X1.208 Y7.1983 I0.1821 J-0.128
G2 X1.3453 Y7.2213 I0.1027 J-0.192
G2 X1.4461 Y7.1773 I-0.035 J-0.2172
G1 X1.4152 Y7.1379 F30
G2 X1.4446 Y7.1092 I-0.1159 J-0.1479 F30
G3 X1.4506 Y7.1043 I0.0942 J0.1098
G3 X1.4645 Y7.0944 I0.1444 J0.1877
G3 X1.4767 Y7.087 I0.1006 J0.1525
G2 X1.517 Y7.0596 I-0.1303 J-0.2354
G2 X1.5738 Y7.1129 I0.1464 J-0.0992
G2 X1.6716 Y7.1365 I0.0878 J-0.1495
G2 X1.6778 Y7.136 I-0.0108 J-0.1883
G2 X1.7426 Y7.1394 I0.041 J-0.1656
G2 X1.8004 Y7.1244 I-0.0367 J-0.2613
G2 X1.8518 Y7.0972 I-0.087 J-0.2267
G2 X1.8952 Y7.0588 I-0.1396 J-0.2012
G2 X1.9313 Y7.004 I-0.1709 J-0.152
G2 X1.9496 Y6.9254 I-0.1746 J-0.082
G3 X1.9526 Y6.9021 I0.6045 J0.0657
G3 X1.9567 Y6.8766 I0.9485 J0.1403
G3 X1.9617 Y6.8504 I1.0007 J0.1757
G2 X1.9624 Y6.8467 I-2.0149 J-0.4085
G2 X1.9806 Y6.8396 I-0.1722 J-0.4687
G2 X2.0062 Y6.8278 I-0.1212 J-0.2937
G2 X2.0404 Y6.8062 I-0.1148 J-0.2204
G2 X2.0691 Y6.7793 I-0.1074 J-0.1433
G3 X2.0809 Y6.7709 I0.1714 J0.2274
G3 X2.1096 Y6.7527 I0.3301 J0.4878
G3 X2.1453 Y6.7326 I0.4143 J0.6954
G2 X2.2095 Y6.6943 I-0.3396 J-0.6421
G2 X2.2901 Y6.6363 I-0.8177 J-1.2226
G2 X2.3604 Y6.5793 I-1.1159 J-1.4468
G2 X2.4307 Y6.5164 I-1.3005 J-1.5237
G2 X2.4985 Y6.4492 I-1.2094 J-1.2888
G2 X2.5472 Y6.3943 I-0.6912 J-0.6611
G2 X2.5724 Y6.3615 I-0.519 J-0.4252
G2 X2.592 Y6.3314 I-0.3121 J-0.225
G2 X2.6133 Y6.2869 I-0.2479 J-0.1458
G2 X2.6165 Y6.2775 I-0.1792 J-0.0674
G2 X2.627 Y6.2718 I-0.3615 J-0.6795
G2 X2.6496 Y6.2579 I-0.1366 J-0.2475
G2 X2.6887 Y6.2236 I-0.1213 J-0.1779
G2 X2.7296 Y6.1422 I-0.1294 J-0.1159
G2 X2.733 Y6.1083 I-0.1678 J-0.0339
G2 X2.7201 Y6.0433 I-0.1712 J0
G2 X2.7505 Y5.9901 I-0.3084 J-0.2114
G2 X2.7744 Y5.9192 I-0.3033 J-0.1417
G2 X2.7798 Y5.8686 I-0.234 J-0.0506
G2 X2.779 Y5.8496 I-0.2394 J0
G3 X2.7813 Y5.8408 I0.0989 J0.0209
G3 X2.7885 Y5.8219 I0.144 J0.0442
G3 X2.7944 Y5.8115 I0.0709 J0.0327
G2 X2.8247 Y5.7567 I-0.3284 J-0.2179
G2 X2.8458 Y5.6981 I-0.3493 J-0.1589
G2 X2.8567 Y5.628 I-0.3115 J-0.0843
G2 X2.8569 Y5.6188 I-0.2089 J-0.0092
G2 X2.8513 Y5.5708 I-0.2091 J0
G2 X2.8729 Y5.5051 I-0.2364 J-0.1138
G2 X2.8778 Y5.4512 I-0.2891 J-0.0539
G2 X2.8768 Y5.4269 I-0.2941 J0
G2 X2.865 Y5.3611 I-0.349 J0.029
G2 X2.8402 Y5.2902 I-0.5833 J0.1638
G3 X2.8381 Y5.2852 I0.8666 J-0.3644
G2 X2.8573 Y5.2518 I-0.2299 J-0.1544
G2 X2.8814 Y5.1779 I-0.2558 J-0.1243
G2 X2.8864 Y5.1218 I-0.3113 J-0.0561
G2 X2.8862 Y5.109 I-0.3163 J0
G2 X2.8822 Y5.0643 I-0.4608 J0.0187
G2 X2.9039 Y5.0416 I-0.1633 J-0.1772
G2 X2.954 Y4.9226 I-0.1692 J-0.1413
G2 X2.9551 Y4.9013 I-0.2087 J-0.0213
G2 X2.9413 Y4.8265 I-0.2098 J0
G2 X2.9626 Y4.7674 I-0.1921 J-0.1028
G2 X2.9665 Y4.7335 I-0.1919 J-0.0393
G3 X2.9734 Y4.7358 I-0.8207 J2.4528
G3 X3.045 Y4.7605 I-1.6509 J4.8884
G3 X3.1163 Y4.7864 I-1.8188 J5.1358
G3 X3.173 Y4.8079 I-1.2288 J3.3222
G3 X3.2323 Y4.8321 I-0.7301 J1.8746
G3 X3.242 Y4.8367 I-0.0476 J0.1116
G2 X3.2923 Y4.8585 I0.1547 J-0.2891
G2 X3.365 Y4.8683 I0.0622 J-0.1851
G2 X3.4031 Y4.862 I-0.0094 J-0.1745
G2 X3.4913 Y4.8974 I0.473 J-1.0503
G2 X3.5495 Y4.9161 I0.3425 J-0.9665
G2 X3.5976 Y4.9278 I0.1588 J-0.5501
G2 X3.6274 Y4.9325 I0.0797 J-0.4043
G2 X3.6579 Y4.9344 I0.0313 J-0.2575
G2 X3.7083 Y4.9285 I0.0007 J-0.211
G2 X3.7094 Y4.9282 I-0.0405 J-0.1672
G3 X3.7239 Y4.9303 I-0.0352 J0.2975
G3 X3.7585 Y4.9372 I-0.0973 J0.5794
G2 X3.8721 Y4.9537 I0.1572 J-0.6823
G2 X3.9719 Y4.9482 I0.0266 J-0.4266
G2 X4.0307 Y4.9317 I-0.0514 J-0.296
G2 X4.0523 Y4.9216 I-0.0744 J-0.1886
G1 X4.0525 Y4.9226
G2 X4.0705 Y4.9782 I0.2786 J-0.0591
G3 X4.0711 Y4.98 I-0.0138 J0.0061
G3 X4.0764 Y5.0006 I-0.2493 J0.074
G3 X4.0801 Y5.0225 I-0.2939 J0.0616
G3 X4.0811 Y5.034 I-0.1211 J0.0162
G2 X4.1003 Y5.1301 I0.3099 J-0.0119
G2 X4.1807 Y5.2289 I0.1857 J-0.069
G2 X4.3037 Y5.2529 I0.0925 J-0.1474
G2 X4.339 Y5.2426 I-0.0304 J-0.1709
G1 X4.3397 Y5.2426
G2 X4.3577 Y5.2617 I0.1943 J-0.1652
G2 X4.3576 Y5.2663 I0.1767 J0.0045
G2 X4.3581 Y5.2789 I0.1767 J0
G2 X4.3585 Y5.2836 I0.1734 J-0.0124
G2 X4.3548 Y5.2875 I0.4155 J0.3997
G2 X4.3213 Y5.3306 I0.207 J0.1954
G2 X4.3016 Y5.3701 I0.1822 J0.1154
G2 X4.2905 Y5.4312 I0.1624 J0.0611
G2 X4.2912 Y5.4474 I0.1735 J0
G2 X4.2914 Y5.4488 I0.1667 J-0.0156
G2 X4.2887 Y5.4556 I0.195 J0.0785
G2 X4.2784 Y5.5144 I0.1622 J0.0588
G2 X4.2793 Y5.5316 I0.1726 J0
G2 X4.329 Y5.6351 I0.1676 J-0.0168
G2 X4.3993 Y5.6772 I0.1225 J-0.1251
G2 X4.4378 Y5.685 I0.0574 J-0.1835
G2 X4.4664 Y5.6864 I0.0286 J-0.2897
G2 X4.539 Y5.672 I0 J-0.1907
G2 X4.5367 Y5.7761 I4.0385 J0.1417
G2 X4.5366 Y5.7967 I2.2088 J0.0206
G2 X4.5425 Y5.9582 I2.2089 J0
G3 X4.5479 Y6.1071 I-2.0302 J0.1489
G3 X4.5474 Y6.1542 I-2.0357 J0
G3 X4.5361 Y6.2736 I-0.8421 J-0.0195
G3 X4.5249 Y6.3236 I-0.4592 J-0.0768
G3 X4.5231 Y6.3293 I-0.1064 J-0.0301
G2 X4.5119 Y6.3364 I0.124 J0.2089
G2 X4.4702 Y6.3718 I0.1329 J0.1985
G2 X4.4337 Y6.4246 I0.1613 J0.1506
G2 X4.4265 Y6.4411 I0.167 J0.0825
G3 X4.4155 Y6.454 I-0.4044 J-0.3359
G3 X4.3835 Y6.4891 I-1.3921 J-1.2345
G3 X4.3182 Y6.5571 I-2.3892 J-2.23
G3 X4.2213 Y6.6531 I-4.7369 J-4.6841
G3 X4.1225 Y6.7471 I-4.7119 J-4.8541
G3 X4.0499 Y6.813 I-2.4388 J-2.6159
G3 X4.0122 Y6.8454 I-1.408 J-1.5958
G3 X3.9917 Y6.862 I-0.4465 J-0.5305
G3 X3.9877 Y6.8651 I-0.1454 J-0.1868
G2 X3.9683 Y6.8735 I0.0849 J0.2224
G2 X3.9245 Y6.8978 I0.209 J0.4289
G2 X3.886 Y6.924 I0.3047 J0.4875
G2 X3.8507 Y6.9527 I0.3156 J0.4242
G3 X3.8066 Y6.9848 I-0.1857 J-0.2093
G3 X3.6945 Y7.042 I-0.5481 J-0.9348
G3 X3.6418 Y7.0635 I-0.4109 J-0.9349
G3 X3.6006 Y7.0773 I-0.225 J-0.6008
G3 X3.5613 Y7.0869 I-0.1114 J-0.3722
G3 X3.5595 Y7.087 I-0.0018 J-0.0096
G2 X3.5023 Y7.0915 I0 J0.3679
G2 X3.4437 Y7.1086 I0.0371 J0.236
G2 X3.3941 Y7.1404 I0.0751 J0.1717
G2 X3.3324 Y7.125 I-0.0744 J0.1662
G2 X3.175 Y7.2079 I-0.0118 J0.1686
G2 X3.1496 Y7.2882 I0.1625 J0.0956
G2 X3.1195 Y7.2998 I0.6252 J1.6687
G2 X3.0428 Y7.3315 I0.9684 J2.4493
G2 X2.9511 Y7.3726 I1.5669 J3.6247
G3 X2.8452 Y7.4172 I-0.6971 J-1.506
G3 X2.5249 Y7.5347 I-4.7976 J-12.5855
G3 X2.2274 Y7.6373 I-7.6318 J-21.6529
G3 X1.8586 Y7.7593 I-11.1522 J-33.0803
G3 X1.4887 Y7.8771 I-10.2837 J-31.6637
G3 X1.2196 Y7.9587 I-5.2277 J-16.7588
G3 X1.168 Y7.9737 I-3.1083 J-10.5566
G2 X1.1389 Y7.884 I-0.1658 J0.0042
G2 X1.0421 Y7.8163 I-0.1388 J0.0954
G2 X0.997 Y7.809 I-0.0619 J0.2404
G2 X0.9766 Y7.8081 I-0.0268 J0.3947
G2 X0.9385 Y7.8078 I-0.0353 J2.1658
G2 X0.8855 Y7.8107 I0.0006 J0.4974
G2 X0.8016 Y7.822 I0.1832 J1.6906
G2 X0.7996 Y7.8223 I0.3431 J2.1565
G2 X0.8049 Y7.7808 I-0.1594 J-0.0415
G2 X0.8034 Y7.759 I-0.1647 J0
G2 X0.6896 Y7.6239 I-0.1629 J0.0217
G2 X0.6876 Y7.6232 I-0.055 J0.176
G2 X0.7209 Y7.5427 I-0.1772 J-0.1206
G2 X0.7249 Y7.5024 I-0.2227 J-0.0423
G3 X0.7663 Y7.4694 I0.4487 J0.5204
G3 X0.8103 Y7.439 I0.512 J0.6956
G3 X0.8578 Y7.4104 I0.4976 J0.7719
G3 X0.9032 Y7.3873 I0.3069 J0.5457
G1 X0.9713 Y7.3705
G2 X1.0949 Y7.2127 I-0.0389 J-0.1578
G2 X1.045 Y7.0955 I-0.1625 J0
G3 X1.1123 Y7.06 I0.3578 J0.5969
G3 X1.1458 Y7.0483 I0.0796 J0.1732
G2 X1.1718 Y7.1013 I0.1796 J-0.055
G2 X1.2316 Y7.1542 I0.1412 J-0.0992
G2 X1.3374 Y7.172 I0.0792 J-0.1479
G2 X1.4152 Y7.1379 I-0.027 J-0.1678
G1 X1.3844 Y7.0986 F30
G2 X1.4083 Y7.0746 I-0.0851 J-0.1086 F30
G3 X1.4201 Y7.0647 I0.1305 J0.1444
G3 X1.437 Y7.0526 I0.1749 J0.2274
G3 X1.4525 Y7.0433 I0.1282 J0.1942
G2 X1.4962 Y7.0115 I-0.1061 J-0.1917
G2 X1.5326 Y6.9706 I-0.2098 J-0.2238
G2 X1.5329 Y6.9718 I0.5732 J-0.1387
G2 X1.5396 Y6.9943 I0.2224 J-0.0543
G2 X1.557 Y7.0295 I0.1585 J-0.0565
G2 X1.5992 Y7.0698 I0.1064 J-0.0691
G2 X1.6687 Y7.0866 I0.0625 J-0.1064
G2 X1.6818 Y7.0852 I-0.008 J-0.1384
G2 X1.7356 Y7.0899 I0.0371 J-0.1148
G2 X1.7825 Y7.0777 I-0.0297 J-0.2118
G2 X1.8233 Y7.0561 I-0.0691 J-0.18
G2 X1.8578 Y7.0256 I-0.1111 J-0.1601
G2 X1.8861 Y6.9828 I-0.1335 J-0.1188
G2 X1.8996 Y6.9237 I-0.1294 J-0.0608
G3 X1.8998 Y6.9211 I0.0278 J0.0003
G3 X1.9031 Y6.8948 I0.6544 J0.07
G3 X1.9075 Y6.868 I0.9979 J0.1476
G3 X1.9127 Y6.8405 I1.05 J0.1843
G2 X1.9179 Y6.8139 I-1.9659 J-0.3986
G2 X1.9188 Y6.8087 I-0.4404 J-0.0831
G2 X1.9363 Y6.803 I-0.1792 J-0.5776
G2 X1.9616 Y6.7934 I-0.1461 J-0.4249
G2 X1.9831 Y6.7834 I-0.1021 J-0.2475
G2 X2.0104 Y6.7662 I-0.0917 J-0.1761
G2 X2.0341 Y6.7431 I-0.0774 J-0.1032
G3 X2.0529 Y6.7295 I0.2063 J0.2636
G3 X2.084 Y6.7097 I0.3582 J0.5292
G3 X2.122 Y6.6884 I0.4399 J0.7384
G2 X2.1817 Y6.6527 I-0.3163 J-0.5979
G2 X2.2596 Y6.5967 I-0.7899 J-1.1811
G2 X2.3279 Y6.5413 I-1.0854 J-1.4072
G2 X2.3965 Y6.4799 I-1.268 J-1.4856
G2 X2.4624 Y6.4147 I-1.1752 J-1.2523
G2 X2.5085 Y6.3626 I-0.655 J-0.6265
G2 X2.5318 Y6.3322 I-0.4803 J-0.3935
G2 X2.5489 Y6.3061 I-0.2715 J-0.1958
G2 X2.5665 Y6.2693 I-0.2048 J-0.1204
G2 X2.5734 Y6.2437 I-0.1324 J-0.0498
G3 X2.5761 Y6.242 I0.0106 J0.0143
G2 X2.6028 Y6.228 I-0.3211 J-0.6441
G2 X2.6215 Y6.2166 I-0.1124 J-0.2037
G2 X2.6515 Y6.1903 I-0.0931 J-0.1366
G2 X2.6805 Y6.1323 I-0.0921 J-0.0825
G2 X2.683 Y6.1083 I-0.1188 J-0.024
G2 X2.6709 Y6.0556 I-0.1212 J0
G2 X2.6611 Y6.0385 I-0.1271 J0.0613
G2 X2.675 Y6.0206 I-0.2443 J-0.203
G2 X2.7052 Y5.969 I-0.2633 J-0.1887
G2 X2.7255 Y5.9086 I-0.258 J-0.1205
G2 X2.7298 Y5.8686 I-0.1851 J-0.04
G2 X2.7286 Y5.8475 I-0.1894 J0
G3 X2.7335 Y5.8261 I0.1493 J0.023
G3 X2.7431 Y5.8009 I0.1918 J0.0589
G3 X2.7527 Y5.7838 I0.1163 J0.0537
G2 X2.7792 Y5.736 I-0.2868 J-0.1902
G2 X2.7975 Y5.685 I-0.3038 J-0.1382
G2 X2.8067 Y5.6258 I-0.2633 J-0.0712
G2 X2.8069 Y5.6188 I-0.159 J-0.007
G2 X2.7993 Y5.5701 I-0.1591 J0
G3 X2.7994 Y5.5683 I0.0333 J0.0023
G3 X2.8013 Y5.5593 I0.0535 J0.0065
G3 X2.8022 Y5.5572 I0.0109 J0.0033
G2 X2.8237 Y5.4959 I-0.1872 J-0.1002
G2 X2.8278 Y5.4512 I-0.2399 J-0.0448
G2 X2.827 Y5.431 I-0.2441 J0
G2 X2.8169 Y5.3747 I-0.2991 J0.0248
G2 X2.7941 Y5.3095 I-0.5351 J0.1503
G3 X2.7817 Y5.2786 I0.9127 J-0.3838
G3 X2.7813 Y5.2775 I0.1781 J-0.0679
G2 X2.8124 Y5.23 I-0.1731 J-0.1468
G2 X2.8322 Y5.169 I-0.2108 J-0.1025
G2 X2.8364 Y5.1218 I-0.2621 J-0.0472
G2 X2.8362 Y5.111 I-0.2663 J0
G2 X2.8286 Y5.0471 I-0.4108 J0.0167
G3 X2.828 Y5.0439 I0.2399 J-0.048
G2 X2.8655 Y5.0095 I-0.1091 J-0.1568
G2 X2.9042 Y4.9175 I-0.1308 J-0.1093
G2 X2.9051 Y4.9013 I-0.1589 J-0.0162
G2 X2.8847 Y4.8232 I-0.1598 J0
G2 X2.8918 Y4.8121 I-0.2899 J-0.1953
G2 X2.9136 Y4.7574 I-0.1427 J-0.0885
G2 X2.9166 Y4.7281 I-0.1429 J-0.0293
G2 X2.9136 Y4.6986 I-0.1459 J0
G2 X2.9322 Y4.6874 I-0.0707 J-0.1394
G2 X2.9479 Y4.6748 I-0.0827 J-0.1188
G3 X2.9894 Y4.6884 I-0.8021 J2.5115
G3 X3.0617 Y4.7134 I-1.6669 J4.9358
G3 X3.1336 Y4.7395 I-1.8355 J5.1829
G3 X3.1912 Y4.7613 I-1.2462 J3.3691
G3 X3.2519 Y4.7861 I-0.7483 J1.9211
G3 X3.2656 Y4.7926 I-0.0672 J0.1576
G2 X3.3082 Y4.8111 I0.1312 J-0.2451
G2 X3.3623 Y4.8184 I0.0463 J-0.1377
G2 X3.4056 Y4.8081 I-0.0067 J-0.1246
G2 X3.508 Y4.8503 I0.4705 J-0.9964
G2 X3.5634 Y4.8681 I0.3258 J-0.9194
G2 X3.6073 Y4.8787 I0.1449 J-0.5021
G2 X3.6335 Y4.8829 I0.07 J-0.3553
G2 X3.6581 Y4.8844 I0.0253 J-0.2078
G2 X3.6965 Y4.8799 I0.0005 J-0.161
G2 X3.7051 Y4.8775 I-0.0287 J-0.1186
G1 X3.7056 Y4.8776
G3 X3.7322 Y4.881 I-0.0313 J0.3482
G3 X3.7697 Y4.8885 I-0.1056 J0.6287
G2 X3.8753 Y4.9038 I0.146 J-0.6336
G2 X3.9633 Y4.899 I0.0235 J-0.3767
G2 X4.0124 Y4.8852 I-0.0428 J-0.2467
G2 X4.0463 Y4.8665 I-0.0561 J-0.1421
G2 X4.0669 Y4.8716 I0.0571 J-0.1845
G2 X4.0984 Y4.876 I0.0569 J-0.2954
G2 X4.0983 Y4.882 I0.1452 J0.006
G2 X4.1015 Y4.9122 I0.1454 J0
G2 X4.1163 Y4.9581 I0.2297 J-0.0487
G3 X4.1191 Y4.9658 I-0.0596 J0.0262
G3 X4.1253 Y4.9904 I-0.2972 J0.0882
G3 X4.1297 Y5.0159 I-0.3428 J0.0719
G3 X4.1311 Y5.0321 I-0.1707 J0.0228
G2 X4.1471 Y5.1127 I0.26 J-0.01
G2 X4.2073 Y5.1866 I0.1388 J-0.0516
G2 X4.2949 Y5.2036 I0.0659 J-0.1051
G2 X4.329 Y5.1923 I-0.0216 J-0.1217
G2 X4.3622 Y5.1903 I0.0092 J-0.1235
G2 X4.3762 Y5.2084 I0.2636 J-0.189
G2 X4.4102 Y5.2409 I0.1577 J-0.1309
G2 X4.4076 Y5.2663 I0.1241 J0.0254
G2 X4.408 Y5.2753 I0.1267 J0
G2 X4.4124 Y5.3005 I0.1236 J-0.0088
G2 X4.3911 Y5.3218 I0.3615 J0.3828
G2 X4.3635 Y5.3574 I0.1706 J0.1611
G2 X4.3484 Y5.3877 I0.14 J0.0887
G2 X4.3405 Y5.4312 I0.1156 J0.0435
G2 X4.341 Y5.4427 I0.1235 J0
G2 X4.343 Y5.4558 I0.1169 J-0.011
G2 X4.3358 Y5.4727 I0.1434 J0.0714
G2 X4.3284 Y5.5144 I0.1152 J0.0417
G2 X4.329 Y5.5266 I0.1226 J0
G2 X4.364 Y5.5994 I0.1178 J-0.0118
G2 X4.4142 Y5.6294 I0.0875 J-0.0893
G2 X4.4427 Y5.6352 I0.0425 J-0.1358
G2 X4.4664 Y5.6364 I0.0237 J-0.2399
G2 X4.5397 Y5.6158 I0 J-0.1407
G2 X4.583 Y5.5777 I-0.0871 J-0.1427
G2 X4.5912 Y5.5837 I0.0881 J-0.1114
G2 X4.593 Y5.5849 I0.065 J-0.0957
G2 X4.5867 Y5.7765 I3.9845 J0.2288
G2 X4.5866 Y5.7967 I2.1588 J0.0201
G2 X4.5923 Y5.9545 I2.1589 J0
G3 X4.5979 Y6.1071 I-2.0801 J0.1525
G3 X4.5974 Y6.1553 I-2.0857 J0
G3 X4.5854 Y6.2818 I-0.8921 J-0.0206
G3 X4.573 Y6.3372 I-0.5086 J-0.085
G3 X4.5636 Y6.3622 I-0.1545 J-0.0437
G3 X4.5622 Y6.365 I-0.0407 J-0.0193
G2 X4.5397 Y6.3779 I0.0849 J0.1732
G2 X4.5068 Y6.4059 I0.1051 J0.1569
G2 X4.4785 Y6.4468 I0.1247 J0.1165
G2 X4.4708 Y6.4659 I0.1221 J0.0604
G3 X4.4692 Y6.468 I-0.2228 J-0.1775
G3 X4.4529 Y6.4872 I-0.4471 J-0.3628
G3 X4.4201 Y6.5232 I-1.4296 J-1.2676
G3 X4.3537 Y6.5923 I-2.4258 J-2.2641
G3 X4.2562 Y6.6889 I-4.7724 J-4.7193
G3 X4.1566 Y6.7836 I-4.7468 J-4.89
G3 X4.0829 Y6.8505 I-2.4729 J-2.6524
G3 X4.0444 Y6.8837 I-1.441 J-1.6333
G3 X4.0224 Y6.9015 I-0.4787 J-0.5687
G3 X4.0114 Y6.9097 I-0.1761 J-0.2263
G2 X3.9902 Y6.9184 I0.0612 J0.1778
G2 X3.951 Y6.9402 I0.1871 J0.3839
G2 X3.9158 Y6.9641 I0.2782 J0.4451
G2 X3.8839 Y6.9901 I0.2857 J0.384
G3 X3.8319 Y7.0279 I-0.2189 J-0.2467
G3 X3.7146 Y7.0878 I-0.5734 J-0.9779
G3 X3.6593 Y7.1103 I-0.4311 J-0.9807
G3 X3.615 Y7.1252 I-0.2426 J-0.6476
G3 X3.5706 Y7.136 I-0.1257 J-0.4201
G3 X3.5595 Y7.137 I-0.0111 J-0.0587
G2 X3.5101 Y7.1409 I0 J0.3179
G2 X3.4637 Y7.1544 I0.0294 J0.1866
G2 X3.4044 Y7.2042 I0.0551 J0.1259
G2 X3.3877 Y7.1934 I-0.1705 J0.2451
G2 X3.3289 Y7.1749 I-0.068 J0.1132
G2 X3.2181 Y7.2333 I-0.0083 J0.1187
G2 X3.199 Y7.3035 I0.1194 J0.0702
G2 X3.2003 Y7.3233 I0.1445 J0
G2 X3.1749 Y7.3322 I0.2461 J0.7444
G2 X3.1379 Y7.3463 I0.5998 J1.6248
G2 X3.0627 Y7.3774 I0.95 J2.4028
G2 X2.9721 Y7.418 I1.5471 J3.5788
G3 X2.863 Y7.464 I-0.7181 J-1.5514
G3 X2.5415 Y7.5819 I-4.8154 J-12.6322
G3 X2.2434 Y7.6846 I-7.6484 J-21.7001
G3 X1.874 Y7.8069 I-11.1682 J-33.1277
G3 X1.5036 Y7.9248 I-10.2991 J-31.7113
G3 X1.2337 Y8.0066 I-5.2426 J-16.8065
G3 X1.096 Y8.0462 I-3.1225 J-10.6046
G2 X1.1036 Y8.0339 I-0.1227 J-0.0842
G2 X1.118 Y7.9779 I-0.1014 J-0.056
G2 X1.0977 Y7.9123 I-0.1158 J0
G2 X1.0296 Y7.8647 I-0.0976 J0.0671
G2 X0.9936 Y7.8589 I-0.0495 J0.1919
G2 X0.9758 Y7.8581 I-0.0235 J0.3448
G2 X0.9386 Y7.8578 I-0.0345 J2.1158
G2 X0.8909 Y7.8604 I0.0005 J0.4474
G2 X0.8094 Y7.8713 I0.1779 J1.6409
G2 X0.7289 Y7.8857 I0.3352 J2.1072
G2 X0.6535 Y7.9023 I0.3688 J1.8565
G3 X0.6392 Y7.9057 I-0.421 J-1.7435
G2 X0.6568 Y7.8991 I-1.4995 J-4.0145
G2 X0.6738 Y7.8922 I-0.1445 J-0.3817
G2 X0.6905 Y7.8843 I-0.0992 J-0.2304
G2 X0.7126 Y7.8697 I-0.0603 J-0.1158
G2 X0.7549 Y7.7808 I-0.0725 J-0.0889
G2 X0.7539 Y7.7656 I-0.1147 J0
G2 X0.6746 Y7.6716 I-0.1133 J0.0151
G2 X0.6337 Y7.6655 I-0.0401 J0.1283
G2 X0.5912 Y7.667 I0.0048 J0.7384
G2 X0.5654 Y7.6688 I0.1106 J1.7243
G2 X0.5544 Y7.6697 I1.4249 J17.9935
G2 X0.5919 Y7.6477 I-0.2149 J-0.4093
G2 X0.6379 Y7.6063 I-0.1091 J-0.1674
G2 X0.6718 Y7.5333 I-0.1275 J-0.1036
G2 X0.6749 Y7.5004 I-0.1736 J-0.033
G2 X0.6739 Y7.4815 I-0.1767 J0
G3 X0.6809 Y7.4745 I0.0746 J0.0682
G3 X0.7367 Y7.4291 I0.4927 J0.5482
G3 X0.7832 Y7.397 I0.5417 J0.7359
G3 X0.8333 Y7.3669 I0.5247 J0.8139
G3 X0.8827 Y7.3417 I0.3314 J0.5893
G3 X0.8902 Y7.339 I0.0192 J0.0418
G1 X0.9594 Y7.3219
G2 X1.0449 Y7.2127 I-0.027 J-0.1092
G2 X1.0003 Y7.123 I-0.1125 J0
G1 X0.96 Y7.0925
G3 X0.9632 Y7.0901 I0.2105 J0.2765
G3 X1.0008 Y7.0641 I0.3892 J0.5236
G3 X1.0914 Y7.0146 I0.402 J0.6283
G3 X1.1406 Y6.9981 I0.1004 J0.2186
G2 X1.1807 Y6.9882 I-0.147 J-0.6747
G2 X1.1861 Y6.9866 I-0.2911 J-1.0343
G2 X1.1902 Y7.0197 I0.2405 J-0.0131
G2 X1.2127 Y7.0726 I0.1353 J-0.0264
G2 X1.2551 Y7.1102 I0.1003 J-0.0705
G2 X1.3294 Y7.1226 I0.0556 J-0.1038
G2 X1.3844 Y7.0986 I-0.0191 J-0.1185
G1 X1.3535 Y7.0592 F30
G2 X1.3702 Y7.0421 I-0.0542 J-0.0692 F30
G3 X1.3721 Y7.0399 I0.0123 J0.009
G3 X1.3896 Y7.0251 I0.1667 J0.179
G3 X1.4094 Y7.0109 I0.2054 J0.267
G3 X1.4283 Y6.9995 I0.1557 J0.2359
G2 X1.462 Y6.975 I-0.0819 J-0.1479
G2 X1.4932 Y6.9399 I-0.1756 J-0.1874
G2 X1.5174 Y6.9 I-0.2118 J-0.156
G2 X1.5316 Y6.8603 I-0.1682 J-0.0827
G3 X1.5362 Y6.8489 I0.0395 J0.0093
G3 X1.546 Y6.8368 I0.0471 J0.028
G3 X1.5602 Y6.8266 I0.0466 J0.05
G3 X1.5774 Y6.8194 I0.0464 J0.0864
G2 X1.5718 Y6.8553 I0.2453 J0.0568
G2 X1.5708 Y6.8805 I0.3036 J0.0252
G2 X1.5711 Y6.8952 I0.3047 J0
G2 X1.5757 Y6.9332 I0.272 J-0.0131
G2 X1.5815 Y6.96 I0.5301 J-0.1013
G2 X1.5867 Y6.9775 I0.1739 J-0.0425
G2 X1.599 Y7.0023 I0.1114 J-0.0397
G2 X1.6245 Y7.0267 I0.0645 J-0.0419
G2 X1.6659 Y7.0367 I0.0372 J-0.0632
G2 X1.6862 Y7.0331 I-0.0051 J-0.0884
G2 X1.7287 Y7.0404 I0.0326 J-0.0627
G2 X1.7646 Y7.0311 I-0.0228 J-0.1623
G2 X1.7948 Y7.0151 I-0.0512 J-0.1333
G2 X1.8205 Y6.9923 I-0.0826 J-0.119
G2 X1.8408 Y6.9615 I-0.0962 J-0.0856
G2 X1.8496 Y6.9231 I-0.0841 J-0.0395
G3 X1.8501 Y6.9158 I0.0778 J0.0009
G3 X1.8537 Y6.8874 I0.7041 J0.0753
G3 X1.8582 Y6.8593 I1.0474 J0.155
G3 X1.8637 Y6.8305 I1.0992 J0.193
G2 X1.8688 Y6.8046 I-1.9169 J-0.3886
G2 X1.8709 Y6.792 I-0.3913 J-0.0738
G2 X1.8721 Y6.7835 I-0.2347 J-0.0365
G2 X1.8727 Y6.776 I-0.1109 J-0.0132
G2 X1.8728 Y6.7718 I-0.0827 J-0.0042
G2 X1.8728 Y6.7696 I-0.0828 J0
G2 X1.8738 Y6.7694 I-0.1836 J-0.741
G2 X1.92 Y6.7557 I-0.1342 J-0.5383
G2 X1.9425 Y6.7472 I-0.1298 J-0.3776
G2 X1.96 Y6.7391 I-0.083 J-0.2012
G2 X1.9805 Y6.7262 I-0.0686 J-0.1317
G2 X1.998 Y6.708 I-0.0474 J-0.0632
G3 X2.0248 Y6.6881 I0.2425 J0.2987
G3 X2.0584 Y6.6668 I0.3862 J0.5706
G3 X2.0986 Y6.6442 I0.4655 J0.7814
G2 X2.1539 Y6.6112 I-0.2929 J-0.5537
G2 X2.2291 Y6.5572 I-0.7621 J-1.1395
G2 X2.2955 Y6.5032 I-1.0548 J-1.3676
G2 X2.3623 Y6.4435 I-1.2355 J-1.4476
G2 X2.4262 Y6.3801 I-1.141 J-1.2159
G2 X2.4698 Y6.3309 I-0.6189 J-0.592
G2 X2.4913 Y6.303 I-0.4417 J-0.3618
G2 X2.5058 Y6.2807 I-0.231 J-0.1666
G2 X2.5197 Y6.2517 I-0.1617 J-0.0951
G2 X2.5254 Y6.2238 I-0.0856 J-0.0322
G3 X2.5303 Y6.2164 I0.0404 J0.0212
G3 X2.5414 Y6.2053 I0.0579 J0.0467
G3 X2.5538 Y6.1973 I0.0427 J0.0527
G2 X2.5786 Y6.1843 I-0.2988 J-0.5994
G2 X2.5933 Y6.1753 I-0.0883 J-0.1599
G2 X2.6142 Y6.1569 I-0.065 J-0.0953
G2 X2.6315 Y6.1224 I-0.0549 J-0.0491
G2 X2.633 Y6.1083 I-0.0698 J-0.0141
G2 X2.6259 Y6.0773 I-0.0712 J0
G2 X2.6071 Y6.0513 I-0.0821 J0.0396
G2 X2.5939 Y6.0402 I-0.0904 J0.0937
G2 X2.5918 Y6.0386 I-0.2583 J0.3508
G3 X2.6014 Y6.0293 I0.7508 J0.7689
G2 X2.6343 Y5.9915 I-0.1846 J-0.1938
G2 X2.6599 Y5.9478 I-0.2226 J-0.1596
G2 X2.6766 Y5.8981 I-0.2127 J-0.0993
G2 X2.6798 Y5.8686 I-0.1362 J-0.0295
G2 X2.6787 Y5.8514 I-0.1394 J0
G3 X2.6785 Y5.8473 I0.0337 J-0.0042
G3 X2.6788 Y5.8425 I0.034 J0
G3 X2.6857 Y5.8114 I0.1991 J0.0279
G3 X2.6977 Y5.78 I0.2396 J0.0736
G3 X2.711 Y5.7562 I0.1617 J0.0746
G2 X2.7337 Y5.7153 I-0.2451 J-0.1626
G2 X2.7493 Y5.672 I-0.2583 J-0.1175
G2 X2.7568 Y5.6236 I-0.215 J-0.0582
G2 X2.7569 Y5.6188 I-0.109 J-0.0048
G2 X2.7497 Y5.5797 I-0.1091 J0
G3 X2.7494 Y5.5786 I0.0036 J-0.0014
G3 X2.7492 Y5.5724 I0.0831 J-0.0063
G3 X2.7498 Y5.5623 I0.0834 J0
G3 X2.7534 Y5.5449 I0.1031 J0.0125
G3 X2.7581 Y5.5336 I0.0588 J0.0177
G2 X2.7746 Y5.4868 I-0.1432 J-0.0766
G2 X2.7778 Y5.4512 I-0.1908 J-0.0356
G2 X2.7772 Y5.4351 I-0.1941 J0
G2 X2.7687 Y5.3882 I-0.2493 J0.0207
G2 X2.748 Y5.3289 I-0.487 J0.1368
G3 X2.735 Y5.2964 I0.9588 J-0.4031
G3 X2.73 Y5.2818 I0.2248 J-0.0857
G3 X2.7265 Y5.2676 I0.1118 J-0.0346
G1 X2.7265 Y5.2675
G3 X2.7394 Y5.2495 I0.0852 J0.0473
G2 X2.7674 Y5.2081 I-0.1312 J-0.1187
G2 X2.783 Y5.1602 I-0.1658 J-0.0806
G2 X2.7864 Y5.1218 I-0.2129 J-0.0383
G2 X2.7863 Y5.1131 I-0.2163 J0
G2 X2.7796 Y5.0569 I-0.3609 J0.0146
G3 X2.7744 Y5.0167 I0.2889 J-0.0578
G2 X2.8271 Y4.9775 I-0.0554 J-0.1296
G2 X2.8545 Y4.9125 I-0.0925 J-0.0772
G2 X2.8551 Y4.9013 I-0.1092 J-0.0111
G2 X2.8367 Y4.8405 I-0.1098 J0
G2 X2.8222 Y4.8228 I-0.0965 J0.0643
G2 X2.8493 Y4.7858 I-0.2274 J-0.1949
G2 X2.8646 Y4.7473 I-0.1002 J-0.0621
G2 X2.8666 Y4.7281 I-0.0939 J-0.0193
G2 X2.8609 Y4.6956 I-0.0959 J0
G2 X2.8449 Y4.6659 I-0.1069 J0.0384
G2 X2.8724 Y4.6613 I-0.0062 J-0.1212
G2 X2.9036 Y4.6464 I-0.0295 J-0.1021
G2 X2.9309 Y4.6172 I-0.0541 J-0.0778
G1 X2.9309 Y4.6171
G3 X2.9533 Y4.624 I-0.471 J1.5725
G3 X3.0054 Y4.6411 I-0.8075 J2.5623
G3 X3.0783 Y4.6663 I-1.6829 J4.9831
G3 X3.151 Y4.6926 I-1.8522 J5.23
G3 X3.2093 Y4.7147 I-1.2635 J3.416
G3 X3.2716 Y4.7401 I-0.7664 J1.9677
G3 X3.2892 Y4.7485 I-0.0869 J0.2036
G2 X3.3242 Y4.7637 I0.1076 J-0.201
G2 X3.3596 Y4.7685 I0.0303 J-0.0903
G2 X3.4034 Y4.7513 I-0.004 J-0.0747
G2 X3.4087 Y4.7541 I0.1287 J-0.2459
G2 X3.5247 Y4.8032 I0.4674 J-0.9424
G2 X3.5772 Y4.82 I0.3091 J-0.8723
G2 X3.6169 Y4.8297 I0.131 J-0.454
G2 X3.6395 Y4.8333 I0.0603 J-0.3062
G2 X3.6583 Y4.8344 I0.0193 J-0.1582
G2 X3.6847 Y4.8313 I0.0004 J-0.111
G2 X3.6974 Y4.827 I-0.0169 J-0.07
G3 X3.7101 Y4.8278 I-0.0083 J0.2332
G3 X3.7404 Y4.8317 I-0.0358 J0.398
G3 X3.781 Y4.8397 I-0.1139 J0.6781
G2 X3.8784 Y4.8539 I0.1348 J-0.5849
G2 X3.9548 Y4.8497 I0.0204 J-0.3268
G2 X3.994 Y4.8387 I-0.0343 J-0.1975
G2 X4.0267 Y4.8179 I-0.0377 J-0.0956
G2 X4.0356 Y4.808 I-0.056 J-0.0595
G2 X4.0764 Y4.8225 I0.0678 J-0.126
G2 X4.1153 Y4.8269 I0.0475 J-0.2463
G2 X4.163 Y4.8258 I0.0143 J-0.4221
G3 X4.1697 Y4.8254 I0.0427 J0.5378
G2 X4.15 Y4.864 I0.0569 J0.0534
G2 X4.1483 Y4.882 I0.0937 J0.018
G2 X4.1504 Y4.9018 I0.0954 J0
G2 X4.162 Y4.9379 I0.1808 J-0.0384
G3 X4.167 Y4.9516 I-0.1053 J0.0464
G3 X4.1742 Y4.9801 I-0.3452 J0.1024
G3 X4.1792 Y5.0093 I-0.3918 J0.0821
G3 X4.181 Y5.0302 I-0.2202 J0.0294
G2 X4.194 Y5.0953 I0.21 J-0.0081
G2 X4.2338 Y5.1442 I0.092 J-0.0342
G2 X4.2862 Y5.1544 I0.0394 J-0.0627
G2 X4.3185 Y5.14 I-0.0129 J-0.0725
G2 X4.3247 Y5.1414 I0.0205 J-0.0761
G2 X4.3648 Y5.1376 I0.0134 J-0.0726
G2 X4.3837 Y5.1272 I-0.0292 J-0.0751
G2 X4.3914 Y5.1438 I0.0777 J-0.0261
G2 X4.4147 Y5.1764 I0.2344 J-0.1425
G2 X4.4431 Y5.2031 I0.1193 J-0.099
G2 X4.4722 Y5.2196 I0.0909 J-0.1258
G1 X4.4721 Y5.2199
G2 X4.4617 Y5.2417 I0.087 J0.0548
G2 X4.4576 Y5.2663 I0.0727 J0.0246
G2 X4.4578 Y5.2717 I0.0767 J0
G2 X4.4738 Y5.3126 I0.0737 J-0.0053
G3 X4.4634 Y5.3219 I-0.2987 J-0.3262
G2 X4.4275 Y5.3562 I0.3106 J0.3614
G2 X4.4057 Y5.3841 I0.1343 J0.1268
G2 X4.3952 Y5.4053 I0.0977 J0.0619
G2 X4.3905 Y5.4312 I0.0688 J0.0259
G2 X4.3908 Y5.4381 I0.0735 J0
G2 X4.3976 Y5.4618 I0.0671 J-0.0063
G2 X4.3925 Y5.4694 I0.1331 J0.0927
G2 X4.3828 Y5.4897 I0.0939 J0.0578
G2 X4.3784 Y5.5144 I0.0682 J0.0247
G2 X4.3788 Y5.5216 I0.0726 J0
G2 X4.399 Y5.5637 I0.0681 J-0.0068
G2 X4.4291 Y5.5817 I0.0525 J-0.0536
G2 X4.4476 Y5.5855 I0.0275 J-0.0881
G2 X4.4664 Y5.5864 I0.0188 J-0.1902
G2 X4.5136 Y5.5731 I0 J-0.0907
G2 X4.5471 Y5.5423 I-0.0611 J-0.1
G2 X4.5661 Y5.5063 I-0.1117 J-0.0817
G2 X4.5726 Y5.4811 I-0.1502 J-0.0526
G2 X4.5777 Y5.4906 I0.1492 J-0.0744
G2 X4.59 Y5.5108 I0.5231 J-0.3046
G2 X4.5985 Y5.5228 I0.1296 J-0.0824
G2 X4.6193 Y5.5424 I0.0726 J-0.0566
G2 X4.6451 Y5.5528 I0.0369 J-0.0543
G2 X4.6367 Y5.777 I3.9324 J0.2609
G2 X4.6366 Y5.7967 I2.1088 J0.0196
G2 X4.6422 Y5.9509 I2.1089 J0
G3 X4.6479 Y6.1071 I-2.13 J0.1562
G3 X4.6474 Y6.1565 I-2.1357 J0
G3 X4.6347 Y6.2901 I-0.942 J-0.0218
G3 X4.6211 Y6.3508 I-0.5579 J-0.0933
G3 X4.6088 Y6.3837 I-0.2026 J-0.0573
G3 X4.5946 Y6.4052 I-0.0859 J-0.0407
G2 X4.5675 Y6.4194 I0.0524 J0.1329
G2 X4.5433 Y6.4401 I0.0773 J0.1154
G2 X4.5234 Y6.4689 I0.0882 J0.0823
G2 X4.5164 Y6.4886 I0.0773 J0.0382
G1 X4.5162 Y6.489
G3 X4.508 Y6.4995 I-0.2682 J-0.2005
G3 X4.4903 Y6.5203 I-0.4859 J-0.3943
G3 X4.4566 Y6.5573 I-1.467 J-1.3008
G3 X4.3893 Y6.6274 I-2.4623 J-2.2982
G3 X4.291 Y6.7248 I-4.808 J-4.7544
G3 X4.1907 Y6.8202 I-4.7816 J-4.9259
G3 X4.116 Y6.888 I-2.507 J-2.689
G3 X4.0766 Y6.9219 I-1.4741 J-1.6708
G3 X4.0531 Y6.941 I-0.5109 J-0.607
G3 X4.0336 Y6.955 I-0.2068 J-0.2657
G2 X4.0121 Y6.9634 I0.039 J0.1324
G2 X3.9775 Y6.9826 I0.1652 J0.339
G2 X3.9457 Y7.0043 I0.2517 J0.4027
G2 X3.9171 Y7.0275 I0.2559 J0.3439
G3 X3.8572 Y7.071 I-0.252 J-0.2841
G3 X3.7347 Y7.1336 I-0.5987 J-1.021
G3 X3.6768 Y7.1571 I-0.4512 J-1.0265
G3 X3.6293 Y7.1731 I-0.2601 J-0.6944
G3 X3.5799 Y7.1851 I-0.14 J-0.468
G3 X3.5595 Y7.187 I-0.0204 J-0.1079
G2 X3.5179 Y7.1903 I0 J0.2679
G2 X3.4838 Y7.2002 I0.0216 J0.1373
G2 X3.4438 Y7.2355 I0.035 J0.0801
G2 X3.4345 Y7.2613 I0.0611 J0.0364
G3 X3.4 Y7.2613 I-0.0173 J-0.111
G3 X3.3927 Y7.2581 I0.0023 J-0.0148
G2 X3.362 Y7.2363 I-0.1587 J0.1913
G2 X3.3254 Y7.2247 I-0.0423 J0.0704
G2 X3.2612 Y7.2586 I-0.0048 J0.0688
G2 X3.249 Y7.3035 I0.0763 J0.0449
G2 X3.2562 Y7.3398 I0.0945 J0
G2 X3.2667 Y7.3586 I0.0879 J-0.0366
G3 X3.2641 Y7.3597 I-0.024 J-0.0527
G2 X3.2449 Y7.3624 I0.0033 J0.0928
G2 X3.2168 Y7.3705 I0.0966 J0.3867
G2 X3.1922 Y7.3791 I0.2296 J0.6972
G2 X3.1563 Y7.3928 I0.5825 J1.5779
G2 X3.0825 Y7.4233 I0.9316 J2.3563
G2 X2.9931 Y7.4633 I1.5272 J3.5329
G3 X2.8808 Y7.5107 I-0.7391 J-1.5968
G3 X2.5581 Y7.629 I-4.8332 J-12.6789
G3 X2.2593 Y7.732 I-7.6651 J-21.7472
G3 X1.8895 Y7.8544 I-11.1842 J-33.1751
G3 X1.5185 Y7.9725 I-10.3146 J-31.7589
G3 X1.2478 Y8.0546 I-5.2575 J-16.8543
G3 X1.1074 Y8.0949 I-3.1366 J-10.6526
G3 X1.0184 Y8.1189 I-1.2005 J-4.2845
G3 X0.9243 Y8.141 I-0.5598 J-2.1699
G3 X0.9075 Y8.1438 I-0.0374 J-0.1759
G3 X0.9098 Y8.1414 I0.2328 J0.2338
G3 X0.9453 Y8.1095 I0.4162 J0.4266
G3 X1.0048 Y8.0627 I0.9017 J1.086
G2 X1.0293 Y8.044 I-0.6943 J-0.9338
G2 X1.0404 Y8.0345 I-0.1128 J-0.1436
G2 X1.0598 Y8.0097 I-0.0671 J-0.0726
G2 X1.068 Y7.9779 I-0.0576 J-0.0318
G2 X1.0565 Y7.9406 I-0.0658 J0
G2 X1.0172 Y7.9131 I-0.0564 J0.0387
G2 X0.9902 Y7.9088 I-0.037 J0.1435
G2 X0.975 Y7.9081 I-0.0201 J0.2949
G2 X0.9386 Y7.9078 I-0.0337 J2.0658
G2 X0.8963 Y7.9102 I0.0005 J0.3974
G2 X0.8173 Y7.9207 I0.1725 J1.5912
G2 X0.7387 Y7.9348 I0.3274 J2.0578
G2 X0.6652 Y7.9509 I0.359 J1.8075
G3 X0.5069 Y7.9819 I-0.4327 J-1.7921
G3 X0.4034 Y7.9906 I-0.1188 J-0.7894
G3 X0.3887 Y7.9907 I-0.008 J-0.4187
G3 X0.4219 Y7.9636 I0.3543 J0.4005
G3 X0.5077 Y7.9081 I0.436 J0.5806
G3 X0.5916 Y7.87 I0.2904 J0.5275
G2 X0.6391 Y7.8523 I-1.4519 J-3.9788
G2 X0.654 Y7.8463 I-0.1268 J-0.3349
G2 X0.6674 Y7.84 I-0.0795 J-0.1844
G2 X0.6811 Y7.831 I-0.0372 J-0.0715
G2 X0.7049 Y7.7808 I-0.0409 J-0.0502
G2 X0.7043 Y7.7722 I-0.0647 J0
G2 X0.6597 Y7.7193 I-0.0638 J0.0085
G2 X0.634 Y7.7155 I-0.0252 J0.0805
G2 X0.5944 Y7.7169 I0.0045 J0.6884
G2 X0.5694 Y7.7187 I0.1074 J1.6744
G2 X0.4889 Y7.7252 I1.421 J17.9437
G3 X0.4857 Y7.7255 I-66.0734 J-789.3319
G3 X0.4841 Y7.7256 I-16.9441 J-202.4291
G3 X0.3917 Y7.7306 I-0.1292 J-1.5434
G3 X0.3631 Y7.7303 I-0.0097 J-0.4096
G3 X0.3663 Y7.7272 I0.1656 J0.1709
G3 X0.4246 Y7.6819 I0.2786 J0.2984
G3 X0.5087 Y7.6364 I0.3506 J0.547
G2 X0.5646 Y7.6058 I-0.1691 J-0.376
G2 X0.5991 Y7.5748 I-0.0818 J-0.1255
G2 X0.6227 Y7.524 I-0.0887 J-0.0721
G2 X0.6249 Y7.5004 I-0.1245 J-0.0236
G2 X0.6214 Y7.4708 I-0.1267 J0
G3 X0.6276 Y7.459 I0.0398 J0.0134
G3 X0.6475 Y7.4373 I0.1208 J0.0907
G3 X0.707 Y7.3888 I0.5261 J0.5854
G3 X0.7561 Y7.355 I0.5713 J0.7762
G3 X0.8088 Y7.3233 I0.5518 J0.8559
G3 X0.8619 Y7.2962 I0.3559 J0.6329
G3 X0.8782 Y7.2904 I0.04 J0.0872
G1 X0.9474 Y7.2734
G2 X0.9949 Y7.2127 I-0.015 J-0.0607
G2 X0.9701 Y7.1629 I-0.0625 J0
G1 X0.9071 Y7.1152
G3 X0.8919 Y7.1011 I0.0622 J-0.0824
G3 X0.8858 Y7.0926 I0.0416 J-0.0368
G3 X0.9055 Y7.0727 I0.1678 J0.1457
G3 X0.9333 Y7.0499 I0.265 J0.2963
G3 X0.9739 Y7.022 I0.4191 J0.5637
G3 X1.0705 Y6.9692 I0.4289 J0.6704
G3 X1.13 Y6.9493 I0.1213 J0.2641
G2 X1.1671 Y6.94 I-0.1363 J-0.6258
G2 X1.2126 Y6.9261 I-0.2776 J-0.9862
G2 X1.2451 Y6.9146 I-0.2974 J-0.8952
G2 X1.2391 Y6.9389 I0.2273 J0.0695
G2 X1.2357 Y6.9737 I0.1794 J0.0348
G2 X1.2357 Y6.975 I0.1827 J0
G2 X1.2393 Y7.0101 I0.1909 J-0.0014
G2 X1.2536 Y7.0438 I0.0862 J-0.0168
G2 X1.2787 Y7.0661 I0.0594 J-0.0417
G2 X1.3215 Y7.0732 I0.032 J-0.0598
G2 X1.3535 Y7.0592 I-0.0111 J-0.0691
G0 Z0.5
G0 X5.418 Y2.775
G1 Z-0.0312 F10
G2 X5.4469 Y2.6881 I-0.8625 J-0.3352 F30
G2 X5.4545 Y2.6992 I3.0743 J-2.1031
G2 X5.4818 Y2.7382 I3.0206 J-2.0823
G3 X5.418 Y2.775 I-52.7873 J-91.3092
G1 X5.3563 Y2.7933 F30
G2 X5.4225 Y2.5604 I-0.8008 J-0.3535 F30
G2 X5.4957 Y2.6708 I3.0987 J-1.9754
G2 X5.5547 Y2.7538 I2.9794 J-2.0539
G3 X5.3592 Y2.8667 I-52.8601 J-91.3248
G2 X5.3376 Y2.8791 I1166.7784 J2025.7924
G2 X5.3265 Y2.8855 I307.5941 J534.0402
G2 X5.2995 Y2.9011 I3.0385 J5.2751
G2 X5.3563 Y2.7933 I-0.7484 J-0.4632
G1 X5.3106 Y2.7731 F30
G2 X5.3809 Y2.4399 I-0.7551 J-0.3333 F30
G2 X5.3794 Y2.3907 I-0.8254 J0
G3 X5.3991 Y2.4245 I-1.1769 J0.7096
G2 X5.461 Y2.5278 I2.0327 J-1.1479
G2 X5.5369 Y2.6424 I3.0602 J-1.9427
G2 X5.6159 Y2.7525 I2.9382 J-2.0256
G2 X5.6283 Y2.769 I1.6549 J-1.2361
G3 X5.3841 Y2.91 I-52.9338 J-91.34
G2 X5.3625 Y2.9225 I1166.7535 J2025.7491
G2 X5.3515 Y2.9288 I307.5692 J533.9968
G2 X5.2155 Y3.0095 I3.0135 J5.2318
G2 X5.1054 Y3.0796 I1.9377 J3.1691
G2 X5.0556 Y3.1133 I1.4092 J2.1327
G2 X5.0768 Y3.0804 I-0.7859 J-0.5304
G2 X5.3106 Y2.7731 I-0.5257 J-0.6425
G1 X5.2648 Y2.7529 F30
G2 X5.3309 Y2.4399 I-0.7093 J-0.3131 F30
G2 X5.3136 Y2.2769 I-0.7754 J0
G2 X5.2725 Y2.1436 I-0.7833 J0.1684
G3 X5.3841 Y2.3051 I-6.4177 J4.5557
G3 X5.4427 Y2.3999 I-1.1816 J0.7952
G2 X5.5032 Y2.501 I1.9892 J-1.1233
G2 X5.578 Y2.614 I3.018 J-1.9159
G2 X5.6559 Y2.7226 I2.8971 J-1.9972
G2 X5.7031 Y2.7833 I1.6149 J-1.2062
G3 X5.6767 Y2.7987 I-5.3145 J-9.104
G3 X5.4091 Y2.9534 I-52.9821 J-91.3697
G2 X5.3875 Y2.9658 I1166.7285 J2025.7058
G2 X5.3764 Y2.9722 I307.5442 J533.9535
G2 X5.2416 Y3.0522 I2.9886 J5.1885
G2 X5.133 Y3.1213 I1.9116 J3.1265
G2 X5.076 Y3.16 I1.3817 J2.091
G2 X5.0246 Y3.1979 I0.7753 J1.106
G2 X4.9882 Y3.2274 I0.668 J0.8629
G2 X4.94 Y3.2713 I0.5613 J0.6643
G2 X4.9125 Y3.2997 I0.5668 J0.5768
G2 X4.8627 Y3.2593 I-0.9212 J1.0845
G2 X4.8682 Y3.2542 I-0.8005 J-0.8869
G2 X5.0041 Y3.0999 I-0.6409 J-0.7012
G2 X5.0386 Y3.047 I-0.7344 J-0.517
G2 X5.2648 Y2.7529 I-0.4876 J-0.6091
G1 X5.2191 Y2.7328 F30
G2 X5.2809 Y2.4399 I-0.6636 J-0.2929 F30
G2 X5.2647 Y2.2874 I-0.7254 J0
G2 X5.1821 Y2.0719 I-0.7344 J0.1579
G2 X5.1742 Y1.9842 I-3.0835 J0.2338
G2 X5.166 Y1.9137 I-3.1436 J0.3286
G3 X5.2463 Y2.0218 I-7.541 J5.6856
G3 X5.4256 Y2.2772 I-6.3915 J4.6775
G3 X5.4862 Y2.3754 I-1.2231 J0.8231
G2 X5.5454 Y2.4742 I1.9456 J-1.0988
G2 X5.6192 Y2.5856 I2.9758 J-1.8891
G2 X5.696 Y2.6926 I2.8559 J-1.9688
G2 X5.7647 Y2.7794 I1.5748 J-1.1763
G3 X5.7787 Y2.7969 I-0.4113 J0.345
G3 X5.7018 Y2.842 I-5.3901 J-9.1176
G3 X5.434 Y2.9967 I-53.0072 J-91.413
G2 X5.4125 Y3.0091 I1166.7036 J2025.6625
G2 X5.4014 Y3.0155 I307.5193 J533.9102
G2 X5.2677 Y3.0948 I2.9636 J5.1452
G2 X5.1605 Y3.163 I1.8855 J3.0838
G2 X5.1047 Y3.201 I1.3541 J2.0493
G2 X5.0552 Y3.2375 I0.7466 J1.065
G2 X5.0205 Y3.2655 I0.6374 J0.8234
G2 X4.975 Y3.307 I0.529 J0.6261
G2 X4.919 Y3.3684 I0.5318 J0.5412
G2 X4.9141 Y3.3652 I-0.4703 J0.7184
G2 X4.9051 Y3.3594 I-0.4058 J0.6293
G2 X4.7825 Y3.2621 I-0.9138 J1.0247
G2 X4.8345 Y3.2173 I-0.7203 J-0.8897
G2 X4.9632 Y3.0711 I-0.6072 J-0.6643
G2 X5.0004 Y3.0135 I-0.6935 J-0.4882
G2 X5.0073 Y3.0081 I-0.4941 J-0.6315
G2 X5.2191 Y2.7328 I-0.4562 J-0.5702
G1 X5.1734 Y2.7126 F30
G2 X5.2309 Y2.4399 I-0.6179 J-0.2727 F30
G2 X5.2158 Y2.298 I-0.6754 J0
G2 X5.1331 Y2.0871 I-0.6855 J0.1473
G2 X5.1244 Y1.9894 I-3.0345 J0.2186
G2 X5.1117 Y1.8844 I-3.0938 J0.3234
G2 X5.093 Y1.7701 I-2.3906 J0.3324
G2 X5.0833 Y1.7245 I-0.981 J0.1848
G3 X5.0942 Y1.7383 I-4.2128 J3.3282
G3 X5.2867 Y1.9923 I-7.4692 J5.861
G3 X5.4671 Y2.2493 I-6.4318 J4.707
G3 X5.5298 Y2.3508 I-1.2645 J0.851
G2 X5.5876 Y2.4474 I1.9021 J-1.0742
G2 X5.6604 Y2.5573 I2.9336 J-1.8623
G2 X5.7361 Y2.6627 I2.8147 J-1.9404
G2 X5.803 Y2.7473 I1.5348 J-1.1464
G3 X5.8439 Y2.8023 I-0.4496 J0.3771
G3 X5.8465 Y2.8147 I-0.8392 J0.1803
G3 X5.8093 Y2.8369 I-2.6693 J-4.4244
G3 X5.7268 Y2.8852 I-5.4206 J-9.1576
G3 X5.459 Y3.04 I-53.0323 J-91.4562
G2 X5.4374 Y3.0524 I1166.6786 J2025.6191
G2 X5.4263 Y3.0588 I307.4943 J533.8669
G2 X5.2938 Y3.1375 I2.9387 J5.1018
G2 X5.1881 Y3.2047 I1.8594 J3.0412
G2 X5.1334 Y3.2419 I1.3265 J2.0076
G2 X5.0858 Y3.277 I0.7179 J1.0241
G2 X5.0527 Y3.3037 I0.6067 J0.7839
G2 X5.0101 Y3.3426 I0.4968 J0.5879
G2 X4.9303 Y3.4359 I0.4967 J0.5055
G2 X4.9297 Y3.4367 I0.5419 J0.3875
G2 X4.887 Y3.4072 I-0.481 J0.6501
G2 X4.875 Y3.3996 I-0.3787 J0.5873
G2 X4.7517 Y3.3016 I-0.8837 J0.9845
G2 X4.6952 Y3.2655 I-0.4383 J0.6239
G2 X4.8008 Y3.1804 I-0.633 J-0.8931
G2 X4.9223 Y3.0423 I-0.5735 J-0.6274
G2 X4.9621 Y2.9799 I-0.6526 J-0.4595
G2 X4.976 Y2.969 I-0.4558 J-0.5979
G2 X5.1734 Y2.7126 I-0.4249 J-0.5311
G1 X5.1276 Y2.6924 F30
G2 X5.1809 Y2.4399 I-0.5721 J-0.2525 F30
G2 X5.1669 Y2.3085 I-0.6254 J0
G2 X5.0841 Y2.1027 I-0.6367 J0.1368
G3 X5.0837 Y2.0974 I0.7836 J-0.06
G2 X5.0747 Y1.9946 I-2.9851 J0.2083
G2 X5.0621 Y1.8913 I-3.0441 J0.3182
G2 X5.0438 Y1.7793 I-2.3411 J0.3255
G2 X5.0244 Y1.6968 I-0.9318 J0.1755
G3 X5.0198 Y1.6653 I0.8374 J-0.1395
G3 X5.014 Y1.6118 I1.3199 J-0.1692
G3 X5.0109 Y1.5638 I1.119 J-0.0977
G2 X5.0105 Y1.5564 I-2.0137 J0.0892
G3 X5.1335 Y1.7074 I-4.1401 J3.4962
G3 X5.327 Y1.9627 I-7.5085 J5.8919
G3 X5.5085 Y2.2213 I-6.4722 J4.7365
G3 X5.5733 Y2.3262 I-1.306 J0.8789
G2 X5.6298 Y2.4206 I1.8586 J-1.0496
G2 X5.7015 Y2.5289 I2.8914 J-1.8355
G2 X5.7761 Y2.6328 I2.7736 J-1.912
G2 X5.8413 Y2.7152 I1.4947 J-1.1164
G3 X5.8895 Y2.7806 I-0.488 J0.4092
G3 X5.8901 Y2.7818 I-0.006 J0.0039
G3 X5.8919 Y2.7876 I-0.0328 J0.0134
G3 X5.9017 Y2.8396 I-0.8872 J0.195
G3 X5.8347 Y2.88 I-2.7245 J-4.4493
G3 X5.7519 Y2.9285 I-5.4461 J-9.2007
G3 X5.4839 Y3.0833 I-53.0574 J-91.4995
G2 X5.4624 Y3.0958 I1166.6536 J2025.5758
G2 X5.4513 Y3.1021 I307.4694 J533.8235
G2 X5.3198 Y3.1802 I2.9137 J5.0585
G2 X5.2157 Y3.2464 I1.8333 J2.9985
G2 X5.1621 Y3.2829 I1.299 J1.9659
G2 X5.1164 Y3.3166 I0.6892 J0.9831
G2 X5.085 Y3.3419 I0.5761 J0.7443
G2 X5.0451 Y3.3783 I0.4645 J0.5497
G2 X4.971 Y3.465 I0.4617 J0.4699
G2 X4.9438 Y3.5064 I0.5012 J0.3584
G2 X4.938 Y3.5064 I-0.0333 J2.5602
G2 X4.9335 Y3.5028 I-1.024 J1.2721
G2 X4.9017 Y3.4782 I-0.7296 J0.913
G2 X4.8599 Y3.4492 I-0.453 J0.6086
G2 X4.8449 Y3.4399 I-0.3516 J0.5453
G2 X4.723 Y3.3425 I-0.8537 J0.9442
G2 X4.6182 Y3.2815 I-0.4096 J0.583
G2 X4.6502 Y3.2366 I-1.1976 J-0.8885
G3 X4.6537 Y3.2335 I0.1264 J0.1402
G2 X4.767 Y3.1435 I-0.5915 J-0.8611
G2 X4.8815 Y3.0136 I-0.5397 J-0.5905
G2 X4.9237 Y2.9462 I-0.6117 J-0.4307
G2 X4.9448 Y2.93 I-0.4174 J-0.5642
G2 X5.1276 Y2.6924 I-0.3937 J-0.4921
G1 X5.0819 Y2.6722 F30
G2 X5.1309 Y2.4399 I-0.5264 J-0.2323 F30
G2 X5.118 Y2.319 I-0.5754 J0
G2 X5.0366 Y2.1212 I-0.5878 J0.1263
G2 X5.0353 Y2.1191 I-0.5492 J0.3515
G3 X5.0338 Y2.1009 I0.8324 J-0.0764
G2 X5.025 Y1.9998 I-2.9352 J0.2048
G2 X5.0126 Y1.8982 I-2.9944 J0.313
G2 X4.9947 Y1.7886 I-2.2916 J0.3186
G2 X4.9756 Y1.7078 I-0.8827 J0.1663
G3 X4.9702 Y1.6717 I0.8863 J-0.1505
G3 X4.9642 Y1.6161 I1.3695 J-0.1756
G3 X4.9609 Y1.566 I1.1688 J-0.102
G2 X4.9475 Y1.4076 I-1.9638 J0.087
G3 X5.0217 Y1.4924 I-4.0431 J3.6159
G3 X5.1728 Y1.6766 I-4.1513 J3.5602
G3 X5.3674 Y1.9332 I-7.5479 J5.9227
G3 X5.55 Y2.1934 I-6.5125 J4.7661
G3 X5.6168 Y2.3016 I-1.3475 J0.9069
G2 X5.6721 Y2.3938 I1.815 J-1.025
G2 X5.7427 Y2.5005 I2.8492 J-1.8087
G2 X5.8162 Y2.6029 I2.7324 J-1.8837
G2 X5.8796 Y2.683 I1.4546 J-1.0865
G3 X5.9315 Y2.7536 I-0.5263 J0.4413
G3 X5.9363 Y2.7628 I-0.0481 J0.0308
G3 X5.9407 Y2.7769 I-0.0791 J0.0324
G3 X5.9558 Y2.865 I-0.936 J0.2057
G3 X5.8602 Y2.923 I-2.7786 J-4.4747
G3 X5.777 Y2.9717 I-5.4716 J-9.2437
G3 X5.5089 Y3.1267 I-53.0824 J-91.5428
G2 X5.4873 Y3.1391 I1166.6287 J2025.5325
G2 X5.4762 Y3.1455 I307.4444 J533.7802
G2 X5.3459 Y3.2228 I2.8888 J5.0152
G2 X5.2432 Y3.2881 I1.8073 J2.9559
G2 X5.1908 Y3.3238 I1.2714 J1.9242
G2 X5.147 Y3.3561 I0.6605 J0.9422
G2 X5.1173 Y3.3801 I0.5455 J0.7048
G2 X5.0801 Y3.414 I0.4322 J0.5115
G2 X5.0116 Y3.4941 I0.4266 J0.4342
G2 X4.9726 Y3.557 I0.4606 J0.3293
G2 X4.9624 Y3.5567 I-0.0634 J2.5722
G2 X4.9201 Y3.5562 I-0.0519 J2.5099
G2 X4.9023 Y3.5418 I-1.006 J1.2222
G2 X4.8718 Y3.5183 I-0.6984 J0.874
G2 X4.8328 Y3.4912 I-0.4231 J0.5685
G2 X4.815 Y3.4802 I-0.3245 J0.5032
G2 X4.6942 Y3.3834 I-0.8237 J0.9039
G2 X4.5386 Y3.3025 I-0.3808 J0.5421
G2 X4.6121 Y3.2038 I-1.1179 J-0.9095
G3 X4.6234 Y3.1937 I0.1645 J0.173
G2 X4.7333 Y3.1066 I-0.5611 J-0.8213
G2 X4.8406 Y2.9848 I-0.506 J-0.5536
G2 X4.8852 Y2.9124 I-0.5708 J-0.4019
G2 X4.9135 Y2.891 I-0.3789 J-0.5304
G2 X5.0819 Y2.6722 I-0.3625 J-0.453
G1 X5.0361 Y2.652 F30
G2 X5.0809 Y2.4399 I-0.4806 J-0.2121 F30
G2 X5.0691 Y2.3295 I-0.5254 J0
G2 X4.9945 Y2.1482 I-0.5389 J0.1158
G2 X4.9867 Y2.1363 I-0.5071 J0.3246
G3 X4.9839 Y2.1044 I0.881 J-0.0936
G2 X4.9753 Y2.005 I-2.8853 J0.2013
G2 X4.9631 Y1.9051 I-2.9447 J0.3078
G2 X4.9455 Y1.7978 I-2.242 J0.3117
G2 X4.9268 Y1.719 I-0.8336 J0.157
G3 X4.9206 Y1.678 I0.9351 J-0.1617
G3 X4.9144 Y1.6205 I1.4191 J-0.182
G3 X4.911 Y1.5682 I1.2186 J-0.1064
G2 X4.8961 Y1.4005 I-1.9138 J0.0848
G2 X4.8532 Y1.236 I-0.6863 J0.0913
G2 X4.8501 Y1.2284 I-0.5127 J0.2038
G3 X4.9143 Y1.297 I-10.5259 J9.9102
G3 X5.0597 Y1.4599 I-4.0099 J3.7265
G3 X5.2122 Y1.6457 I-4.1892 J3.5927
G3 X5.4077 Y1.9037 I-7.5872 J5.9536
G3 X5.5915 Y2.1655 I-6.5529 J4.7956
G3 X5.6604 Y2.277 I-1.389 J0.9348
G2 X5.7143 Y2.367 I1.7715 J-1.0004
G2 X5.7839 Y2.4721 I2.807 J-1.7819
G2 X5.8562 Y2.573 I2.6912 J-1.8553
G2 X5.918 Y2.6509 I1.4146 J-1.0566
G3 X5.9736 Y2.7266 I-0.5646 J0.4735
G3 X5.9826 Y2.7439 I-0.0902 J0.0578
G3 X5.9895 Y2.7661 I-0.1254 J0.0514
G3 X6.0076 Y2.878 I-0.9848 J0.2165
G3 X6.0089 Y2.8908 I-1.8355 J0.1914
G3 X6.004 Y2.8939 I-0.4086 J-0.64
G3 X5.8857 Y2.966 I-2.8268 J-4.5036
G3 X5.8021 Y3.015 I-5.497 J-9.2867
G3 X5.5338 Y3.17 I-53.1075 J-91.586
G2 X5.5123 Y3.1824 I1166.6037 J2025.4891
G2 X5.5012 Y3.1888 I307.4195 J533.7369
G2 X5.372 Y3.2655 I2.8638 J4.9719
G2 X5.2708 Y3.3298 I1.7812 J2.9132
G2 X5.2195 Y3.3647 I1.2439 J1.8824
G2 X5.1776 Y3.3956 I0.6318 J0.9013
G2 X5.1496 Y3.4183 I0.5149 J0.6652
G2 X5.1152 Y3.4496 I0.3999 J0.4733
G2 X5.0523 Y3.5232 I0.3916 J0.3985
G2 X5.0031 Y3.6079 I0.4199 J0.3003
G2 X4.9614 Y3.6067 I-0.0939 J2.5213
G2 X4.902 Y3.6062 I-0.0509 J2.4599
G2 X4.8711 Y3.5809 I-0.9879 J1.1722
G2 X4.842 Y3.5584 I-0.6672 J0.8349
G2 X4.8057 Y3.5332 I-0.3933 J0.5284
G2 X4.785 Y3.5206 I-0.2974 J0.4612
G2 X4.6655 Y3.4243 I-0.7938 J0.8635
G2 X4.4728 Y3.3341 I-0.3521 J0.5012
G2 X4.4501 Y3.3285 I-0.1408 J0.5223
G2 X4.4763 Y3.299 I-0.8728 J-0.8011
G2 X4.5735 Y3.1715 I-1.0557 J-0.906
G3 X4.5763 Y3.1688 I0.1383 J0.1381
G3 X4.5926 Y3.1543 I0.2003 J0.208
G3 X4.5939 Y3.1532 I0.0117 J0.0142
G2 X4.6996 Y3.0697 I-0.5317 J-0.7809
G2 X4.7997 Y2.956 I-0.4723 J-0.5167
G2 X4.8466 Y2.8784 I-0.5299 J-0.3731
G2 X4.8823 Y2.8519 I-0.3402 J-0.4964
G2 X5.0361 Y2.652 I-0.3312 J-0.414
G1 X4.9904 Y2.6318 F30
G2 X5.0309 Y2.4399 I-0.4349 J-0.1919 F30
G2 X5.0203 Y2.34 I-0.4754 J0
G2 X4.9524 Y2.1751 I-0.49 J0.1053
G2 X4.9385 Y2.1544 I-0.465 J0.2976
G3 X4.934 Y2.1078 I0.9293 J-0.1117
G2 X4.9255 Y2.0102 I-2.8354 J0.1979
G2 X4.9136 Y1.912 I-2.8949 J0.3026
G2 X4.8964 Y1.8071 I-2.1925 J0.3048
G2 X4.878 Y1.7303 I-0.7844 J0.1477
G3 X4.871 Y1.6844 I0.9839 J-0.173
G3 X4.8646 Y1.6248 I1.4687 J-0.1883
G3 X4.861 Y1.5704 I1.2684 J-0.1107
G2 X4.8466 Y1.4071 I-1.8639 J0.0826
G2 X4.8067 Y1.2544 I-0.6367 J0.0847
G2 X4.7434 Y1.1409 I-0.4662 J0.1854
G2 X4.8376 Y1.1424 I0.0548 J-0.4602
G3 X4.9509 Y1.263 I-10.5134 J9.9962
G3 X5.0976 Y1.4273 I-4.0466 J3.7606
G3 X5.2515 Y1.6148 I-4.2272 J3.6253
G3 X5.4481 Y1.8742 I-7.6265 J5.9845
G3 X5.633 Y2.1376 I-6.5932 J4.8251
G3 X5.7039 Y2.2524 I-1.4305 J0.9627
G2 X5.7565 Y2.3402 I1.728 J-0.9758
G2 X5.825 Y2.4437 I2.7648 J-1.7551
G2 X5.8963 Y2.543 I2.6501 J-1.8269
G2 X5.9563 Y2.6188 I1.3745 J-1.0267
G3 X6.0157 Y2.6997 I-0.6029 J0.5056
G3 X6.0289 Y2.7249 I-0.1323 J0.0848
G3 X6.0384 Y2.7554 I-0.1716 J0.0703
G3 X6.0573 Y2.8729 I-1.0337 J0.2272
G3 X6.0613 Y2.9159 I-1.8853 J0.1966
G3 X6.0305 Y2.9362 I-0.4611 J-0.6652
G3 X5.9111 Y3.009 I-2.8533 J-4.5459
G3 X5.8272 Y3.0582 I-5.5225 J-9.3297
G3 X5.5588 Y3.2133 I-53.1326 J-91.6293
G2 X5.5372 Y3.2257 I1166.5788 J2025.4458
G2 X5.5262 Y3.2321 I307.3945 J533.6936
G2 X5.3981 Y3.3081 I2.8388 J4.9285
G2 X5.2983 Y3.3716 I1.7551 J2.8705
G2 X5.2482 Y3.4057 I1.2163 J1.8407
G2 X5.2082 Y3.4352 I0.6031 J0.8603
G2 X5.1818 Y3.4565 I0.4843 J0.6257
G2 X5.1502 Y3.4853 I0.3677 J0.4351
G2 X5.093 Y3.5523 I0.3566 J0.3629
G2 X5.0358 Y3.6594 I0.3792 J0.2712
G2 X4.9604 Y3.6567 I-0.1266 J2.4698
G2 X4.8837 Y3.6564 I-0.0499 J2.4099
G2 X4.8399 Y3.6199 I-0.9697 J1.1221
G2 X4.8121 Y3.5985 I-0.636 J0.7958
G2 X4.7786 Y3.5753 I-0.3634 J0.4883
G2 X4.7552 Y3.5611 I-0.2703 J0.4192
G1 X4.7548 Y3.5607
G2 X4.6368 Y3.4652 I-0.7635 J0.8234
G2 X4.4598 Y3.3824 I-0.3234 J0.4603
G2 X4.3422 Y3.3656 I-0.1278 J0.474
G2 X4.4384 Y3.2664 I-0.7649 J-0.8381
G2 X4.5346 Y3.1398 I-1.0178 J-0.8734
G3 X4.5416 Y3.1328 I0.1772 J0.1698
G3 X4.5607 Y3.1157 I0.2349 J0.244
G3 X4.5658 Y3.1119 I0.0436 J0.0527
G2 X4.6658 Y3.0328 I-0.5036 J-0.7395
G2 X4.7588 Y2.9272 I-0.4385 J-0.4798
G2 X4.8077 Y2.8442 I-0.489 J-0.3443
G2 X4.8511 Y2.8129 I-0.3014 J-0.4622
G2 X4.9904 Y2.6318 I-0.3 J-0.375
G1 X4.9446 Y2.6116 F30
G2 X4.9809 Y2.4399 I-0.3891 J-0.1718 F30
G2 X4.9714 Y2.3505 I-0.4254 J0
G2 X4.9103 Y2.2021 I-0.4411 J0.0948
G2 X4.8905 Y2.1734 I-0.4229 J0.2707
G3 X4.8842 Y2.1113 I0.9772 J-0.1307
G2 X4.8758 Y2.0154 I-2.7856 J0.1944
G2 X4.864 Y1.9189 I-2.8452 J0.2974
G2 X4.8473 Y1.8163 I-2.143 J0.298
G2 X4.8292 Y1.7418 I-0.7353 J0.1385
G3 X4.8214 Y1.6907 I1.0326 J-0.1845
G3 X4.8148 Y1.6292 I1.5183 J-0.1947
G3 X4.8111 Y1.5726 I1.3182 J-0.1151
G2 X4.797 Y1.4137 I-1.8139 J0.0803
G2 X4.7603 Y1.2729 I-0.5871 J0.0781
G2 X4.6447 Y1.1059 I-0.4198 J0.1669
G2 X4.5894 Y1.0633 I-0.2822 J0.3097
G2 X4.6203 Y1.0538 I-0.1062 J-0.4008
G2 X4.6254 Y1.0562 I0.1957 J-0.4115
G2 X4.8567 Y1.09 I0.1729 J-0.3755
G3 X4.9875 Y1.2289 I-10.5324 J10.0487
G3 X5.1356 Y1.3948 I-4.0832 J3.7946
G3 X5.2908 Y1.584 I-4.2651 J3.6578
G3 X5.4884 Y1.8446 I-7.6659 J6.0153
G3 X5.6745 Y2.1097 I-6.6336 J4.8546
G3 X5.7474 Y2.2278 I-1.4719 J0.9906
G2 X5.7987 Y2.3134 I1.6844 J-0.9512
G2 X5.8662 Y2.4154 I2.7225 J-1.7284
G2 X5.9363 Y2.5131 I2.6089 J-1.7985
G2 X5.9946 Y2.5867 I1.3345 J-0.9968
G3 X6.0578 Y2.6727 I-0.6412 J0.5377
G3 X6.0751 Y2.706 I-0.1744 J0.1118
G3 X6.0872 Y2.7447 I-0.2179 J0.0893
G3 X6.1071 Y2.8677 I-1.0825 J0.2379
G3 X6.1118 Y2.9197 I-1.935 J0.2017
G3 X6.1122 Y2.9262 I-0.3711 J0.0286
G3 X6.1059 Y2.9389 I-0.2841 J-0.1357
G3 X6.0998 Y2.95 I-0.6369 J-0.3401
G3 X6.097 Y2.952 I-0.1409 J-0.1929
G3 X6.0571 Y2.9786 I-0.4967 J-0.7013
G3 X5.9366 Y3.0521 I-2.8799 J-4.5883
G3 X5.8522 Y3.1015 I-5.548 J-9.3728
G3 X5.5838 Y3.2567 I-53.1577 J-91.6725
G2 X5.5622 Y3.2691 I1166.5538 J2025.4025
G2 X5.5511 Y3.2755 I307.3695 J533.6502
G2 X5.4242 Y3.3508 I2.8139 J4.8852
G2 X5.3259 Y3.4133 I1.729 J2.8279
G2 X5.2769 Y3.4466 I1.1887 J1.799
G2 X5.2388 Y3.4747 I0.5744 J0.8194
G2 X5.2141 Y3.4947 I0.4537 J0.5862
G2 X5.1853 Y3.521 I0.3354 J0.3969
G2 X5.1336 Y3.5813 I0.3215 J0.3272
G2 X5.0712 Y3.7118 I0.3386 J0.2421
G2 X5.0518 Y3.7104 I-0.0645 J0.7635
G2 X4.9593 Y3.7067 I-0.1426 J2.4188
G2 X4.8653 Y3.7066 I-0.0488 J2.3599
G2 X4.8527 Y3.6957 I-1.7197 J1.9582
G2 X4.8086 Y3.659 I-0.9387 J1.0828
G2 X4.7823 Y3.6386 I-0.6048 J0.7568
G2 X4.7515 Y3.6173 I-0.3336 J0.4482
G2 X4.7257 Y3.6018 I-0.2432 J0.3772
G3 X4.7208 Y3.5974 I0.5589 J-0.6125
G2 X4.608 Y3.5062 I-0.7295 J0.7868
G2 X4.4468 Y3.4307 I-0.2946 J0.4194
G2 X4.3369 Y3.4155 I-0.1148 J0.4258
G2 X4.2151 Y3.4322 I-0.0046 J0.4195
G3 X4.1872 Y3.423 I0.4157 J-1.3172
G2 X4.2861 Y3.3486 I-0.5074 J-0.7769
G2 X4.4004 Y3.2339 I-0.7088 J-0.8211
G2 X4.4953 Y3.1086 I-0.9798 J-0.8409
G3 X4.5069 Y3.0968 I0.2165 J0.201
G3 X4.5289 Y3.0772 I0.2696 J0.28
G3 X4.5377 Y3.0706 I0.0754 J0.0912
G2 X4.6321 Y2.9959 I-0.4754 J-0.6982
G2 X4.7179 Y2.8984 I-0.4048 J-0.4429
G2 X4.7687 Y2.8098 I-0.4482 J-0.3155
G2 X4.8198 Y2.7738 I-0.2624 J-0.4278
G2 X4.9446 Y2.6116 I-0.2688 J-0.3359
G1 X4.8989 Y2.5914 F30
G2 X4.9309 Y2.4399 I-0.3434 J-0.1516 F30
G2 X4.9225 Y2.361 I-0.3754 J0
G2 X4.8682 Y2.229 I-0.3922 J0.0843
G2 X4.8428 Y2.1934 I-0.3808 J0.2437
G3 X4.8419 Y2.1874 I0.2397 J-0.0399
G3 X4.8343 Y2.1148 I1.0258 J-0.1447
G2 X4.8261 Y2.0206 I-2.7357 J0.1909
G2 X4.8145 Y1.9257 I-2.7955 J0.2922
G2 X4.7981 Y1.8256 I-2.0935 J0.2911
G2 X4.7805 Y1.7534 I-0.6862 J0.1292
G3 X4.7718 Y1.6971 I1.0813 J-0.1961
G3 X4.765 Y1.6335 I1.5679 J-0.201
G3 X4.7611 Y1.5749 I1.368 J-0.1194
G2 X4.7474 Y1.4202 I-1.764 J0.0781
G2 X4.7138 Y1.2914 I-0.5376 J0.0715
G2 X4.611 Y1.1428 I-0.3733 J0.1484
G2 X4.4383 Y1.0545 I-0.2485 J0.2728
G3 X4.4082 Y1.0195 I1.8807 J-1.6509
G2 X4.4741 Y1.027 I0.0753 J-0.368
G2 X4.6231 Y0.9992 I0.0091 J-0.3645
G2 X4.6463 Y1.0108 I0.1928 J-0.3569
G2 X4.8743 Y1.0361 I0.152 J-0.3301
G3 X5.0242 Y1.1949 I-10.5501 J10.1026
G3 X5.1736 Y1.3622 I-4.1198 J3.8287
G3 X5.3302 Y1.5531 I-4.3031 J3.6904
G3 X5.5287 Y1.8151 I-7.7052 J6.0462
G3 X5.7159 Y2.0818 I-6.6739 J4.8842
G3 X5.791 Y2.2033 I-1.5134 J1.0185
G2 X5.8409 Y2.2866 I1.6409 J-0.9267
G2 X5.9074 Y2.387 I2.6803 J-1.7016
G2 X5.9764 Y2.4832 I2.5677 J-1.7701
G2 X6.0329 Y2.5545 I1.2944 J-0.9668
G3 X6.0999 Y2.6457 I-0.6795 J0.5699
G3 X6.1214 Y2.687 I-0.2165 J0.1388
G3 X6.136 Y2.7339 I-0.2642 J0.1082
G3 X6.1568 Y2.8625 I-1.1313 J0.2487
G3 X6.1617 Y2.9159 I-1.9847 J0.2069
G3 X6.1627 Y2.9355 I-0.421 J0.0325
G1 X6.1627 Y2.936
G3 X6.15 Y2.9624 I-0.3346 J-0.1455
G3 X6.1383 Y2.9835 I-0.681 J-0.3637
G3 X6.1259 Y2.9928 I-0.1794 J-0.2264
G3 X6.0837 Y3.0209 I-0.5256 J-0.7421
G3 X5.9621 Y3.0951 I-2.9065 J-4.6306
G3 X5.8773 Y3.1447 I-5.5734 J-9.4158
G3 X5.6087 Y3.3 I-53.1828 J-91.7158
G2 X5.5871 Y3.3124 I1166.5289 J2025.3592
G2 X5.5761 Y3.3188 I307.3446 J533.6069
G2 X5.4503 Y3.3935 I2.7889 J4.8419
G2 X5.3535 Y3.455 I1.7029 J2.7852
G2 X5.3056 Y3.4876 I1.1612 J1.7573
G2 X5.2694 Y3.5143 I0.5457 J0.7784
G2 X5.2464 Y3.5329 I0.4231 J0.5466
G2 X5.2203 Y3.5566 I0.3031 J0.3587
G2 X5.1743 Y3.6104 I0.2865 J0.2915
G2 X5.1104 Y3.7666 I0.2979 J0.213
G2 X5.0489 Y3.7603 I-0.1037 J0.7087
G2 X4.9583 Y3.7567 I-0.1397 J2.3689
G2 X4.8468 Y3.7571 I-0.0478 J2.3099
G2 X4.82 Y3.7335 I-1.7013 J1.9077
G2 X4.7774 Y3.6981 I-0.906 J1.045
G2 X4.7524 Y3.6788 I-0.5736 J0.7177
G2 X4.7244 Y3.6593 I-0.3037 J0.4081
G2 X4.6965 Y3.6429 I-0.2161 J0.3352
G3 X4.6868 Y3.634 I0.5881 J-0.6535
G2 X4.5793 Y3.5471 I-0.6955 J0.7501
G2 X4.4338 Y3.479 I-0.2659 J0.3785
G2 X4.3363 Y3.4655 I-0.1018 J0.3775
G2 X4.2151 Y3.4845 I-0.004 J0.3695
G2 X4.2084 Y3.4825 I-6.5109 J21.056
G3 X4.1451 Y3.4613 I0.4224 J-1.3675
G3 X4.074 Y3.4339 I0.6062 J-1.6801
G3 X4.0695 Y3.432 I0.4989 J-1.2173
G2 X4.1156 Y3.4082 I-0.255 J-0.5504
G2 X4.2534 Y3.3107 I-0.4359 J-0.7621
G2 X4.3625 Y3.2013 I-0.6761 J-0.7833
G2 X4.4559 Y3.0777 I-0.9419 J-0.8083
G3 X4.4722 Y3.0608 I0.256 J0.2319
G3 X4.497 Y3.0387 I0.3043 J0.316
G3 X4.5095 Y3.0293 I0.1073 J0.1298
G2 X4.5984 Y2.959 I-0.4473 J-0.6569
G2 X4.677 Y2.8696 I-0.3711 J-0.406
G2 X4.7293 Y2.7749 I-0.4073 J-0.2868
G2 X4.7886 Y2.7348 I-0.223 J-0.3929
G2 X4.8989 Y2.5914 I-0.2375 J-0.2969
G0 Z0.5
G0 X6.1627 Y2.9448
G1 Z-0.0312 F10
G2 X6.1628 Y2.9406 I-0.1672 J-0.0042 F30
G2 X6.1627 Y2.936 I-0.1673 J0
G2 X6.1664 Y2.9273 I-0.3346 J-0.1455
G2 X6.1627 Y2.9448 I0.0464 J0.0187
G0 Z0.5
G0 X6.2127 Y2.9461
G1 Z-0.0312 F10
G3 X6.1941 Y2.986 I-0.3846 J-0.1555 F30
G3 X6.1769 Y3.0165 I-0.7251 J-0.3872
G3 X6.1548 Y3.0336 I-0.218 J-0.2594
G3 X6.1103 Y3.0633 I-0.5545 J-0.7829
G3 X5.9875 Y3.1381 I-2.9331 J-4.673
G3 X5.9024 Y3.188 I-5.5989 J-9.4588
G3 X5.6337 Y3.3433 I-53.2079 J-91.759
G2 X5.6121 Y3.3557 I1166.5039 J2025.3158
G2 X5.601 Y3.3621 I307.3196 J533.5636
G2 X5.4763 Y3.4361 I2.764 J4.7985
G2 X5.381 Y3.4967 I1.6768 J2.7426
G2 X5.3343 Y3.5285 I1.1336 J1.7156
G2 X5.3 Y3.5538 I0.517 J0.7375
G2 X5.2786 Y3.5711 I0.3925 J0.5071
G2 X5.2554 Y3.5923 I0.2709 J0.3205
G2 X5.215 Y3.6395 I0.2514 J0.2559
G2 X5.156 Y3.8234 I0.2572 J0.1839
G2 X5.156 Y3.8272 I0.3222 J0
G2 X5.1302 Y3.8208 I-0.097 J0.338
G2 X5.1063 Y3.8166 I-0.0912 J0.4409
G2 X5.046 Y3.8102 I-0.0996 J0.6588
G2 X4.9573 Y3.8067 I-0.1368 J2.319
G2 X4.8445 Y3.8072 I-0.0468 J2.2599
G2 X4.8285 Y3.8079 I0.0165 J0.5639
G2 X4.7872 Y3.7713 I-1.6829 J1.857
G2 X4.7462 Y3.7371 I-0.8732 J1.0072
G2 X4.7226 Y3.7189 I-0.5423 J0.6787
G2 X4.6973 Y3.7013 I-0.2739 J0.368
G2 X4.6678 Y3.6843 I-0.189 J0.2931
G3 X4.6528 Y3.6707 I0.6168 J-0.6949
G2 X4.5505 Y3.588 I-0.6615 J0.7134
G2 X4.4208 Y3.5272 I-0.2371 J0.3376
G2 X4.3358 Y3.5155 I-0.0887 J0.3292
G2 X4.2164 Y3.5373 I-0.0035 J0.3195
G2 X4.1937 Y3.5302 I-6.5121 J21.0033
G3 X4.1281 Y3.5083 I0.4371 J-1.4153
G3 X4.055 Y3.4801 I0.6232 J-1.7271
G3 X3.9872 Y3.4502 I0.5178 J-1.2636
G3 X3.9782 Y3.4453 I0.0402 J-0.0846
G2 X3.9505 Y3.4285 I-0.8417 J1.3619
G2 X3.9602 Y3.4188 I-0.2932 J-0.3039
G2 X4.0908 Y3.3648 I-0.1458 J-0.5372
G2 X4.2207 Y3.2729 I-0.4111 J-0.7187
G2 X4.3246 Y3.1687 I-0.6434 J-0.7454
G2 X4.4161 Y3.0471 I-0.9039 J-0.7757
G3 X4.4376 Y3.0248 I0.2957 J0.2625
G3 X4.4652 Y3.0001 I0.339 J0.352
G3 X4.4814 Y2.9879 I0.1391 J0.1683
G2 X4.5646 Y2.9221 I-0.4192 J-0.6156
G2 X4.6362 Y2.8409 I-0.3373 J-0.3691
G2 X4.6896 Y2.7396 I-0.3664 J-0.258
G2 X4.7574 Y2.6957 I-0.1832 J-0.3576
G2 X4.8532 Y2.5712 I-0.2063 J-0.2578
G2 X4.8809 Y2.4399 I-0.2977 J-0.1314
G2 X4.8736 Y2.3715 I-0.3254 J0
G2 X4.826 Y2.256 I-0.3434 J0.0738
G2 X4.7971 Y2.2163 I-0.3387 J0.2168
G2 X4.7961 Y2.2151 I-0.7735 J0.6405
G3 X4.7924 Y2.1944 I0.2864 J-0.0616
G3 X4.7844 Y2.1183 I1.0753 J-0.1517
G2 X4.7763 Y2.0258 I-2.6858 J0.1874
G2 X4.765 Y1.9326 I-2.7457 J0.287
G2 X4.749 Y1.8348 I-2.044 J0.2842
G2 X4.732 Y1.7658 I-0.637 J0.12
G3 X4.7317 Y1.7646 I0.0106 J-0.0032
G3 X4.7222 Y1.7034 I1.1301 J-0.2073
G3 X4.7152 Y1.6379 I1.6175 J-0.2074
G3 X4.7112 Y1.5771 I1.4178 J-0.1238
G2 X4.6979 Y1.4268 I-1.714 J0.0759
G2 X4.6673 Y1.3099 I-0.488 J0.0649
G2 X4.5774 Y1.1798 I-0.3268 J0.1299
G2 X4.4122 Y1.1005 I-0.2148 J0.2358
G3 X4.3408 Y1.0166 I1.9067 J-1.6969
G3 X4.2899 Y0.9508 I1.23 J-1.0029
G2 X4.3017 Y0.9228 I-0.2888 J-0.1377
G2 X4.3066 Y0.9259 I0.3021 J-0.4882
G2 X4.3339 Y0.941 I0.2157 J-0.3566
G2 X4.3768 Y0.9592 I0.1557 J-0.3072
G2 X4.4753 Y0.9771 I0.1066 J-0.3077
G2 X4.6259 Y0.9429 I0.0079 J-0.3145
G2 X4.6672 Y0.9654 I0.1901 J-0.3006
G2 X4.8902 Y0.9803 I0.1311 J-0.2847
G3 X5.0608 Y1.1608 I-10.5659 J10.1583
G3 X5.2115 Y1.3297 I-4.1564 J3.8627
G3 X5.3695 Y1.5222 I-4.3411 J3.7229
G3 X5.5691 Y1.7856 I-7.7445 J6.0771
G3 X5.7574 Y2.0538 I-6.7143 J4.9137
G3 X5.8345 Y2.1787 I-1.5549 J1.0464
G2 X5.8831 Y2.2598 I1.5973 J-0.9021
G2 X5.9485 Y2.3586 I2.6381 J-1.6748
G2 X6.0165 Y2.4533 I2.5266 J-1.7418
G2 X6.0712 Y2.5224 I1.2543 J-0.9369
G3 X6.142 Y2.6187 I-0.7178 J0.602
G3 X6.1677 Y2.6681 I-0.2586 J0.1658
G3 X6.1849 Y2.7232 I-0.3104 J0.1272
G3 X6.2065 Y2.8573 I-1.1802 J0.2594
G3 X6.2115 Y2.912 I-2.0345 J0.2121
G3 X6.2127 Y2.934 I-0.4709 J0.0363
G3 X6.2128 Y2.9406 I-0.2172 J0.0066
G3 X6.2127 Y2.9461 I-0.2173 J0
G1 X6.2625 Y2.9535 F30
G3 X6.2621 Y2.957 I-0.0409 J-0.002 F30
G3 X6.2382 Y3.0095 I-0.434 J-0.1665
G3 X6.2157 Y3.0491 I-0.7692 J-0.4108
G3 X6.1837 Y3.0744 I-0.2568 J-0.292
G3 X6.1369 Y3.1056 I-0.5834 J-0.8237
G3 X6.013 Y3.1811 I-2.9597 J-4.7153
G3 X5.9275 Y3.2312 I-5.6244 J-9.5018
G3 X5.6586 Y3.3866 I-53.2329 J-91.8023
G2 X5.6371 Y3.3991 I1166.479 J2025.2725
G2 X5.626 Y3.4054 I307.2947 J533.5202
G2 X5.5024 Y3.4788 I2.739 J4.7552
G2 X5.4086 Y3.5384 I1.6508 J2.6999
G2 X5.363 Y3.5695 I1.106 J1.6739
G2 X5.3306 Y3.5933 I0.4883 J0.6966
G2 X5.3109 Y3.6093 I0.3619 J0.4675
G2 X5.2904 Y3.628 I0.2386 J0.2824
G2 X5.2557 Y3.6686 I0.2164 J0.2202
G2 X5.206 Y3.8234 I0.2165 J0.1548
G2 X5.2207 Y3.9116 I0.2722 J0
G2 X5.2147 Y3.9077 I-0.1471 J0.2187
G2 X5.1496 Y3.8775 I-0.1482 J0.2338
G2 X5.1201 Y3.8698 I-0.0907 J0.2878
G2 X5.0988 Y3.866 I-0.0811 J0.3919
G2 X5.043 Y3.8601 I-0.0921 J0.6093
G2 X4.9562 Y3.8567 I-0.1338 J2.2691
G2 X4.846 Y3.8572 I-0.0457 J2.21
G2 X4.8108 Y3.8594 I0.015 J0.5139
G2 X4.8046 Y3.8537 I-1.3325 J1.4423
G2 X4.7545 Y3.809 I-1.659 J1.8112
G2 X4.715 Y3.7762 I-0.8405 J0.9694
G2 X4.6927 Y3.759 I-0.5111 J0.6396
G2 X4.6702 Y3.7434 I-0.244 J0.3278
G2 X4.6396 Y3.7261 I-0.1619 J0.2511
G3 X4.6188 Y3.7073 I0.645 J-0.7367
G2 X4.5218 Y3.6289 I-0.6275 J0.6768
G2 X4.4078 Y3.5755 I-0.2084 J0.2966
G2 X4.3352 Y3.5655 I-0.0757 J0.2809
G2 X4.219 Y3.5904 I-0.003 J0.2695
G2 X4.1789 Y3.578 I-6.5147 J20.9501
G3 X4.1111 Y3.5553 I0.4519 J-1.4631
G3 X4.0361 Y3.5264 I0.6401 J-1.7742
G3 X3.9658 Y3.4954 I0.5368 J-1.3098
G3 X3.9519 Y3.4878 I0.0616 J-0.1298
G2 X3.8994 Y3.4568 I-0.8154 J1.3194
G2 X3.8608 Y3.4363 I-0.398 J0.7044
G2 X3.8927 Y3.413 I-0.1972 J-0.304
G2 X3.9325 Y3.3753 I-0.2353 J-0.2885
G3 X3.9367 Y3.3733 I0.0349 J0.067
G2 X4.066 Y3.3214 I-0.1223 J-0.4916
G2 X4.1881 Y3.235 I-0.3862 J-0.6753
G2 X4.2866 Y3.1362 I-0.6108 J-0.7076
G2 X4.3761 Y3.017 I-0.866 J-0.7432
G1 X4.3765 Y3.0164
G3 X4.4029 Y2.9887 I0.3354 J0.2932
G3 X4.4333 Y2.9616 I0.3737 J0.3881
G3 X4.4532 Y2.9466 I0.171 J0.2068
G2 X4.5309 Y2.8852 I-0.391 J-0.5742
G2 X4.5953 Y2.8121 I-0.3036 J-0.3322
G2 X4.6476 Y2.7082 I-0.3255 J-0.2292
G2 X4.6491 Y2.7036 I-0.3591 J-0.1191
G2 X4.6633 Y2.6968 I-0.1928 J-0.4221
G2 X4.7261 Y2.6567 I-0.157 J-0.3148
G2 X4.8074 Y2.5511 I-0.1751 J-0.2188
G2 X4.8309 Y2.4399 I-0.2519 J-0.1112
G2 X4.8247 Y2.382 I-0.2754 J0
G2 X4.7839 Y2.2829 I-0.2945 J0.0633
G2 X4.7586 Y2.2482 I-0.2966 J0.1898
G2 X4.7502 Y2.2382 I-0.735 J0.6086
G1 X4.75 Y2.2375
G3 X4.7429 Y2.2014 I0.3326 J-0.084
G3 X4.7345 Y2.1218 I1.1248 J-0.1587
G2 X4.7266 Y2.031 I-2.6359 J0.1839
G2 X4.7155 Y1.9395 I-2.696 J0.2818
G2 X4.6999 Y1.8441 I-1.9944 J0.2773
G2 X4.6842 Y1.7804 I-0.5879 J0.1107
G3 X4.6826 Y1.7736 I0.0584 J-0.0178
G3 X4.6726 Y1.7098 I1.1793 J-0.2163
G3 X4.6653 Y1.6422 I1.6671 J-0.2138
G3 X4.6612 Y1.5793 I1.4676 J-0.1281
G2 X4.6483 Y1.4334 I-1.6641 J0.0737
G2 X4.6209 Y1.3283 I-0.4384 J0.0583
G2 X4.5437 Y1.2168 I-0.2804 J0.1115
G2 X4.3875 Y1.1478 I-0.1812 J0.1988
G3 X4.3855 Y1.1456 I0.8429 J-0.7634
G3 X4.302 Y1.0482 I1.9335 J-1.742
G3 X4.2417 Y0.9695 I1.2687 J-1.0345
G3 X4.2311 Y0.9545 I0.9445 J-0.6793
G2 X4.2699 Y0.8387 I-0.23 J-0.1413
G2 X4.2779 Y0.8451 I1.1425 J-1.4225
G2 X4.3325 Y0.8831 I0.3259 J-0.4105
G2 X4.3565 Y0.8964 I0.1898 J-0.3139
G2 X4.3932 Y0.912 I0.1331 J-0.2626
G2 X4.4766 Y0.9271 I0.0903 J-0.2605
G2 X4.6283 Y0.8838 I0.0066 J-0.2645
G2 X4.6436 Y0.8948 I0.2356 J-0.3118
G2 X4.6881 Y0.92 I0.1723 J-0.2525
G2 X4.9035 Y0.9222 I0.1102 J-0.2393
G3 X5.0974 Y1.1268 I-10.5793 J10.2165
G3 X5.2495 Y1.2971 I-4.1931 J3.8967
G3 X5.4088 Y1.4914 I-4.379 J3.7555
G3 X5.6094 Y1.756 I-7.7839 J6.1079
G3 X5.7989 Y2.0259 I-6.7546 J4.9432
G3 X5.878 Y2.1541 I-1.5964 J1.0744
G2 X5.9253 Y2.233 I1.5538 J-0.8775
G2 X5.9897 Y2.3302 I2.5959 J-1.648
G2 X6.0565 Y2.4234 I2.4854 J-1.7134
G2 X6.1095 Y2.4903 I1.2143 J-0.907
G3 X6.1841 Y2.5917 I-0.7561 J0.6341
G3 X6.2139 Y2.6491 I-0.3006 J0.1928
G3 X6.2337 Y2.7125 I-0.3567 J0.1461
G3 X6.2563 Y2.8521 I-1.229 J0.2701
G3 X6.2614 Y2.9082 I-2.0842 J0.2173
G3 X6.2627 Y2.9324 I-0.5207 J0.0402
G3 X6.2628 Y2.9406 I-0.2672 J0.0081
G3 X6.2625 Y2.9535 I-0.2673 J0
G1 X6.3124 Y2.9559 F30
G3 X6.3115 Y2.9653 I-0.0909 J-0.0044 F30
G3 X6.3091 Y2.9742 I-0.0428 J-0.0066
G3 X6.2823 Y3.0331 I-0.481 J-0.1836
G3 X6.2562 Y3.0787 I-0.8133 J-0.4343
G3 X6.2556 Y3.0796 I-0.0075 J-0.0046
G3 X6.2497 Y3.0858 I-0.0391 J-0.0314
G3 X6.2126 Y3.1152 I-0.2908 J-0.3287
G3 X6.1634 Y3.148 I-0.6123 J-0.8645
G3 X6.0385 Y3.2242 I-2.9862 J-4.7577
G3 X5.9526 Y3.2745 I-5.6498 J-9.5449
G3 X5.6836 Y3.43 I-53.258 J-91.8455
G2 X5.662 Y3.4424 I1166.454 J2025.2292
G2 X5.6509 Y3.4488 I307.2697 J533.4769
G2 X5.5285 Y3.5214 I2.7141 J4.7119
G2 X5.4362 Y3.5801 I1.6247 J2.6572
G2 X5.3917 Y3.6104 I1.0785 J1.6321
G2 X5.3612 Y3.6329 I0.4596 J0.6556
G2 X5.3432 Y3.6475 I0.3313 J0.428
G2 X5.3255 Y3.6636 I0.2063 J0.2442
G2 X5.2963 Y3.6977 I0.1813 J0.1845
G2 X5.256 Y3.8234 I0.1759 J0.1258
G2 X5.2816 Y3.9269 I0.2222 J0
G2 X5.3041 Y3.9645 I0.344 J-0.181
G2 X5.3216 Y3.9889 I0.5002 J-0.3402
G2 X5.3451 Y4.0191 I1.0059 J-0.7597
G2 X5.3516 Y4.027 I1.469 J-1.1811
G2 X5.3068 Y4.0094 I-0.1014 J0.1926
G2 X5.2741 Y4.0031 I-0.0603 J0.2242
G2 X5.2317 Y3.9867 I-0.1219 J0.2526
G2 X5.1879 Y3.9499 I-0.1581 J0.1436
G2 X5.1346 Y3.9252 I-0.1214 J0.1915
G2 X5.11 Y3.9188 I-0.0756 J0.2401
G2 X5.0914 Y3.9154 I-0.071 J0.343
G2 X5.0401 Y3.9101 I-0.0846 J0.5599
G2 X4.9552 Y3.9067 I-0.1309 J2.2192
G2 X4.8474 Y3.9071 I-0.0447 J2.16
G2 X4.7937 Y3.9118 I0.0135 J0.4639
G2 X4.7708 Y3.8905 I-1.3154 J1.3898
G2 X4.7217 Y3.8468 I-1.6252 J1.7743
G2 X4.6838 Y3.8152 I-0.8077 J0.9317
G2 X4.6629 Y3.7991 I-0.4799 J0.6005
G2 X4.6431 Y3.7854 I-0.2142 J0.2877
G2 X4.612 Y3.7683 I-0.1348 J0.2091
G3 X4.5848 Y3.744 I0.6726 J-0.779
G2 X4.493 Y3.6698 I-0.5935 J0.6401
G2 X4.3947 Y3.6238 I-0.1796 J0.2557
G2 X4.3347 Y3.6155 I-0.0627 J0.2326
G2 X4.2269 Y3.6424 I-0.0024 J0.2195
G2 X4.2236 Y3.6442 I0.1042 J0.1903
G2 X4.1642 Y3.6258 I-6.5194 J20.8963
G3 X4.0942 Y3.6024 I0.4666 J-1.5108
G3 X4.0171 Y3.5727 I0.6571 J-1.8212
G3 X3.9443 Y3.5405 I0.5557 J-1.3561
G3 X3.9256 Y3.5303 I0.083 J-0.1749
G2 X3.8748 Y3.5003 I-0.7891 J1.2768
G2 X3.8343 Y3.479 I-0.3734 J0.6609
G2 X3.7843 Y3.4579 I-0.2164 J0.4436
G2 X3.708 Y3.4439 I-0.0813 J0.227
G2 X3.7025 Y3.4438 I-0.005 J0.241
G2 X3.6322 Y3.4555 I0.0005 J0.2189
G2 X3.5915 Y3.4743 I0.0707 J0.2072
G2 X3.5478 Y3.4707 I-0.0416 J0.2421
G2 X3.4152 Y3.5161 I0.0019 J0.222
G2 X3.4049 Y3.5245 I0.1304 J0.1712
G2 X3.3764 Y3.5187 I-0.3766 J1.7788
G2 X3.3111 Y3.5094 I-0.1247 J0.6395
G1 X3.3102 Y3.5093
G2 X3.2605 Y3.4713 I-0.1567 J0.1536
G1 X3.3672 Y3.4687
G2 X3.4831 Y3.4651 I-0.2609 J-10.2338
G2 X3.5502 Y3.462 I-0.1204 J-3.269
G2 X3.6278 Y3.456 I-0.1137 J-1.9815
G2 X3.6322 Y3.4555 I-0.0767 J-0.7923
G2 X3.6817 Y3.4489 I-0.0812 J-0.7919
G2 X3.708 Y3.4439 I-0.0908 J-0.5458
G2 X3.7442 Y3.4347 I-0.1172 J-0.5408
G2 X3.8037 Y3.4115 I-0.0962 J-0.3336
G2 X3.8611 Y3.3743 I-0.1401 J-0.2792
G2 X3.9004 Y3.3362 I-0.2037 J-0.2497
G3 X3.9048 Y3.3335 I0.0479 J0.0728
G3 X3.9193 Y3.3264 I0.0627 J0.1088
G3 X3.9226 Y3.3252 I0.0088 J0.0212
G2 X4.0411 Y3.278 I-0.1082 J-0.4436
G2 X4.1554 Y3.1972 I-0.3614 J-0.6319
G2 X4.2487 Y3.1036 I-0.5781 J-0.6697
G2 X4.3342 Y2.9896 I-0.828 J-0.7106
G3 X4.3388 Y2.9835 I0.0459 J0.03
G3 X4.3682 Y2.9527 I0.373 J0.3261
G3 X4.4014 Y2.9231 I0.4084 J0.4241
G3 X4.4251 Y2.9053 I0.2029 J0.2454
G2 X4.4972 Y2.8483 I-0.3629 J-0.5329
G2 X4.5544 Y2.7833 I-0.2699 J-0.2953
G2 X4.6002 Y2.6925 I-0.2846 J-0.2004
G2 X4.6075 Y2.667 I-0.3117 J-0.1034
G2 X4.6132 Y2.6647 I-0.6105 J-1.5066
G2 X4.641 Y2.6521 I-0.1569 J-0.3831
G2 X4.6949 Y2.6177 I-0.1347 J-0.2701
G2 X4.7617 Y2.5309 I-0.1438 J-0.1798
G2 X4.7809 Y2.4399 I-0.2062 J-0.091
G2 X4.7758 Y2.3925 I-0.2254 J0
G2 X4.7418 Y2.3099 I-0.2456 J0.0528
G2 X4.7201 Y2.2801 I-0.2544 J0.1628
G2 X4.7055 Y2.2629 I-0.6965 J0.5767
G3 X4.7015 Y2.2497 I0.1419 J-0.05
G3 X4.6934 Y2.2084 I0.381 J-0.0962
G3 X4.6846 Y2.1253 I1.1743 J-0.1657
G2 X4.6769 Y2.0362 I-2.5861 J0.1804
G2 X4.666 Y1.9464 I-2.6463 J0.2766
G2 X4.6507 Y1.8533 I-1.9449 J0.2704
G2 X4.6364 Y1.795 I-0.5387 J0.1015
G3 X4.6334 Y1.7826 I0.1062 J-0.0324
G3 X4.623 Y1.7162 I1.2285 J-0.2253
G3 X4.6155 Y1.6466 I1.7167 J-0.2201
G3 X4.6113 Y1.5815 I1.5174 J-0.1325
G2 X4.5987 Y1.44 I-1.6141 J0.0715
G2 X4.5744 Y1.3468 I-0.3889 J0.0517
G2 X4.51 Y1.2537 I-0.2339 J0.093
G2 X4.3645 Y1.1966 I-0.1475 J0.1619
G3 X4.3483 Y1.179 I0.8658 J-0.8122
G3 X4.2633 Y1.0798 I1.9706 J-1.7754
G3 X4.2012 Y0.9987 I1.3075 J-1.0661
G3 X4.1703 Y0.9537 I0.9851 J-0.7085
G2 X4.2203 Y0.8312 I-0.1692 J-0.1406
G2 X4.2211 Y0.8124 I-0.2289 J-0.0188
G2 X4.2184 Y0.7774 I-0.2297 J0
G2 X4.2476 Y0.7549 I-0.1159 J-0.1804
G2 X4.309 Y0.8059 I1.1648 J-1.3387
G2 X4.3584 Y0.8403 I0.2948 J-0.3713
G2 X4.3791 Y0.8518 I0.164 J-0.2711
G2 X4.4096 Y0.8647 I0.1105 J-0.218
G2 X4.4778 Y0.8771 I0.0739 J-0.2132
G2 X4.6289 Y0.8201 I0.0054 J-0.2145
G2 X4.6394 Y0.8288 I0.715 J-0.8487
G2 X4.6557 Y0.8418 I0.4339 J-0.5281
G2 X4.6718 Y0.8535 I0.2082 J-0.2698
G2 X4.709 Y0.8746 I0.1441 J-0.2112
G2 X4.9134 Y0.8604 I0.0892 J-0.1939
G3 X5.134 Y1.0928 I-10.5891 J10.2782
G3 X5.2874 Y1.2646 I-4.2297 J3.9308
G3 X5.4482 Y1.4605 I-4.417 J3.788
G3 X5.6498 Y1.7265 I-7.8232 J6.1388
G3 X5.8404 Y1.998 I-6.795 J4.9728
G3 X5.9216 Y2.1295 I-1.6379 J1.1023
G2 X5.9675 Y2.2062 I1.5103 J-0.8529
G2 X6.0309 Y2.3019 I2.5537 J-1.6212
G2 X6.0966 Y2.3934 I2.4442 J-1.685
G2 X6.1478 Y2.4581 I1.1742 J-0.8771
G3 X6.2262 Y2.5647 I-0.7944 J0.6663
G3 X6.2602 Y2.6301 I-0.3427 J0.2198
