(Generated by PartKam Version 0.05)

G21 G90 G40

(pocket 1)
G0 Z10
T0 M6
G17
M3
G0 X124.44111675126904 Y35.21497461928934
G1 Z-1 F1000
G1 X20.743654822335028 Y35.21573604060914 F2000
G1 X20.743654822335028 Y32.817258883248726
G1 X124.44162436548224 Y32.817258883248726
G1 X124.44162436548224 Y35.21573604060914
G0 Z10
G0 X124.44111675126904 Y35.21497461928934
G1 Z-2 F1000
G1 X20.743654822335028 Y35.21573604060914 F2000
G1 X20.743654822335028 Y32.817258883248726
G1 X124.44162436548224 Y32.817258883248726
G1 X124.44162436548224 Y35.21573604060914
G0 Z10
G0 X124.44111675126904 Y35.21497461928934
G1 Z-3 F1000
G1 X20.743654822335028 Y35.21573604060914 F2000
G1 X20.743654822335028 Y32.817258883248726
G1 X124.44162436548224 Y32.817258883248726
G1 X124.44162436548224 Y35.21573604060914

(pocket 2)
G0 Z10
G0 X124.43527918781726 Y10.834010152284264
G1 Z-1 F1000
G1 X20.738578680203045 Y10.83502538071066 F2000
G1 X20.738578680203045 Y8.436548223350254
G1 X124.43401015228426 Y8.436548223350254
G1 X124.43401015228426 Y10.83502538071066
G0 Z10
G0 X124.43527918781726 Y10.834010152284264
G1 Z-2 F1000
G1 X20.738578680203045 Y10.83502538071066 F2000
G1 X20.738578680203045 Y8.436548223350254
G1 X124.43401015228426 Y8.436548223350254
G1 X124.43401015228426 Y10.83502538071066
G0 Z10
G0 X124.43527918781726 Y10.834010152284264
G1 Z-3 F1000
G1 X20.738578680203045 Y10.83502538071066 F2000
G1 X20.738578680203045 Y8.436548223350254
G1 X124.43401015228426 Y8.436548223350254
G1 X124.43401015228426 Y10.83502538071066

(profile 3)
G0 Z10
G0 X125.83934010152284 Y43.348984771573605
G1 Z-1 F1000
G1 X72.51522842639594 Y43.34771573604061 F2000
G1 X19.192893401015226 Y43.34771573604061
G3 X17.629441624365484 Y41.786802030456855 I0 J-1.5634517766497464
G1 X17.629441624365484 Y39.30203045685279
G1 X17.629441624365484 Y36.817258883248726
G1 X17.629441624365484 Y34.33248730964467
G1 X17.629441624365484 Y31.847715736040605
G1 X17.629441624365484 Y29.36294416243655
G1 X17.629441624365484 Y26.890862944162436
G1 X17.619289340101524 Y26.32994923857868
G1 X12.855329949238579 Y26.33502538071066
G1 X12.418781725888326 Y26.629441624365484
G1 X11.733502538071065 Y27.17766497461929
G3 X11.276649746192893 Y27.586294416243653 I-5.16497461928934 J-5.2969543147208125
G3 X10.710659898477157 Y28.01015228426396 I-4.697969543147208 J-5.692893401015229
G3 X10.101522842639595 Y28.380710659898476 I-4.124365482233502 J-6.104060913705584
G3 X9.459390862944163 Y28.68781725888325 I-3.49746192893401 J-6.444162436548223
G3 X8.779187817258883 Y28.936548223350258 I-2.8502538071065993 J-6.741116751269035
G3 X8.076142131979696 Y29.119289340101524 I-2.17005076142132 J-6.99238578680203
G3 X7.340101522842639 Y29.23096446700508 I-1.4720812182741116 J-7.192893401015228
G3 X6.593908629441624 Y29.266497461928935 I-0.7461928934010152 J-7.408629441624366
G3 X3.776649746192893 Y28.70812182741117 I0 J-7.3629441624365475
G3 X1.3883248730964468 Y27.111675126903553 I2.817258883248731 J-6.802030456852792
G3 X-0.2081218274111675 Y24.723350253807105 I5.2055837563451774 J-5.2055837563451774
G3 X-0.7690355329949239 Y21.906091370558375 I6.802030456852792 J-2.817258883248731
G3 X-0.2081218274111675 Y19.088832487309645 I7.3629441624365475 J0
G3 X1.3883248730964468 Y16.69796954314721 I6.802030456852792 J2.817258883248731
G3 X3.776649746192893 Y15.104060913705585 I5.2055837563451774 J5.2055837563451774
G3 X6.593908629441624 Y14.543147208121827 I2.817258883248731 J6.802030456852792
G3 X7.340101522842639 Y14.581218274111675 I0 J7.444162436548223
G3 X8.076142131979696 Y14.692893401015228 I-0.7360406091370558 J7.304568527918782
G3 X8.779187817258883 Y14.873096446700506 I-1.4670050761421318 J7.17258883248731
G3 X9.459390862944163 Y15.121827411167512 I-2.17005076142132 J6.98984771573604
G3 X10.083756345177665 Y15.418781725888325 I-3.2411167512690353 J7.659898477157361
G3 X10.596446700507613 Y15.723350253807107 I-2.49492385786802 J4.751269035532995
G3 X11.053299492385786 Y16.065989847715734 I-3.2563451776649748 J4.817258883248731
G3 X11.586294416243653 Y16.53299492385787 I-8.055837563451776 J9.705583756345177
G1 X12.928934010152284 Y17.614213197969544
G1 X17.619289340101524 Y17.621827411167512
G1 X17.629441624365484 Y16.926395939086294
G1 X17.629441624365484 Y14.454314720812182
G1 X17.629441624365484 Y11.969543147208121
G1 X17.629441624365484 Y9.48477157360406
G1 X17.629441624365484 Y7
G1 X17.629441624365484 Y4.5152284263959395
G1 X17.629441624365484 Y2.030456852791878
G3 X19.192893401015226 Y0.46954314720812185 I1.5634517766497464 J0
G1 X72.51522842639594 Y0.46954314720812185
G1 X125.84010152284264 Y0.46954314720812185
G3 X127.40101522842639 Y2.030456852791878 I0 J1.5634517766497464
G1 X127.40101522842639 Y4.5152284263959395
G1 X127.40101522842639 Y7
G1 X127.40101522842639 Y9.48477157360406
G1 X127.40101522842639 Y11.969543147208121
G1 X127.40101522842639 Y14.454314720812182
G1 X127.40101522842639 Y16.928934010152282
G1 X127.42893401015229 Y19.195431472081218
G1 X127.42893401015229 Y19.21319796954315
G3 X125.86802030456853 Y20.77664974619289 I-1.5634517766497464 J0
G1 X119.22842639593908 Y20.774111675126903
G3 X118.23604060913706 Y20.418781725888326 I0 J-1.5634517766497464
G1 X116.51015228426395 Y19.00253807106599
G3 X116.39086294416244 Y18.895939086294415 I0.9898477157360407 J-1.2081218274111676
G2 X116.0761421319797 Y18.606598984771573 I-3.0736040609137056 J3.050761421319797
G2 X115.79187817258884 Y18.398477157360407 I-2.045685279187817 J2.479695431472081
G2 X115.50761421319797 Y18.230964467005077 I-1.8375634517766497 J2.8020304568527923
G2 X115.09390862944161 Y18.03553299492386 I-2.6015228426395938 J4.977157360406092
G2 X114.70304568527919 Y17.890862944162436 I-1.634517766497462 J3.8629441624365484
G2 X114.2994923857868 Y17.789340101522843 I-1.2436548223350254 J4.00761421319797
G2 X113.87817258883248 Y17.723350253807105 I-0.8451776649746192 J4.129441624365483
G2 X113.44416243654821 Y17.70304568527919 I-0.434010152284264 J4.299492385786802
G2 X111.82233502538071 Y18.0253807106599 I0 J4.238578680203045
G2 X110.44670050761422 Y18.944162436548226 I1.6218274111675126 J3.913705583756345
G2 X109.52791878172589 Y20.31725888324873 I2.9974619289340105 J2.9974619289340105
G2 X109.20558375634516 Y21.939086294416246 I3.913705583756345 J1.6218274111675126
G2 X109.52791878172589 Y23.560913705583758 I4.238578680203045 J0
G2 X110.44670050761422 Y24.93654822335025 I3.913705583756345 J-1.6218274111675126
G2 X111.82233502538071 Y25.855329949238577 I2.9974619289340105 J-2.9974619289340105
G2 X113.44416243654821 Y26.17766497461929 I1.6218274111675126 J-3.913705583756345
G2 X113.87817258883248 Y26.154822335025383 I0 J-4.319796954314721
G2 X114.2994923857868 Y26.091370558375637 I-0.42385786802030456 J-4.195431472081218
G2 X114.70304568527919 Y25.987309644670052 I-0.8401015228426396 J-4.111675126903553
G2 X115.09390862944161 Y25.84517766497462 I-1.2436548223350254 J-4.00507614213198
G2 X115.46192893401015 Y25.66751269035533 I-1.6395939086294418 J-3.8756345177664975
G2 X115.81218274111676 Y25.454314720812185 I-2.0228426395939088 J-3.728426395939086
G2 X116.13705583756345 Y25.21065989847716 I-2.383248730964467 J-3.527918781725888
G2 X116.43908629441624 Y24.93654822335025 I-2.720812182741117 J-3.296954314720812
G3 X116.57106598984771 Y24.819796954314718 I1.1040609137055837 J1.1040609137055837
G1 X117.37055837563452 Y24.182741116751266
G3 X117.47208121827411 Y24.10913705583756 I0.9746192893401016 J1.2208121827411167
G1 X118.35532994923858 Y23.51269035532995
G3 X119.21827411167513 Y23.246192893401016 I0.8730964467005076 J1.296954314720812
G1 X125.85786802030456 Y23.205583756345177
G3 X127.42893401015229 Y24.766497461928935 I0.010152284263959392 J1.5634517766497464
G1 X127.42893401015229 Y24.786802030456855
G1 X127.40101522842639 Y26.888324873096447
G1 X127.40101522842639 Y29.36294416243655
G1 X127.40101522842639 Y31.847715736040605
G1 X127.40101522842639 Y34.33248730964467
G1 X127.40101522842639 Y36.817258883248726
G1 X127.40101522842639 Y39.30203045685279
G1 X127.40101522842639 Y41.786802030456855
G3 X125.84010152284264 Y43.34771573604061 I-1.5634517766497464 J0
G1 Z-2 F1000
G1 X72.51522842639594 Y43.34771573604061 F2000
G1 X19.192893401015226 Y43.34771573604061
G3 X17.629441624365484 Y41.786802030456855 I0 J-1.5634517766497464
G1 X17.629441624365484 Y39.30203045685279
G1 X17.629441624365484 Y36.817258883248726
G1 X17.629441624365484 Y34.33248730964467
G1 X17.629441624365484 Y31.847715736040605
G1 X17.629441624365484 Y29.36294416243655
G1 X17.629441624365484 Y26.890862944162436
G1 X17.619289340101524 Y26.32994923857868
G1 X12.855329949238579 Y26.33502538071066
G1 X12.418781725888326 Y26.629441624365484
G1 X11.733502538071065 Y27.17766497461929
G3 X11.276649746192893 Y27.586294416243653 I-5.16497461928934 J-5.2969543147208125
G3 X10.710659898477157 Y28.01015228426396 I-4.697969543147208 J-5.692893401015229
G3 X10.101522842639595 Y28.380710659898476 I-4.124365482233502 J-6.104060913705584
G3 X9.459390862944163 Y28.68781725888325 I-3.49746192893401 J-6.444162436548223
G3 X8.779187817258883 Y28.936548223350258 I-2.8502538071065993 J-6.741116751269035
G3 X8.076142131979696 Y29.119289340101524 I-2.17005076142132 J-6.99238578680203
G3 X7.340101522842639 Y29.23096446700508 I-1.4720812182741116 J-7.192893401015228
G3 X6.593908629441624 Y29.266497461928935 I-0.7461928934010152 J-7.408629441624366
G3 X3.776649746192893 Y28.70812182741117 I0 J-7.3629441624365475
G3 X1.3883248730964468 Y27.111675126903553 I2.817258883248731 J-6.802030456852792
G3 X-0.2081218274111675 Y24.723350253807105 I5.2055837563451774 J-5.2055837563451774
G3 X-0.7690355329949239 Y21.906091370558375 I6.802030456852792 J-2.817258883248731
G3 X-0.2081218274111675 Y19.088832487309645 I7.3629441624365475 J0
G3 X1.3883248730964468 Y16.69796954314721 I6.802030456852792 J2.817258883248731
G3 X3.776649746192893 Y15.104060913705585 I5.2055837563451774 J5.2055837563451774
G3 X6.593908629441624 Y14.543147208121827 I2.817258883248731 J6.802030456852792
G3 X7.340101522842639 Y14.581218274111675 I0 J7.444162436548223
G3 X8.076142131979696 Y14.692893401015228 I-0.7360406091370558 J7.304568527918782
G3 X8.779187817258883 Y14.873096446700506 I-1.4670050761421318 J7.17258883248731
G3 X9.459390862944163 Y15.121827411167512 I-2.17005076142132 J6.98984771573604
G3 X10.083756345177665 Y15.418781725888325 I-3.2411167512690353 J7.659898477157361
G3 X10.596446700507613 Y15.723350253807107 I-2.49492385786802 J4.751269035532995
G3 X11.053299492385786 Y16.065989847715734 I-3.2563451776649748 J4.817258883248731
G3 X11.586294416243653 Y16.53299492385787 I-8.055837563451776 J9.705583756345177
G1 X12.928934010152284 Y17.614213197969544
G1 X17.619289340101524 Y17.621827411167512
G1 X17.629441624365484 Y16.926395939086294
G1 X17.629441624365484 Y14.454314720812182
G1 X17.629441624365484 Y11.969543147208121
G1 X17.629441624365484 Y9.48477157360406
G1 X17.629441624365484 Y7
G1 X17.629441624365484 Y4.5152284263959395
G1 X17.629441624365484 Y2.030456852791878
G3 X19.192893401015226 Y0.46954314720812185 I1.5634517766497464 J0
G1 X72.51522842639594 Y0.46954314720812185
G1 X125.84010152284264 Y0.46954314720812185
G3 X127.40101522842639 Y2.030456852791878 I0 J1.5634517766497464
G1 X127.40101522842639 Y4.5152284263959395
G1 X127.40101522842639 Y7
G1 X127.40101522842639 Y9.48477157360406
G1 X127.40101522842639 Y11.969543147208121
G1 X127.40101522842639 Y14.454314720812182
G1 X127.40101522842639 Y16.928934010152282
G1 X127.42893401015229 Y19.195431472081218
G1 X127.42893401015229 Y19.21319796954315
G3 X125.86802030456853 Y20.77664974619289 I-1.5634517766497464 J0
G1 X119.22842639593908 Y20.774111675126903
G3 X118.23604060913706 Y20.418781725888326 I0 J-1.5634517766497464
G1 X116.51015228426395 Y19.00253807106599
G3 X116.39086294416244 Y18.895939086294415 I0.9898477157360407 J-1.2081218274111676
G2 X116.0761421319797 Y18.606598984771573 I-3.0736040609137056 J3.050761421319797
G2 X115.79187817258884 Y18.398477157360407 I-2.045685279187817 J2.479695431472081
G2 X115.50761421319797 Y18.230964467005077 I-1.8375634517766497 J2.8020304568527923
G2 X115.09390862944161 Y18.03553299492386 I-2.6015228426395938 J4.977157360406092
G2 X114.70304568527919 Y17.890862944162436 I-1.634517766497462 J3.8629441624365484
G2 X114.2994923857868 Y17.789340101522843 I-1.2436548223350254 J4.00761421319797
G2 X113.87817258883248 Y17.723350253807105 I-0.8451776649746192 J4.129441624365483
G2 X113.44416243654821 Y17.70304568527919 I-0.434010152284264 J4.299492385786802
G2 X111.82233502538071 Y18.0253807106599 I0 J4.238578680203045
G2 X110.44670050761422 Y18.944162436548226 I1.6218274111675126 J3.913705583756345
G2 X109.52791878172589 Y20.31725888324873 I2.9974619289340105 J2.9974619289340105
G2 X109.20558375634516 Y21.939086294416246 I3.913705583756345 J1.6218274111675126
G2 X109.52791878172589 Y23.560913705583758 I4.238578680203045 J0
G2 X110.44670050761422 Y24.93654822335025 I3.913705583756345 J-1.6218274111675126
G2 X111.82233502538071 Y25.855329949238577 I2.9974619289340105 J-2.9974619289340105
G2 X113.44416243654821 Y26.17766497461929 I1.6218274111675126 J-3.913705583756345
G2 X113.87817258883248 Y26.154822335025383 I0 J-4.319796954314721
G2 X114.2994923857868 Y26.091370558375637 I-0.42385786802030456 J-4.195431472081218
G2 X114.70304568527919 Y25.987309644670052 I-0.8401015228426396 J-4.111675126903553
G2 X115.09390862944161 Y25.84517766497462 I-1.2436548223350254 J-4.00507614213198
G2 X115.46192893401015 Y25.66751269035533 I-1.6395939086294418 J-3.8756345177664975
G2 X115.81218274111676 Y25.454314720812185 I-2.0228426395939088 J-3.728426395939086
G2 X116.13705583756345 Y25.21065989847716 I-2.383248730964467 J-3.527918781725888
G2 X116.43908629441624 Y24.93654822335025 I-2.720812182741117 J-3.296954314720812
G3 X116.57106598984771 Y24.819796954314718 I1.1040609137055837 J1.1040609137055837
G1 X117.37055837563452 Y24.182741116751266
G3 X117.47208121827411 Y24.10913705583756 I0.9746192893401016 J1.2208121827411167
G1 X118.35532994923858 Y23.51269035532995
G3 X119.21827411167513 Y23.246192893401016 I0.8730964467005076 J1.296954314720812
G1 X125.85786802030456 Y23.205583756345177
G3 X127.42893401015229 Y24.766497461928935 I0.010152284263959392 J1.5634517766497464
G1 X127.42893401015229 Y24.786802030456855
G1 X127.40101522842639 Y26.888324873096447
G1 X127.40101522842639 Y29.36294416243655
G1 X127.40101522842639 Y31.847715736040605
G1 X127.40101522842639 Y34.33248730964467
G1 X127.40101522842639 Y36.817258883248726
G1 X127.40101522842639 Y39.30203045685279
G1 X127.40101522842639 Y41.786802030456855
G3 X125.84010152284264 Y43.34771573604061 I-1.5634517766497464 J0
G1 Z-3 F1000
G1 X72.51522842639594 Y43.34771573604061 F2000
G1 X19.192893401015226 Y43.34771573604061
G3 X17.629441624365484 Y41.786802030456855 I0 J-1.5634517766497464
G1 X17.629441624365484 Y39.30203045685279
G1 X17.629441624365484 Y36.817258883248726
G1 X17.629441624365484 Y34.33248730964467
G1 X17.629441624365484 Y31.847715736040605
G1 X17.629441624365484 Y29.36294416243655
G1 X17.629441624365484 Y26.890862944162436
G1 X17.619289340101524 Y26.32994923857868
G1 X12.855329949238579 Y26.33502538071066
G1 X12.418781725888326 Y26.629441624365484
G1 X11.733502538071065 Y27.17766497461929
G3 X11.276649746192893 Y27.586294416243653 I-5.16497461928934 J-5.2969543147208125
G3 X10.710659898477157 Y28.01015228426396 I-4.697969543147208 J-5.692893401015229
G3 X10.101522842639595 Y28.380710659898476 I-4.124365482233502 J-6.104060913705584
G3 X9.459390862944163 Y28.68781725888325 I-3.49746192893401 J-6.444162436548223
G3 X8.779187817258883 Y28.936548223350258 I-2.8502538071065993 J-6.741116751269035
G3 X8.076142131979696 Y29.119289340101524 I-2.17005076142132 J-6.99238578680203
G3 X7.340101522842639 Y29.23096446700508 I-1.4720812182741116 J-7.192893401015228
G3 X6.593908629441624 Y29.266497461928935 I-0.7461928934010152 J-7.408629441624366
G3 X3.776649746192893 Y28.70812182741117 I0 J-7.3629441624365475
G3 X1.3883248730964468 Y27.111675126903553 I2.817258883248731 J-6.802030456852792
G3 X-0.2081218274111675 Y24.723350253807105 I5.2055837563451774 J-5.2055837563451774
G3 X-0.7690355329949239 Y21.906091370558375 I6.802030456852792 J-2.817258883248731
G3 X-0.2081218274111675 Y19.088832487309645 I7.3629441624365475 J0
G3 X1.3883248730964468 Y16.69796954314721 I6.802030456852792 J2.817258883248731
G3 X3.776649746192893 Y15.104060913705585 I5.2055837563451774 J5.2055837563451774
G3 X6.593908629441624 Y14.543147208121827 I2.817258883248731 J6.802030456852792
G3 X7.340101522842639 Y14.581218274111675 I0 J7.444162436548223
G3 X8.076142131979696 Y14.692893401015228 I-0.7360406091370558 J7.304568527918782
G3 X8.779187817258883 Y14.873096446700506 I-1.4670050761421318 J7.17258883248731
G3 X9.459390862944163 Y15.121827411167512 I-2.17005076142132 J6.98984771573604
G3 X10.083756345177665 Y15.418781725888325 I-3.2411167512690353 J7.659898477157361
G3 X10.596446700507613 Y15.723350253807107 I-2.49492385786802 J4.751269035532995
G3 X11.053299492385786 Y16.065989847715734 I-3.2563451776649748 J4.817258883248731
G3 X11.586294416243653 Y16.53299492385787 I-8.055837563451776 J9.705583756345177
G1 X12.928934010152284 Y17.614213197969544
G1 X17.619289340101524 Y17.621827411167512
G1 X17.629441624365484 Y16.926395939086294
G1 X17.629441624365484 Y14.454314720812182
G1 X17.629441624365484 Y11.969543147208121
G1 X17.629441624365484 Y9.48477157360406
G1 X17.629441624365484 Y7
G1 X17.629441624365484 Y4.5152284263959395
G1 X17.629441624365484 Y2.030456852791878
G3 X19.192893401015226 Y0.46954314720812185 I1.5634517766497464 J0
G1 X72.51522842639594 Y0.46954314720812185
G1 X125.84010152284264 Y0.46954314720812185
G3 X127.40101522842639 Y2.030456852791878 I0 J1.5634517766497464
G1 X127.40101522842639 Y4.5152284263959395
G1 X127.40101522842639 Y7
G1 X127.40101522842639 Y9.48477157360406
G1 X127.40101522842639 Y11.969543147208121
G1 X127.40101522842639 Y14.454314720812182
G1 X127.40101522842639 Y16.928934010152282
G1 X127.42893401015229 Y19.195431472081218
G1 X127.42893401015229 Y19.21319796954315
G3 X125.86802030456853 Y20.77664974619289 I-1.5634517766497464 J0
G1 X119.22842639593908 Y20.774111675126903
G3 X118.23604060913706 Y20.418781725888326 I0 J-1.5634517766497464
G1 X116.51015228426395 Y19.00253807106599
G3 X116.39086294416244 Y18.895939086294415 I0.9898477157360407 J-1.2081218274111676
G2 X116.0761421319797 Y18.606598984771573 I-3.0736040609137056 J3.050761421319797
G2 X115.79187817258884 Y18.398477157360407 I-2.045685279187817 J2.479695431472081
G2 X115.50761421319797 Y18.230964467005077 I-1.8375634517766497 J2.8020304568527923
G2 X115.09390862944161 Y18.03553299492386 I-2.6015228426395938 J4.977157360406092
G2 X114.70304568527919 Y17.890862944162436 I-1.634517766497462 J3.8629441624365484
G2 X114.2994923857868 Y17.789340101522843 I-1.2436548223350254 J4.00761421319797
G2 X113.87817258883248 Y17.723350253807105 I-0.8451776649746192 J4.129441624365483
G2 X113.44416243654821 Y17.70304568527919 I-0.434010152284264 J4.299492385786802
G2 X111.82233502538071 Y18.0253807106599 I0 J4.238578680203045
G2 X110.44670050761422 Y18.944162436548226 I1.6218274111675126 J3.913705583756345
G2 X109.52791878172589 Y20.31725888324873 I2.9974619289340105 J2.9974619289340105
G2 X109.20558375634516 Y21.939086294416246 I3.913705583756345 J1.6218274111675126
G2 X109.52791878172589 Y23.560913705583758 I4.238578680203045 J0
G2 X110.44670050761422 Y24.93654822335025 I3.913705583756345 J-1.6218274111675126
G2 X111.82233502538071 Y25.855329949238577 I2.9974619289340105 J-2.9974619289340105
G2 X113.44416243654821 Y26.17766497461929 I1.6218274111675126 J-3.913705583756345
G2 X113.87817258883248 Y26.154822335025383 I0 J-4.319796954314721
G2 X114.2994923857868 Y26.091370558375637 I-0.42385786802030456 J-4.195431472081218
G2 X114.70304568527919 Y25.987309644670052 I-0.8401015228426396 J-4.111675126903553
G2 X115.09390862944161 Y25.84517766497462 I-1.2436548223350254 J-4.00507614213198
G2 X115.46192893401015 Y25.66751269035533 I-1.6395939086294418 J-3.8756345177664975
G2 X115.81218274111676 Y25.454314720812185 I-2.0228426395939088 J-3.728426395939086
G2 X116.13705583756345 Y25.21065989847716 I-2.383248730964467 J-3.527918781725888
G2 X116.43908629441624 Y24.93654822335025 I-2.720812182741117 J-3.296954314720812
G3 X116.57106598984771 Y24.819796954314718 I1.1040609137055837 J1.1040609137055837
G1 X117.37055837563452 Y24.182741116751266
G3 X117.47208121827411 Y24.10913705583756 I0.9746192893401016 J1.2208121827411167
G1 X118.35532994923858 Y23.51269035532995
G3 X119.21827411167513 Y23.246192893401016 I0.8730964467005076 J1.296954314720812
G1 X125.85786802030456 Y23.205583756345177
G3 X127.42893401015229 Y24.766497461928935 I0.010152284263959392 J1.5634517766497464
G1 X127.42893401015229 Y24.786802030456855
G1 X127.40101522842639 Y26.888324873096447
G1 X127.40101522842639 Y29.36294416243655
G1 X127.40101522842639 Y31.847715736040605
G1 X127.40101522842639 Y34.33248730964467
G1 X127.40101522842639 Y36.817258883248726
G1 X127.40101522842639 Y39.30203045685279
G1 X127.40101522842639 Y41.786802030456855
G3 X125.84010152284264 Y43.34771573604061 I-1.5634517766497464 J0
G1 Z-4 F1000
G1 X72.51522842639594 Y43.34771573604061 F2000
G1 X19.192893401015226 Y43.34771573604061
G3 X17.629441624365484 Y41.786802030456855 I0 J-1.5634517766497464
G1 X17.629441624365484 Y39.30203045685279
G1 X17.629441624365484 Y36.817258883248726
G1 X17.629441624365484 Y34.33248730964467
G1 X17.629441624365484 Y31.847715736040605
G1 X17.629441624365484 Y29.36294416243655
G1 X17.629441624365484 Y26.890862944162436
G1 X17.619289340101524 Y26.32994923857868
G1 X12.855329949238579 Y26.33502538071066
G1 X12.418781725888326 Y26.629441624365484
G1 X11.733502538071065 Y27.17766497461929
G3 X11.276649746192893 Y27.586294416243653 I-5.16497461928934 J-5.2969543147208125
G3 X10.710659898477157 Y28.01015228426396 I-4.697969543147208 J-5.692893401015229
G3 X10.101522842639595 Y28.380710659898476 I-4.124365482233502 J-6.104060913705584
G3 X9.459390862944163 Y28.68781725888325 I-3.49746192893401 J-6.444162436548223
G3 X8.779187817258883 Y28.936548223350258 I-2.8502538071065993 J-6.741116751269035
G3 X8.076142131979696 Y29.119289340101524 I-2.17005076142132 J-6.99238578680203
G3 X7.340101522842639 Y29.23096446700508 I-1.4720812182741116 J-7.192893401015228
G3 X6.593908629441624 Y29.266497461928935 I-0.7461928934010152 J-7.408629441624366
G3 X3.776649746192893 Y28.70812182741117 I0 J-7.3629441624365475
G3 X1.3883248730964468 Y27.111675126903553 I2.817258883248731 J-6.802030456852792
G3 X-0.2081218274111675 Y24.723350253807105 I5.2055837563451774 J-5.2055837563451774
G3 X-0.7690355329949239 Y21.906091370558375 I6.802030456852792 J-2.817258883248731
G3 X-0.2081218274111675 Y19.088832487309645 I7.3629441624365475 J0
G3 X1.3883248730964468 Y16.69796954314721 I6.802030456852792 J2.817258883248731
G3 X3.776649746192893 Y15.104060913705585 I5.2055837563451774 J5.2055837563451774
G3 X6.593908629441624 Y14.543147208121827 I2.817258883248731 J6.802030456852792
G3 X7.340101522842639 Y14.581218274111675 I0 J7.444162436548223
G3 X8.076142131979696 Y14.692893401015228 I-0.7360406091370558 J7.304568527918782
G3 X8.779187817258883 Y14.873096446700506 I-1.4670050761421318 J7.17258883248731
G3 X9.459390862944163 Y15.121827411167512 I-2.17005076142132 J6.98984771573604
G3 X10.083756345177665 Y15.418781725888325 I-3.2411167512690353 J7.659898477157361
G3 X10.596446700507613 Y15.723350253807107 I-2.49492385786802 J4.751269035532995
G3 X11.053299492385786 Y16.065989847715734 I-3.2563451776649748 J4.817258883248731
G3 X11.586294416243653 Y16.53299492385787 I-8.055837563451776 J9.705583756345177
G1 X12.928934010152284 Y17.614213197969544
G1 X17.619289340101524 Y17.621827411167512
G1 X17.629441624365484 Y16.926395939086294
G1 X17.629441624365484 Y14.454314720812182
G1 X17.629441624365484 Y11.969543147208121
G1 X17.629441624365484 Y9.48477157360406
G1 X17.629441624365484 Y7
G1 X17.629441624365484 Y4.5152284263959395
G1 X17.629441624365484 Y2.030456852791878
G3 X19.192893401015226 Y0.46954314720812185 I1.5634517766497464 J0
G1 X72.51522842639594 Y0.46954314720812185
G1 X125.84010152284264 Y0.46954314720812185
G3 X127.40101522842639 Y2.030456852791878 I0 J1.5634517766497464
G1 X127.40101522842639 Y4.5152284263959395
G1 X127.40101522842639 Y7
G1 X127.40101522842639 Y9.48477157360406
G1 X127.40101522842639 Y11.969543147208121
G1 X127.40101522842639 Y14.454314720812182
G1 X127.40101522842639 Y16.928934010152282
G1 X127.42893401015229 Y19.195431472081218
G1 X127.42893401015229 Y19.21319796954315
G3 X125.86802030456853 Y20.77664974619289 I-1.5634517766497464 J0
G1 X119.22842639593908 Y20.774111675126903
G3 X118.23604060913706 Y20.418781725888326 I0 J-1.5634517766497464
G1 X116.51015228426395 Y19.00253807106599
G3 X116.39086294416244 Y18.895939086294415 I0.9898477157360407 J-1.2081218274111676
G2 X116.0761421319797 Y18.606598984771573 I-3.0736040609137056 J3.050761421319797
G2 X115.79187817258884 Y18.398477157360407 I-2.045685279187817 J2.479695431472081
G2 X115.50761421319797 Y18.230964467005077 I-1.8375634517766497 J2.8020304568527923
G2 X115.09390862944161 Y18.03553299492386 I-2.6015228426395938 J4.977157360406092
G2 X114.70304568527919 Y17.890862944162436 I-1.634517766497462 J3.8629441624365484
G2 X114.2994923857868 Y17.789340101522843 I-1.2436548223350254 J4.00761421319797
G2 X113.87817258883248 Y17.723350253807105 I-0.8451776649746192 J4.129441624365483
G2 X113.44416243654821 Y17.70304568527919 I-0.434010152284264 J4.299492385786802
G2 X111.82233502538071 Y18.0253807106599 I0 J4.238578680203045
G2 X110.44670050761422 Y18.944162436548226 I1.6218274111675126 J3.913705583756345
G2 X109.52791878172589 Y20.31725888324873 I2.9974619289340105 J2.9974619289340105
G2 X109.20558375634516 Y21.939086294416246 I3.913705583756345 J1.6218274111675126
G2 X109.52791878172589 Y23.560913705583758 I4.238578680203045 J0
G2 X110.44670050761422 Y24.93654822335025 I3.913705583756345 J-1.6218274111675126
G2 X111.82233502538071 Y25.855329949238577 I2.9974619289340105 J-2.9974619289340105
G2 X113.44416243654821 Y26.17766497461929 I1.6218274111675126 J-3.913705583756345
G2 X113.87817258883248 Y26.154822335025383 I0 J-4.319796954314721
G2 X114.2994923857868 Y26.091370558375637 I-0.42385786802030456 J-4.195431472081218
G2 X114.70304568527919 Y25.987309644670052 I-0.8401015228426396 J-4.111675126903553
G2 X115.09390862944161 Y25.84517766497462 I-1.2436548223350254 J-4.00507614213198
G2 X115.46192893401015 Y25.66751269035533 I-1.6395939086294418 J-3.8756345177664975
G2 X115.81218274111676 Y25.454314720812185 I-2.0228426395939088 J-3.728426395939086
G2 X116.13705583756345 Y25.21065989847716 I-2.383248730964467 J-3.527918781725888
G2 X116.43908629441624 Y24.93654822335025 I-2.720812182741117 J-3.296954314720812
G3 X116.57106598984771 Y24.819796954314718 I1.1040609137055837 J1.1040609137055837
G1 X117.37055837563452 Y24.182741116751266
G3 X117.47208121827411 Y24.10913705583756 I0.9746192893401016 J1.2208121827411167
G1 X118.35532994923858 Y23.51269035532995
G3 X119.21827411167513 Y23.246192893401016 I0.8730964467005076 J1.296954314720812
G1 X125.85786802030456 Y23.205583756345177
G3 X127.42893401015229 Y24.766497461928935 I0.010152284263959392 J1.5634517766497464
G1 X127.42893401015229 Y24.786802030456855
G1 X127.40101522842639 Y26.888324873096447
G1 X127.40101522842639 Y29.36294416243655
G1 X127.40101522842639 Y31.847715736040605
G1 X127.40101522842639 Y34.33248730964467
G1 X127.40101522842639 Y36.817258883248726
G1 X127.40101522842639 Y39.30203045685279
G1 X127.40101522842639 Y41.786802030456855
G3 X125.84010152284264 Y43.34771573604061 I-1.5634517766497464 J0
G1 Z-5 F1000
G1 X72.51522842639594 Y43.34771573604061 F2000
G1 X19.192893401015226 Y43.34771573604061
G3 X17.629441624365484 Y41.786802030456855 I0 J-1.5634517766497464
G1 X17.629441624365484 Y39.30203045685279
G1 X17.629441624365484 Y36.817258883248726
G1 X17.629441624365484 Y34.33248730964467
G1 X17.629441624365484 Y31.847715736040605
G1 X17.629441624365484 Y29.36294416243655
G1 X17.629441624365484 Y26.890862944162436
G1 X17.619289340101524 Y26.32994923857868
G1 X12.855329949238579 Y26.33502538071066
G1 X12.418781725888326 Y26.629441624365484
G1 X11.733502538071065 Y27.17766497461929
G3 X11.276649746192893 Y27.586294416243653 I-5.16497461928934 J-5.2969543147208125
G3 X10.710659898477157 Y28.01015228426396 I-4.697969543147208 J-5.692893401015229
G3 X10.101522842639595 Y28.380710659898476 I-4.124365482233502 J-6.104060913705584
G3 X9.459390862944163 Y28.68781725888325 I-3.49746192893401 J-6.444162436548223
G3 X8.779187817258883 Y28.936548223350258 I-2.8502538071065993 J-6.741116751269035
G3 X8.076142131979696 Y29.119289340101524 I-2.17005076142132 J-6.99238578680203
G3 X7.340101522842639 Y29.23096446700508 I-1.4720812182741116 J-7.192893401015228
G3 X6.593908629441624 Y29.266497461928935 I-0.7461928934010152 J-7.408629441624366
G3 X3.776649746192893 Y28.70812182741117 I0 J-7.3629441624365475
G3 X1.3883248730964468 Y27.111675126903553 I2.817258883248731 J-6.802030456852792
G3 X-0.2081218274111675 Y24.723350253807105 I5.2055837563451774 J-5.2055837563451774
G3 X-0.7690355329949239 Y21.906091370558375 I6.802030456852792 J-2.817258883248731
G3 X-0.2081218274111675 Y19.088832487309645 I7.3629441624365475 J0
G3 X1.3883248730964468 Y16.69796954314721 I6.802030456852792 J2.817258883248731
G3 X3.776649746192893 Y15.104060913705585 I5.2055837563451774 J5.2055837563451774
G3 X6.593908629441624 Y14.543147208121827 I2.817258883248731 J6.802030456852792
G3 X7.340101522842639 Y14.581218274111675 I0 J7.444162436548223
G3 X8.076142131979696 Y14.692893401015228 I-0.7360406091370558 J7.304568527918782
G3 X8.779187817258883 Y14.873096446700506 I-1.4670050761421318 J7.17258883248731
G3 X9.459390862944163 Y15.121827411167512 I-2.17005076142132 J6.98984771573604
G3 X10.083756345177665 Y15.418781725888325 I-3.2411167512690353 J7.659898477157361
G3 X10.596446700507613 Y15.723350253807107 I-2.49492385786802 J4.751269035532995
G3 X11.053299492385786 Y16.065989847715734 I-3.2563451776649748 J4.817258883248731
G3 X11.586294416243653 Y16.53299492385787 I-8.055837563451776 J9.705583756345177
G1 X12.928934010152284 Y17.614213197969544
G1 X17.619289340101524 Y17.621827411167512
G1 X17.629441624365484 Y16.926395939086294
G1 X17.629441624365484 Y14.454314720812182
G1 X17.629441624365484 Y11.969543147208121
G1 X17.629441624365484 Y9.48477157360406
G1 X17.629441624365484 Y7
G1 X17.629441624365484 Y4.5152284263959395
G1 X17.629441624365484 Y2.030456852791878
G3 X19.192893401015226 Y0.46954314720812185 I1.5634517766497464 J0
G1 X72.51522842639594 Y0.46954314720812185
G1 X125.84010152284264 Y0.46954314720812185
G3 X127.40101522842639 Y2.030456852791878 I0 J1.5634517766497464
G1 X127.40101522842639 Y4.5152284263959395
G1 X127.40101522842639 Y7
G1 X127.40101522842639 Y9.48477157360406
G1 X127.40101522842639 Y11.969543147208121
G1 X127.40101522842639 Y14.454314720812182
G1 X127.40101522842639 Y16.928934010152282
G1 X127.42893401015229 Y19.195431472081218
G1 X127.42893401015229 Y19.21319796954315
G3 X125.86802030456853 Y20.77664974619289 I-1.5634517766497464 J0
G1 X119.22842639593908 Y20.774111675126903
G3 X118.23604060913706 Y20.418781725888326 I0 J-1.5634517766497464
G1 X116.51015228426395 Y19.00253807106599
G3 X116.39086294416244 Y18.895939086294415 I0.9898477157360407 J-1.2081218274111676
G2 X116.0761421319797 Y18.606598984771573 I-3.0736040609137056 J3.050761421319797
G2 X115.79187817258884 Y18.398477157360407 I-2.045685279187817 J2.479695431472081
G2 X115.50761421319797 Y18.230964467005077 I-1.8375634517766497 J2.8020304568527923
G2 X115.09390862944161 Y18.03553299492386 I-2.6015228426395938 J4.977157360406092
G2 X114.70304568527919 Y17.890862944162436 I-1.634517766497462 J3.8629441624365484
G2 X114.2994923857868 Y17.789340101522843 I-1.2436548223350254 J4.00761421319797
G2 X113.87817258883248 Y17.723350253807105 I-0.8451776649746192 J4.129441624365483
G2 X113.44416243654821 Y17.70304568527919 I-0.434010152284264 J4.299492385786802
G2 X111.82233502538071 Y18.0253807106599 I0 J4.238578680203045
G2 X110.44670050761422 Y18.944162436548226 I1.6218274111675126 J3.913705583756345
G2 X109.52791878172589 Y20.31725888324873 I2.9974619289340105 J2.9974619289340105
G2 X109.20558375634516 Y21.939086294416246 I3.913705583756345 J1.6218274111675126
G2 X109.52791878172589 Y23.560913705583758 I4.238578680203045 J0
G2 X110.44670050761422 Y24.93654822335025 I3.913705583756345 J-1.6218274111675126
G2 X111.82233502538071 Y25.855329949238577 I2.9974619289340105 J-2.9974619289340105
G2 X113.44416243654821 Y26.17766497461929 I1.6218274111675126 J-3.913705583756345
G2 X113.87817258883248 Y26.154822335025383 I0 J-4.319796954314721
G2 X114.2994923857868 Y26.091370558375637 I-0.42385786802030456 J-4.195431472081218
G2 X114.70304568527919 Y25.987309644670052 I-0.8401015228426396 J-4.111675126903553
G2 X115.09390862944161 Y25.84517766497462 I-1.2436548223350254 J-4.00507614213198
G2 X115.46192893401015 Y25.66751269035533 I-1.6395939086294418 J-3.8756345177664975
G2 X115.81218274111676 Y25.454314720812185 I-2.0228426395939088 J-3.728426395939086
G2 X116.13705583756345 Y25.21065989847716 I-2.383248730964467 J-3.527918781725888
G2 X116.43908629441624 Y24.93654822335025 I-2.720812182741117 J-3.296954314720812
G3 X116.57106598984771 Y24.819796954314718 I1.1040609137055837 J1.1040609137055837
G1 X117.37055837563452 Y24.182741116751266
G3 X117.47208121827411 Y24.10913705583756 I0.9746192893401016 J1.2208121827411167
G1 X118.35532994923858 Y23.51269035532995
G3 X119.21827411167513 Y23.246192893401016 I0.8730964467005076 J1.296954314720812
G1 X125.85786802030456 Y23.205583756345177
G3 X127.42893401015229 Y24.766497461928935 I0.010152284263959392 J1.5634517766497464
G1 X127.42893401015229 Y24.786802030456855
G1 X127.40101522842639 Y26.888324873096447
G1 X127.40101522842639 Y29.36294416243655
G1 X127.40101522842639 Y31.847715736040605
G1 X127.40101522842639 Y34.33248730964467
G1 X127.40101522842639 Y36.817258883248726
G1 X127.40101522842639 Y39.30203045685279
G1 X127.40101522842639 Y41.786802030456855
G3 X125.84010152284264 Y43.34771573604061 I-1.5634517766497464 J0
G1 Z-5.5 F1000
G1 X72.51522842639594 Y43.34771573604061 F2000
G1 X19.192893401015226 Y43.34771573604061
G3 X17.629441624365484 Y41.786802030456855 I0 J-1.5634517766497464
G1 X17.629441624365484 Y39.30203045685279
G1 X17.629441624365484 Y36.817258883248726
G1 X17.629441624365484 Y34.33248730964467
G1 X17.629441624365484 Y31.847715736040605
G1 X17.629441624365484 Y29.36294416243655
G1 X17.629441624365484 Y26.890862944162436
G1 X17.619289340101524 Y26.32994923857868
G1 X12.855329949238579 Y26.33502538071066
G1 X12.418781725888326 Y26.629441624365484
G1 X11.733502538071065 Y27.17766497461929
G3 X11.276649746192893 Y27.586294416243653 I-5.16497461928934 J-5.2969543147208125
G3 X10.710659898477157 Y28.01015228426396 I-4.697969543147208 J-5.692893401015229
G3 X10.101522842639595 Y28.380710659898476 I-4.124365482233502 J-6.104060913705584
G3 X9.459390862944163 Y28.68781725888325 I-3.49746192893401 J-6.444162436548223
G3 X8.779187817258883 Y28.936548223350258 I-2.8502538071065993 J-6.741116751269035
G3 X8.076142131979696 Y29.119289340101524 I-2.17005076142132 J-6.99238578680203
G3 X7.340101522842639 Y29.23096446700508 I-1.4720812182741116 J-7.192893401015228
G3 X6.593908629441624 Y29.266497461928935 I-0.7461928934010152 J-7.408629441624366
G3 X3.776649746192893 Y28.70812182741117 I0 J-7.3629441624365475
G3 X1.3883248730964468 Y27.111675126903553 I2.817258883248731 J-6.802030456852792
G3 X-0.2081218274111675 Y24.723350253807105 I5.2055837563451774 J-5.2055837563451774
G3 X-0.7690355329949239 Y21.906091370558375 I6.802030456852792 J-2.817258883248731
G3 X-0.2081218274111675 Y19.088832487309645 I7.3629441624365475 J0
G3 X1.3883248730964468 Y16.69796954314721 I6.802030456852792 J2.817258883248731
G3 X3.776649746192893 Y15.104060913705585 I5.2055837563451774 J5.2055837563451774
G3 X6.593908629441624 Y14.543147208121827 I2.817258883248731 J6.802030456852792
G3 X7.340101522842639 Y14.581218274111675 I0 J7.444162436548223
G3 X8.076142131979696 Y14.692893401015228 I-0.7360406091370558 J7.304568527918782
G3 X8.779187817258883 Y14.873096446700506 I-1.4670050761421318 J7.17258883248731
G3 X9.459390862944163 Y15.121827411167512 I-2.17005076142132 J6.98984771573604
G3 X10.083756345177665 Y15.418781725888325 I-3.2411167512690353 J7.659898477157361
G3 X10.596446700507613 Y15.723350253807107 I-2.49492385786802 J4.751269035532995
G3 X11.053299492385786 Y16.065989847715734 I-3.2563451776649748 J4.817258883248731
G3 X11.586294416243653 Y16.53299492385787 I-8.055837563451776 J9.705583756345177
G1 X12.928934010152284 Y17.614213197969544
G1 X17.619289340101524 Y17.621827411167512
G1 X17.629441624365484 Y16.926395939086294
G1 X17.629441624365484 Y14.454314720812182
G1 X17.629441624365484 Y11.969543147208121
G1 X17.629441624365484 Y9.48477157360406
G1 X17.629441624365484 Y7
G1 X17.629441624365484 Y4.5152284263959395
G1 X17.629441624365484 Y2.030456852791878
G3 X19.192893401015226 Y0.46954314720812185 I1.5634517766497464 J0
G1 X72.51522842639594 Y0.46954314720812185
G1 X125.84010152284264 Y0.46954314720812185
G3 X127.40101522842639 Y2.030456852791878 I0 J1.5634517766497464
G1 X127.40101522842639 Y4.5152284263959395
G1 X127.40101522842639 Y7
G1 X127.40101522842639 Y9.48477157360406
G1 X127.40101522842639 Y11.969543147208121
G1 X127.40101522842639 Y14.454314720812182
G1 X127.40101522842639 Y16.928934010152282
G1 X127.42893401015229 Y19.195431472081218
G1 X127.42893401015229 Y19.21319796954315
G3 X125.86802030456853 Y20.77664974619289 I-1.5634517766497464 J0
G1 X119.22842639593908 Y20.774111675126903
G3 X118.23604060913706 Y20.418781725888326 I0 J-1.5634517766497464
G1 X116.51015228426395 Y19.00253807106599
G3 X116.39086294416244 Y18.895939086294415 I0.9898477157360407 J-1.2081218274111676
G2 X116.0761421319797 Y18.606598984771573 I-3.0736040609137056 J3.050761421319797
G2 X115.79187817258884 Y18.398477157360407 I-2.045685279187817 J2.479695431472081
G2 X115.50761421319797 Y18.230964467005077 I-1.8375634517766497 J2.8020304568527923
G2 X115.09390862944161 Y18.03553299492386 I-2.6015228426395938 J4.977157360406092
G2 X114.70304568527919 Y17.890862944162436 I-1.634517766497462 J3.8629441624365484
G2 X114.2994923857868 Y17.789340101522843 I-1.2436548223350254 J4.00761421319797
G2 X113.87817258883248 Y17.723350253807105 I-0.8451776649746192 J4.129441624365483
G2 X113.44416243654821 Y17.70304568527919 I-0.434010152284264 J4.299492385786802
G2 X111.82233502538071 Y18.0253807106599 I0 J4.238578680203045
G2 X110.44670050761422 Y18.944162436548226 I1.6218274111675126 J3.913705583756345
G2 X109.52791878172589 Y20.31725888324873 I2.9974619289340105 J2.9974619289340105
G2 X109.20558375634516 Y21.939086294416246 I3.913705583756345 J1.6218274111675126
G2 X109.52791878172589 Y23.560913705583758 I4.238578680203045 J0
G2 X110.44670050761422 Y24.93654822335025 I3.913705583756345 J-1.6218274111675126
G2 X111.82233502538071 Y25.855329949238577 I2.9974619289340105 J-2.9974619289340105
G2 X113.44416243654821 Y26.17766497461929 I1.6218274111675126 J-3.913705583756345
G2 X113.87817258883248 Y26.154822335025383 I0 J-4.319796954314721
G2 X114.2994923857868 Y26.091370558375637 I-0.42385786802030456 J-4.195431472081218
G2 X114.70304568527919 Y25.987309644670052 I-0.8401015228426396 J-4.111675126903553
G2 X115.09390862944161 Y25.84517766497462 I-1.2436548223350254 J-4.00507614213198
G2 X115.46192893401015 Y25.66751269035533 I-1.6395939086294418 J-3.8756345177664975
G2 X115.81218274111676 Y25.454314720812185 I-2.0228426395939088 J-3.728426395939086
G2 X116.13705583756345 Y25.21065989847716 I-2.383248730964467 J-3.527918781725888
G2 X116.43908629441624 Y24.93654822335025 I-2.720812182741117 J-3.296954314720812
G3 X116.57106598984771 Y24.819796954314718 I1.1040609137055837 J1.1040609137055837
G1 X117.37055837563452 Y24.182741116751266
G3 X117.47208121827411 Y24.10913705583756 I0.9746192893401016 J1.2208121827411167
G1 X118.35532994923858 Y23.51269035532995
G3 X119.21827411167513 Y23.246192893401016 I0.8730964467005076 J1.296954314720812
G1 X125.85786802030456 Y23.205583756345177
G3 X127.42893401015229 Y24.766497461928935 I0.010152284263959392 J1.5634517766497464
G1 X127.42893401015229 Y24.786802030456855
G1 X127.40101522842639 Y26.888324873096447
G1 X127.40101522842639 Y29.36294416243655
G1 X127.40101522842639 Y31.847715736040605
G1 X127.40101522842639 Y34.33248730964467
G1 X127.40101522842639 Y36.817258883248726
G1 X127.40101522842639 Y39.30203045685279
G1 X127.40101522842639 Y41.786802030456855
G3 X125.84010152284264 Y43.34771573604061 I-1.5634517766497464 J0
G0 Z10
M5
M30
