(Generated by PartKam Version 0.05)

G21 G90 G40

(pocket 1)
G0 Z10
T0 M6
G17
M3
G0 X272.2228426395939 Y12.304060913705584
G1 Z-1 F800
G1 X6.071065989847716 Y12.304568527918782 F1500
G1 X6.071065989847716 Y10.20304568527919
G1 X272.2233502538071 Y10.20304568527919
G1 X272.2233502538071 Y12.304568527918782
G0 Z10
G0 X272.2269035532995 Y36.77969543147208
G1 Z-1 F800
G1 X6.076142131979695 Y36.77918781725889 F1500
G1 X6.076142131979695 Y34.680203045685275
G1 X272.2258883248731 Y34.680203045685275
G1 X272.2258883248731 Y36.77918781725889
G0 Z10
G0 X272.2228426395939 Y12.304060913705584
G1 Z-2 F800
G1 X6.071065989847716 Y12.304568527918782 F1500
G1 X6.071065989847716 Y10.20304568527919
G1 X272.2233502538071 Y10.20304568527919
G1 X272.2233502538071 Y12.304568527918782
G0 Z10
G0 X272.2269035532995 Y36.77969543147208
G1 Z-2 F800
G1 X6.076142131979695 Y36.77918781725889 F1500
G1 X6.076142131979695 Y34.680203045685275
G1 X272.2258883248731 Y34.680203045685275
G1 X272.2258883248731 Y36.77918781725889
G0 Z10
G0 X272.2228426395939 Y12.304060913705584
G1 Z-3 F800
G1 X6.071065989847716 Y12.304568527918782 F1500
G1 X6.071065989847716 Y10.20304568527919
G1 X272.2233502538071 Y10.20304568527919
G1 X272.2233502538071 Y12.304568527918782
G0 Z10
G0 X272.2269035532995 Y36.77969543147208
G1 Z-3 F800
G1 X6.076142131979695 Y36.77918781725889 F1500
G1 X6.076142131979695 Y34.680203045685275
G1 X272.2258883248731 Y34.680203045685275
G1 X272.2258883248731 Y36.77918781725889
G0 Z10
M5
M30
