(Generated by PartKam Version 0.05)

G21 G90 G40

(LBot track)
G0 Z10
T0 M6
G17
M3
G0 X129.70913705583757 Y13.560406091370558
G1 Z-1 F800
G1 X26.01269035532995 Y13.560913705583758 F1500
G1 X26.01269035532995 Y11.16243654822335
G1 X129.70812182741116 Y11.16243654822335
G1 X129.70812182741116 Y13.560913705583758
G0 Z10
G0 X129.70913705583757 Y13.560406091370558
G1 Z-2 F800
G1 X26.01269035532995 Y13.560913705583758 F1500
G1 X26.01269035532995 Y11.16243654822335
G1 X129.70812182741116 Y11.16243654822335
G1 X129.70812182741116 Y13.560913705583758
G0 Z10
G0 X129.70913705583757 Y13.560406091370558
G1 Z-3 F800
G1 X26.01269035532995 Y13.560913705583758 F1500
G1 X26.01269035532995 Y11.16243654822335
G1 X129.70812182741116 Y11.16243654822335
G1 X129.70812182741116 Y13.560913705583758
G0 Z10
G0 X129.70913705583757 Y13.560406091370558
G1 Z-3.2 F800
G1 X26.01269035532995 Y13.560913705583758 F1500
G1 X26.01269035532995 Y11.16243654822335
G1 X129.70812182741116 Y11.16243654822335
G1 X129.70812182741116 Y13.560913705583758

(LTop track)
G0 Z10
G0 X129.71497461928934 Y37.94137055837563
G1 Z-1 F800
G1 X26.017766497461928 Y37.941624365482234 F1500
G1 X26.017766497461928 Y35.54314720812182
G1 X129.71573604060916 Y35.54314720812182
G1 X129.71573604060916 Y37.941624365482234
G0 Z10
G0 X129.71497461928934 Y37.94137055837563
G1 Z-2 F800
G1 X26.017766497461928 Y37.941624365482234 F1500
G1 X26.017766497461928 Y35.54314720812182
G1 X129.71573604060916 Y35.54314720812182
G1 X129.71573604060916 Y37.941624365482234
G0 Z10
G0 X129.71497461928934 Y37.94137055837563
G1 Z-3 F800
G1 X26.017766497461928 Y37.941624365482234 F1500
G1 X26.017766497461928 Y35.54314720812182
G1 X129.71573604060916 Y35.54314720812182
G1 X129.71573604060916 Y37.941624365482234
G0 Z10
G0 X129.71497461928934 Y37.94137055837563
G1 Z-3.2 F800
G1 X26.017766497461928 Y37.941624365482234 F1500
G1 X26.017766497461928 Y35.54314720812182
G1 X129.71573604060916 Y35.54314720812182
G1 X129.71573604060916 Y37.941624365482234

(left outline)
G0 Z10
G0 X120.9751269035533 Y19.32208121827411
G1 Z-1 F800
G2 X120.43908629441624 Y19.126903553299492 I-2.2436548223350252 J5.302030456852792 F1500
G2 X119.88578680203047 Y18.98477157360406 I-1.7081218274111676 J5.5
G2 X119.30710659898477 Y18.895939086294415 I-1.1573604060913705 J5.65989847715736
G2 X118.71827411167513 Y18.865482233502537 I-0.5888324873096447 J5.852791878172589
G2 X116.49746192893402 Y19.30710659898477 I0 J5.799492385786802
G2 X114.61675126903555 Y20.565989847715738 I2.220812182741117 J5.3578680203045685
G2 X113.35786802030456 Y22.446700507614214 I4.101522842639594 J4.101522842639594
G2 X112.91878172588832 Y24.66751269035533 I5.3578680203045685 J2.220812182741117
G2 X113.35786802030456 Y26.885786802030456 I5.799492385786802 J0
G2 X114.61675126903555 Y28.76649746192893 I5.3578680203045685 J-2.220812182741117
G2 X116.49746192893402 Y30.0253807106599 I4.101522842639594 J-4.101522842639594
G2 X118.71827411167513 Y30.467005076142133 I2.220812182741117 J-5.3578680203045685
G2 X119.30710659898477 Y30.436548223350254 I0 J-5.883248730964467
G2 X119.88578680203047 Y30.34771573604061 I-0.5786802030456852 J-5.748730964467005
G2 X120.43908629441624 Y30.205583756345177 I-1.1548223350253808 J-5.6421319796954315
G2 X120.9746192893401 Y30.01015228426396 I-1.7055837563451774 J-5.49746192893401
G2 X121.4796954314721 Y29.766497461928935 I-2.248730964467005 J-5.314720812182742
G2 X121.95939086294416 Y29.474619289340104 I-2.769035532994924 J-5.101522842639595
G2 X122.40609137055839 Y29.14213197969543 I-3.2588832487309642 J-4.822335025380711
G2 X122.81979695431473 Y28.76649746192893 I-3.713197969543147 J-4.50253807106599
G1 X123.61928934010152 Y28.12944162436548
G1 X124.50253807106598 Y27.535532994923855
G1 X131.14213197969542 Y27.49238578680203
G1 X131.11421319796955 Y29.604060913705585
G1 X131.11421319796955 Y32.088832487309645
G1 X131.11421319796955 Y34.57360406091371
G1 X131.11421319796955 Y37.058375634517766
G1 X131.11421319796955 Y39.54314720812183
G1 X131.11421319796955 Y42.027918781725894
G1 X131.11421319796955 Y44.51269035532995
G1 X77.78934010152284 Y44.51269035532995
G1 X24.467005076142133 Y44.51269035532995
G1 X24.467005076142133 Y42.027918781725894
G1 X24.467005076142133 Y39.54314720812183
G1 X24.467005076142133 Y37.058375634517766
G1 X24.467005076142133 Y34.57360406091371
G1 X24.467005076142133 Y32.088832487309645
G1 X24.467005076142133 Y29.604060913705585
G1 X24.428934010152282 Y27.49238578680203
G1 X17.65228426395939 Y27.5
G1 X16.769035532994923 Y28.096446700507617
G1 X15.969543147208123 Y28.73350253807107
G3 X15.555837563451778 Y29.106598984771573 I-4.126903553299492 J-4.126903553299492
G3 X15.109137055837563 Y29.441624365482234 I-3.7030456852791875 J-4.48984771573604
G3 X14.629441624365482 Y29.733502538071065 I-3.248730964467005 J-4.809644670050762
G3 X14.124365482233504 Y29.9746192893401 I-2.753807106598985 J-5.071065989847716
G3 X13.588832487309645 Y30.17258883248731 I-2.2436548223350252 J-5.302030456852792
G3 X13.035532994923857 Y30.314720812182742 I-1.7081218274111676 J-5.5
G3 X12.456852791878173 Y30.4010152284264 I-1.1573604060913705 J-5.65989847715736
G3 X11.868020304568528 Y30.431472081218274 I-0.5888324873096447 J-5.852791878172589
G3 X9.647208121827411 Y29.98984771573604 I0 J-5.799492385786802
G3 X7.7664974619289335 Y28.73350253807107 I2.220812182741117 J-5.3578680203045685
G3 X6.50761421319797 Y26.850253807106597 I4.101522842639594 J-4.101522842639594
G3 X6.068527918781726 Y24.631979695431472 I5.3578680203045685 J-2.220812182741117
G3 X6.50761421319797 Y22.411167512690355 I5.799492385786802 J0
G3 X7.7664974619289335 Y20.530456852791875 I5.3578680203045685 J2.220812182741117
G3 X9.647208121827411 Y19.274111675126903 I4.101522842639594 J4.101522842639594
G3 X11.868020304568528 Y18.83248730964467 I2.220812182741117 J5.3578680203045685
G3 X12.456852791878173 Y18.860406091370557 I0 J5.883248730964467
G3 X13.035532994923857 Y18.949238578680202 I-0.5786802030456852 J5.748730964467005
G3 X13.588832487309645 Y19.091370558375637 I-1.1548223350253808 J5.6421319796954315
G3 X14.124365482233504 Y19.286802030456855 I-1.7055837563451774 J5.49746192893401
G3 X14.631979695431472 Y19.527918781725887 I-2.6319796954314723 J6.220812182741117
G3 X14.99492385786802 Y19.743654822335024 I-1.7690355329949239 J3.368020304568528
G3 X15.32994923857868 Y19.99492385786802 I-2.380710659898477 J3.5228426395939088
G3 X15.83502538071066 Y20.441624365482234 I-7.058375634517766 J8.50507614213198
G1 X17.65228426395939 Y21.903553299492383
G1 X24.428934010152282 Y21.911167512690355
G1 X24.467005076142133 Y19.66497461928934
G1 X24.467005076142133 Y17.18020304568528
G1 X24.467005076142133 Y14.695431472081218
G1 X24.467005076142133 Y12.210659898477157
G1 X24.467005076142133 Y9.725888324873097
G1 X24.467005076142133 Y7.241116751269035
G1 X24.467005076142133 Y4.756345177664975
G1 X77.78934010152284 Y4.756345177664975
G1 X131.11421319796955 Y4.756345177664975
G1 X131.11421319796955 Y7.241116751269035
G1 X131.11421319796955 Y9.725888324873097
G1 X131.11421319796955 Y12.210659898477157
G1 X131.11421319796955 Y14.695431472081218
G1 X131.11421319796955 Y17.18020304568528
G1 X131.11421319796955 Y19.66497461928934
G1 X131.14213197969542 Y21.941624365482234
G1 X124.50253807106598 Y21.936548223350254
G1 X122.7741116751269 Y20.52030456852792
G2 X122.34517766497461 Y20.129441624365484 I-4.180203045685279 J4.152284263959391
G2 X121.92131979695432 Y19.817258883248734 I-3.0406091370558377 J3.682741116751269
G2 X121.50507614213198 Y19.571065989847718 I-2.6954314720812182 J4.1091370558375635
G2 X120.9746192893401 Y19.32233502538071 I-3.3248730964467006 J6.3604060913705585
G0 Z10
G0 X120.9751269035533 Y19.32208121827411
G1 Z-2 F800
G2 X120.43908629441624 Y19.126903553299492 I-2.2436548223350252 J5.302030456852792 F1500
G2 X119.88578680203047 Y18.98477157360406 I-1.7081218274111676 J5.5
G2 X119.30710659898477 Y18.895939086294415 I-1.1573604060913705 J5.65989847715736
G2 X118.71827411167513 Y18.865482233502537 I-0.5888324873096447 J5.852791878172589
G2 X116.49746192893402 Y19.30710659898477 I0 J5.799492385786802
G2 X114.61675126903555 Y20.565989847715738 I2.220812182741117 J5.3578680203045685
G2 X113.35786802030456 Y22.446700507614214 I4.101522842639594 J4.101522842639594
G2 X112.91878172588832 Y24.66751269035533 I5.3578680203045685 J2.220812182741117
G2 X113.35786802030456 Y26.885786802030456 I5.799492385786802 J0
G2 X114.61675126903555 Y28.76649746192893 I5.3578680203045685 J-2.220812182741117
G2 X116.49746192893402 Y30.0253807106599 I4.101522842639594 J-4.101522842639594
G2 X118.71827411167513 Y30.467005076142133 I2.220812182741117 J-5.3578680203045685
G2 X119.30710659898477 Y30.436548223350254 I0 J-5.883248730964467
G2 X119.88578680203047 Y30.34771573604061 I-0.5786802030456852 J-5.748730964467005
G2 X120.43908629441624 Y30.205583756345177 I-1.1548223350253808 J-5.6421319796954315
G2 X120.9746192893401 Y30.01015228426396 I-1.7055837563451774 J-5.49746192893401
G2 X121.4796954314721 Y29.766497461928935 I-2.248730964467005 J-5.314720812182742
G2 X121.95939086294416 Y29.474619289340104 I-2.769035532994924 J-5.101522842639595
G2 X122.40609137055839 Y29.14213197969543 I-3.2588832487309642 J-4.822335025380711
G2 X122.81979695431473 Y28.76649746192893 I-3.713197969543147 J-4.50253807106599
G1 X123.61928934010152 Y28.12944162436548
G1 X124.50253807106598 Y27.535532994923855
G1 X131.14213197969542 Y27.49238578680203
G1 X131.11421319796955 Y29.604060913705585
G1 X131.11421319796955 Y32.088832487309645
G1 X131.11421319796955 Y34.57360406091371
G1 X131.11421319796955 Y37.058375634517766
G1 X131.11421319796955 Y39.54314720812183
G1 X131.11421319796955 Y42.027918781725894
G1 X131.11421319796955 Y44.51269035532995
G1 X77.78934010152284 Y44.51269035532995
G1 X24.467005076142133 Y44.51269035532995
G1 X24.467005076142133 Y42.027918781725894
G1 X24.467005076142133 Y39.54314720812183
G1 X24.467005076142133 Y37.058375634517766
G1 X24.467005076142133 Y34.57360406091371
G1 X24.467005076142133 Y32.088832487309645
G1 X24.467005076142133 Y29.604060913705585
G1 X24.428934010152282 Y27.49238578680203
G1 X17.65228426395939 Y27.5
G1 X16.769035532994923 Y28.096446700507617
G1 X15.969543147208123 Y28.73350253807107
G3 X15.555837563451778 Y29.106598984771573 I-4.126903553299492 J-4.126903553299492
G3 X15.109137055837563 Y29.441624365482234 I-3.7030456852791875 J-4.48984771573604
G3 X14.629441624365482 Y29.733502538071065 I-3.248730964467005 J-4.809644670050762
G3 X14.124365482233504 Y29.9746192893401 I-2.753807106598985 J-5.071065989847716
G3 X13.588832487309645 Y30.17258883248731 I-2.2436548223350252 J-5.302030456852792
G3 X13.035532994923857 Y30.314720812182742 I-1.7081218274111676 J-5.5
G3 X12.456852791878173 Y30.4010152284264 I-1.1573604060913705 J-5.65989847715736
G3 X11.868020304568528 Y30.431472081218274 I-0.5888324873096447 J-5.852791878172589
G3 X9.647208121827411 Y29.98984771573604 I0 J-5.799492385786802
G3 X7.7664974619289335 Y28.73350253807107 I2.220812182741117 J-5.3578680203045685
G3 X6.50761421319797 Y26.850253807106597 I4.101522842639594 J-4.101522842639594
G3 X6.068527918781726 Y24.631979695431472 I5.3578680203045685 J-2.220812182741117
G3 X6.50761421319797 Y22.411167512690355 I5.799492385786802 J0
G3 X7.7664974619289335 Y20.530456852791875 I5.3578680203045685 J2.220812182741117
G3 X9.647208121827411 Y19.274111675126903 I4.101522842639594 J4.101522842639594
G3 X11.868020304568528 Y18.83248730964467 I2.220812182741117 J5.3578680203045685
G3 X12.456852791878173 Y18.860406091370557 I0 J5.883248730964467
G3 X13.035532994923857 Y18.949238578680202 I-0.5786802030456852 J5.748730964467005
G3 X13.588832487309645 Y19.091370558375637 I-1.1548223350253808 J5.6421319796954315
G3 X14.124365482233504 Y19.286802030456855 I-1.7055837563451774 J5.49746192893401
G3 X14.631979695431472 Y19.527918781725887 I-2.6319796954314723 J6.220812182741117
G3 X14.99492385786802 Y19.743654822335024 I-1.7690355329949239 J3.368020304568528
G3 X15.32994923857868 Y19.99492385786802 I-2.380710659898477 J3.5228426395939088
G3 X15.83502538071066 Y20.441624365482234 I-7.058375634517766 J8.50507614213198
G1 X17.65228426395939 Y21.903553299492383
G1 X24.428934010152282 Y21.911167512690355
G1 X24.467005076142133 Y19.66497461928934
G1 X24.467005076142133 Y17.18020304568528
G1 X24.467005076142133 Y14.695431472081218
G1 X24.467005076142133 Y12.210659898477157
G1 X24.467005076142133 Y9.725888324873097
G1 X24.467005076142133 Y7.241116751269035
G1 X24.467005076142133 Y4.756345177664975
G1 X77.78934010152284 Y4.756345177664975
G1 X131.11421319796955 Y4.756345177664975
G1 X131.11421319796955 Y7.241116751269035
G1 X131.11421319796955 Y9.725888324873097
G1 X131.11421319796955 Y12.210659898477157
G1 X131.11421319796955 Y14.695431472081218
G1 X131.11421319796955 Y17.18020304568528
G1 X131.11421319796955 Y19.66497461928934
G1 X131.14213197969542 Y21.941624365482234
G1 X124.50253807106598 Y21.936548223350254
G1 X122.7741116751269 Y20.52030456852792
G2 X122.34517766497461 Y20.129441624365484 I-4.180203045685279 J4.152284263959391
G2 X121.92131979695432 Y19.817258883248734 I-3.0406091370558377 J3.682741116751269
G2 X121.50507614213198 Y19.571065989847718 I-2.6954314720812182 J4.1091370558375635
G2 X120.9746192893401 Y19.32233502538071 I-3.3248730964467006 J6.3604060913705585
G0 Z10
G0 X120.9751269035533 Y19.32208121827411
G1 Z-3 F800
G2 X120.43908629441624 Y19.126903553299492 I-2.2436548223350252 J5.302030456852792 F1500
G2 X119.88578680203047 Y18.98477157360406 I-1.7081218274111676 J5.5
G2 X119.30710659898477 Y18.895939086294415 I-1.1573604060913705 J5.65989847715736
G2 X118.71827411167513 Y18.865482233502537 I-0.5888324873096447 J5.852791878172589
G2 X116.49746192893402 Y19.30710659898477 I0 J5.799492385786802
G2 X114.61675126903555 Y20.565989847715738 I2.220812182741117 J5.3578680203045685
G2 X113.35786802030456 Y22.446700507614214 I4.101522842639594 J4.101522842639594
G2 X112.91878172588832 Y24.66751269035533 I5.3578680203045685 J2.220812182741117
G2 X113.35786802030456 Y26.885786802030456 I5.799492385786802 J0
G2 X114.61675126903555 Y28.76649746192893 I5.3578680203045685 J-2.220812182741117
G2 X116.49746192893402 Y30.0253807106599 I4.101522842639594 J-4.101522842639594
G2 X118.71827411167513 Y30.467005076142133 I2.220812182741117 J-5.3578680203045685
G2 X119.30710659898477 Y30.436548223350254 I0 J-5.883248730964467
G2 X119.88578680203047 Y30.34771573604061 I-0.5786802030456852 J-5.748730964467005
G2 X120.43908629441624 Y30.205583756345177 I-1.1548223350253808 J-5.6421319796954315
G2 X120.9746192893401 Y30.01015228426396 I-1.7055837563451774 J-5.49746192893401
G2 X121.4796954314721 Y29.766497461928935 I-2.248730964467005 J-5.314720812182742
G2 X121.95939086294416 Y29.474619289340104 I-2.769035532994924 J-5.101522842639595
G2 X122.40609137055839 Y29.14213197969543 I-3.2588832487309642 J-4.822335025380711
G2 X122.81979695431473 Y28.76649746192893 I-3.713197969543147 J-4.50253807106599
G1 X123.61928934010152 Y28.12944162436548
G1 X124.50253807106598 Y27.535532994923855
G1 X131.14213197969542 Y27.49238578680203
G1 X131.11421319796955 Y29.604060913705585
G1 X131.11421319796955 Y32.088832487309645
G1 X131.11421319796955 Y34.57360406091371
G1 X131.11421319796955 Y37.058375634517766
G1 X131.11421319796955 Y39.54314720812183
G1 X131.11421319796955 Y42.027918781725894
G1 X131.11421319796955 Y44.51269035532995
G1 X77.78934010152284 Y44.51269035532995
G1 X24.467005076142133 Y44.51269035532995
G1 X24.467005076142133 Y42.027918781725894
G1 X24.467005076142133 Y39.54314720812183
G1 X24.467005076142133 Y37.058375634517766
G1 X24.467005076142133 Y34.57360406091371
G1 X24.467005076142133 Y32.088832487309645
G1 X24.467005076142133 Y29.604060913705585
G1 X24.428934010152282 Y27.49238578680203
G1 X17.65228426395939 Y27.5
G1 X16.769035532994923 Y28.096446700507617
G1 X15.969543147208123 Y28.73350253807107
G3 X15.555837563451778 Y29.106598984771573 I-4.126903553299492 J-4.126903553299492
G3 X15.109137055837563 Y29.441624365482234 I-3.7030456852791875 J-4.48984771573604
G3 X14.629441624365482 Y29.733502538071065 I-3.248730964467005 J-4.809644670050762
G3 X14.124365482233504 Y29.9746192893401 I-2.753807106598985 J-5.071065989847716
G3 X13.588832487309645 Y30.17258883248731 I-2.2436548223350252 J-5.302030456852792
G3 X13.035532994923857 Y30.314720812182742 I-1.7081218274111676 J-5.5
G3 X12.456852791878173 Y30.4010152284264 I-1.1573604060913705 J-5.65989847715736
G3 X11.868020304568528 Y30.431472081218274 I-0.5888324873096447 J-5.852791878172589
G3 X9.647208121827411 Y29.98984771573604 I0 J-5.799492385786802
G3 X7.7664974619289335 Y28.73350253807107 I2.220812182741117 J-5.3578680203045685
G3 X6.50761421319797 Y26.850253807106597 I4.101522842639594 J-4.101522842639594
G3 X6.068527918781726 Y24.631979695431472 I5.3578680203045685 J-2.220812182741117
G3 X6.50761421319797 Y22.411167512690355 I5.799492385786802 J0
G3 X7.7664974619289335 Y20.530456852791875 I5.3578680203045685 J2.220812182741117
G3 X9.647208121827411 Y19.274111675126903 I4.101522842639594 J4.101522842639594
G3 X11.868020304568528 Y18.83248730964467 I2.220812182741117 J5.3578680203045685
G3 X12.456852791878173 Y18.860406091370557 I0 J5.883248730964467
G3 X13.035532994923857 Y18.949238578680202 I-0.5786802030456852 J5.748730964467005
G3 X13.588832487309645 Y19.091370558375637 I-1.1548223350253808 J5.6421319796954315
G3 X14.124365482233504 Y19.286802030456855 I-1.7055837563451774 J5.49746192893401
G3 X14.631979695431472 Y19.527918781725887 I-2.6319796954314723 J6.220812182741117
G3 X14.99492385786802 Y19.743654822335024 I-1.7690355329949239 J3.368020304568528
G3 X15.32994923857868 Y19.99492385786802 I-2.380710659898477 J3.5228426395939088
G3 X15.83502538071066 Y20.441624365482234 I-7.058375634517766 J8.50507614213198
G1 X17.65228426395939 Y21.903553299492383
G1 X24.428934010152282 Y21.911167512690355
G1 X24.467005076142133 Y19.66497461928934
G1 X24.467005076142133 Y17.18020304568528
G1 X24.467005076142133 Y14.695431472081218
G1 X24.467005076142133 Y12.210659898477157
G1 X24.467005076142133 Y9.725888324873097
G1 X24.467005076142133 Y7.241116751269035
G1 X24.467005076142133 Y4.756345177664975
G1 X77.78934010152284 Y4.756345177664975
G1 X131.11421319796955 Y4.756345177664975
G1 X131.11421319796955 Y7.241116751269035
G1 X131.11421319796955 Y9.725888324873097
G1 X131.11421319796955 Y12.210659898477157
G1 X131.11421319796955 Y14.695431472081218
G1 X131.11421319796955 Y17.18020304568528
G1 X131.11421319796955 Y19.66497461928934
G1 X131.14213197969542 Y21.941624365482234
G1 X124.50253807106598 Y21.936548223350254
G1 X122.7741116751269 Y20.52030456852792
G2 X122.34517766497461 Y20.129441624365484 I-4.180203045685279 J4.152284263959391
G2 X121.92131979695432 Y19.817258883248734 I-3.0406091370558377 J3.682741116751269
G2 X121.50507614213198 Y19.571065989847718 I-2.6954314720812182 J4.1091370558375635
G2 X120.9746192893401 Y19.32233502538071 I-3.3248730964467006 J6.3604060913705585
G0 Z10
G0 X120.9751269035533 Y19.32208121827411
G1 Z-4 F800
G2 X120.43908629441624 Y19.126903553299492 I-2.2436548223350252 J5.302030456852792 F1500
G2 X119.88578680203047 Y18.98477157360406 I-1.7081218274111676 J5.5
G2 X119.30710659898477 Y18.895939086294415 I-1.1573604060913705 J5.65989847715736
G2 X118.71827411167513 Y18.865482233502537 I-0.5888324873096447 J5.852791878172589
G2 X116.49746192893402 Y19.30710659898477 I0 J5.799492385786802
G2 X114.61675126903555 Y20.565989847715738 I2.220812182741117 J5.3578680203045685
G2 X113.35786802030456 Y22.446700507614214 I4.101522842639594 J4.101522842639594
G2 X112.91878172588832 Y24.66751269035533 I5.3578680203045685 J2.220812182741117
G2 X113.35786802030456 Y26.885786802030456 I5.799492385786802 J0
G2 X114.61675126903555 Y28.76649746192893 I5.3578680203045685 J-2.220812182741117
G2 X116.49746192893402 Y30.0253807106599 I4.101522842639594 J-4.101522842639594
G2 X118.71827411167513 Y30.467005076142133 I2.220812182741117 J-5.3578680203045685
G2 X119.30710659898477 Y30.436548223350254 I0 J-5.883248730964467
G2 X119.88578680203047 Y30.34771573604061 I-0.5786802030456852 J-5.748730964467005
G2 X120.43908629441624 Y30.205583756345177 I-1.1548223350253808 J-5.6421319796954315
G2 X120.9746192893401 Y30.01015228426396 I-1.7055837563451774 J-5.49746192893401
G2 X121.4796954314721 Y29.766497461928935 I-2.248730964467005 J-5.314720812182742
G2 X121.95939086294416 Y29.474619289340104 I-2.769035532994924 J-5.101522842639595
G2 X122.40609137055839 Y29.14213197969543 I-3.2588832487309642 J-4.822335025380711
G2 X122.81979695431473 Y28.76649746192893 I-3.713197969543147 J-4.50253807106599
G1 X123.61928934010152 Y28.12944162436548
G1 X124.50253807106598 Y27.535532994923855
G1 X131.14213197969542 Y27.49238578680203
G1 X131.11421319796955 Y29.604060913705585
G1 X131.11421319796955 Y32.088832487309645
G1 X131.11421319796955 Y34.57360406091371
G1 X131.11421319796955 Y37.058375634517766
G1 X131.11421319796955 Y39.54314720812183
G1 X131.11421319796955 Y42.027918781725894
G1 X131.11421319796955 Y44.51269035532995
G1 X77.78934010152284 Y44.51269035532995
G1 X24.467005076142133 Y44.51269035532995
G1 X24.467005076142133 Y42.027918781725894
G1 X24.467005076142133 Y39.54314720812183
G1 X24.467005076142133 Y37.058375634517766
G1 X24.467005076142133 Y34.57360406091371
G1 X24.467005076142133 Y32.088832487309645
G1 X24.467005076142133 Y29.604060913705585
G1 X24.428934010152282 Y27.49238578680203
G1 X17.65228426395939 Y27.5
G1 X16.769035532994923 Y28.096446700507617
G1 X15.969543147208123 Y28.73350253807107
G3 X15.555837563451778 Y29.106598984771573 I-4.126903553299492 J-4.126903553299492
G3 X15.109137055837563 Y29.441624365482234 I-3.7030456852791875 J-4.48984771573604
G3 X14.629441624365482 Y29.733502538071065 I-3.248730964467005 J-4.809644670050762
G3 X14.124365482233504 Y29.9746192893401 I-2.753807106598985 J-5.071065989847716
G3 X13.588832487309645 Y30.17258883248731 I-2.2436548223350252 J-5.302030456852792
G3 X13.035532994923857 Y30.314720812182742 I-1.7081218274111676 J-5.5
G3 X12.456852791878173 Y30.4010152284264 I-1.1573604060913705 J-5.65989847715736
G3 X11.868020304568528 Y30.431472081218274 I-0.5888324873096447 J-5.852791878172589
G3 X9.647208121827411 Y29.98984771573604 I0 J-5.799492385786802
G3 X7.7664974619289335 Y28.73350253807107 I2.220812182741117 J-5.3578680203045685
G3 X6.50761421319797 Y26.850253807106597 I4.101522842639594 J-4.101522842639594
G3 X6.068527918781726 Y24.631979695431472 I5.3578680203045685 J-2.220812182741117
G3 X6.50761421319797 Y22.411167512690355 I5.799492385786802 J0
G3 X7.7664974619289335 Y20.530456852791875 I5.3578680203045685 J2.220812182741117
G3 X9.647208121827411 Y19.274111675126903 I4.101522842639594 J4.101522842639594
G3 X11.868020304568528 Y18.83248730964467 I2.220812182741117 J5.3578680203045685
G3 X12.456852791878173 Y18.860406091370557 I0 J5.883248730964467
G3 X13.035532994923857 Y18.949238578680202 I-0.5786802030456852 J5.748730964467005
G3 X13.588832487309645 Y19.091370558375637 I-1.1548223350253808 J5.6421319796954315
G3 X14.124365482233504 Y19.286802030456855 I-1.7055837563451774 J5.49746192893401
G3 X14.631979695431472 Y19.527918781725887 I-2.6319796954314723 J6.220812182741117
G3 X14.99492385786802 Y19.743654822335024 I-1.7690355329949239 J3.368020304568528
G3 X15.32994923857868 Y19.99492385786802 I-2.380710659898477 J3.5228426395939088
G3 X15.83502538071066 Y20.441624365482234 I-7.058375634517766 J8.50507614213198
G1 X17.65228426395939 Y21.903553299492383
G1 X24.428934010152282 Y21.911167512690355
G1 X24.467005076142133 Y19.66497461928934
G1 X24.467005076142133 Y17.18020304568528
G1 X24.467005076142133 Y14.695431472081218
G1 X24.467005076142133 Y12.210659898477157
G1 X24.467005076142133 Y9.725888324873097
G1 X24.467005076142133 Y7.241116751269035
G1 X24.467005076142133 Y4.756345177664975
G1 X77.78934010152284 Y4.756345177664975
G1 X131.11421319796955 Y4.756345177664975
G1 X131.11421319796955 Y7.241116751269035
G1 X131.11421319796955 Y9.725888324873097
G1 X131.11421319796955 Y12.210659898477157
G1 X131.11421319796955 Y14.695431472081218
G1 X131.11421319796955 Y17.18020304568528
G1 X131.11421319796955 Y19.66497461928934
G1 X131.14213197969542 Y21.941624365482234
G1 X124.50253807106598 Y21.936548223350254
G1 X122.7741116751269 Y20.52030456852792
G2 X122.34517766497461 Y20.129441624365484 I-4.180203045685279 J4.152284263959391
G2 X121.92131979695432 Y19.817258883248734 I-3.0406091370558377 J3.682741116751269
G2 X121.50507614213198 Y19.571065989847718 I-2.6954314720812182 J4.1091370558375635
G2 X120.9746192893401 Y19.32233502538071 I-3.3248730964467006 J6.3604060913705585
G0 Z10
G0 X120.9751269035533 Y19.32208121827411
G1 Z-5 F800
G2 X120.43908629441624 Y19.126903553299492 I-2.2436548223350252 J5.302030456852792 F1500
G2 X119.88578680203047 Y18.98477157360406 I-1.7081218274111676 J5.5
G2 X119.30710659898477 Y18.895939086294415 I-1.1573604060913705 J5.65989847715736
G2 X118.71827411167513 Y18.865482233502537 I-0.5888324873096447 J5.852791878172589
G2 X116.49746192893402 Y19.30710659898477 I0 J5.799492385786802
G2 X114.61675126903555 Y20.565989847715738 I2.220812182741117 J5.3578680203045685
G2 X113.35786802030456 Y22.446700507614214 I4.101522842639594 J4.101522842639594
G2 X112.91878172588832 Y24.66751269035533 I5.3578680203045685 J2.220812182741117
G2 X113.35786802030456 Y26.885786802030456 I5.799492385786802 J0
G2 X114.61675126903555 Y28.76649746192893 I5.3578680203045685 J-2.220812182741117
G2 X116.49746192893402 Y30.0253807106599 I4.101522842639594 J-4.101522842639594
G2 X118.71827411167513 Y30.467005076142133 I2.220812182741117 J-5.3578680203045685
G2 X119.30710659898477 Y30.436548223350254 I0 J-5.883248730964467
G2 X119.88578680203047 Y30.34771573604061 I-0.5786802030456852 J-5.748730964467005
G2 X120.43908629441624 Y30.205583756345177 I-1.1548223350253808 J-5.6421319796954315
G2 X120.9746192893401 Y30.01015228426396 I-1.7055837563451774 J-5.49746192893401
G2 X121.4796954314721 Y29.766497461928935 I-2.248730964467005 J-5.314720812182742
G2 X121.95939086294416 Y29.474619289340104 I-2.769035532994924 J-5.101522842639595
G2 X122.40609137055839 Y29.14213197969543 I-3.2588832487309642 J-4.822335025380711
G2 X122.81979695431473 Y28.76649746192893 I-3.713197969543147 J-4.50253807106599
G1 X123.61928934010152 Y28.12944162436548
G1 X124.50253807106598 Y27.535532994923855
G1 X131.14213197969542 Y27.49238578680203
G1 X131.11421319796955 Y29.604060913705585
G1 X131.11421319796955 Y32.088832487309645
G1 X131.11421319796955 Y34.57360406091371
G1 X131.11421319796955 Y37.058375634517766
G1 X131.11421319796955 Y39.54314720812183
G1 X131.11421319796955 Y42.027918781725894
G1 X131.11421319796955 Y44.51269035532995
G1 X77.78934010152284 Y44.51269035532995
G1 X24.467005076142133 Y44.51269035532995
G1 X24.467005076142133 Y42.027918781725894
G1 X24.467005076142133 Y39.54314720812183
G1 X24.467005076142133 Y37.058375634517766
G1 X24.467005076142133 Y34.57360406091371
G1 X24.467005076142133 Y32.088832487309645
G1 X24.467005076142133 Y29.604060913705585
G1 X24.428934010152282 Y27.49238578680203
G1 X17.65228426395939 Y27.5
G1 X16.769035532994923 Y28.096446700507617
G1 X15.969543147208123 Y28.73350253807107
G3 X15.555837563451778 Y29.106598984771573 I-4.126903553299492 J-4.126903553299492
G3 X15.109137055837563 Y29.441624365482234 I-3.7030456852791875 J-4.48984771573604
G3 X14.629441624365482 Y29.733502538071065 I-3.248730964467005 J-4.809644670050762
G3 X14.124365482233504 Y29.9746192893401 I-2.753807106598985 J-5.071065989847716
G3 X13.588832487309645 Y30.17258883248731 I-2.2436548223350252 J-5.302030456852792
G3 X13.035532994923857 Y30.314720812182742 I-1.7081218274111676 J-5.5
G3 X12.456852791878173 Y30.4010152284264 I-1.1573604060913705 J-5.65989847715736
G3 X11.868020304568528 Y30.431472081218274 I-0.5888324873096447 J-5.852791878172589
G3 X9.647208121827411 Y29.98984771573604 I0 J-5.799492385786802
G3 X7.7664974619289335 Y28.73350253807107 I2.220812182741117 J-5.3578680203045685
G3 X6.50761421319797 Y26.850253807106597 I4.101522842639594 J-4.101522842639594
G3 X6.068527918781726 Y24.631979695431472 I5.3578680203045685 J-2.220812182741117
G3 X6.50761421319797 Y22.411167512690355 I5.799492385786802 J0
G3 X7.7664974619289335 Y20.530456852791875 I5.3578680203045685 J2.220812182741117
G3 X9.647208121827411 Y19.274111675126903 I4.101522842639594 J4.101522842639594
G3 X11.868020304568528 Y18.83248730964467 I2.220812182741117 J5.3578680203045685
G3 X12.456852791878173 Y18.860406091370557 I0 J5.883248730964467
G3 X13.035532994923857 Y18.949238578680202 I-0.5786802030456852 J5.748730964467005
G3 X13.588832487309645 Y19.091370558375637 I-1.1548223350253808 J5.6421319796954315
G3 X14.124365482233504 Y19.286802030456855 I-1.7055837563451774 J5.49746192893401
G3 X14.631979695431472 Y19.527918781725887 I-2.6319796954314723 J6.220812182741117
G3 X14.99492385786802 Y19.743654822335024 I-1.7690355329949239 J3.368020304568528
G3 X15.32994923857868 Y19.99492385786802 I-2.380710659898477 J3.5228426395939088
G3 X15.83502538071066 Y20.441624365482234 I-7.058375634517766 J8.50507614213198
G1 X17.65228426395939 Y21.903553299492383
G1 X24.428934010152282 Y21.911167512690355
G1 X24.467005076142133 Y19.66497461928934
G1 X24.467005076142133 Y17.18020304568528
G1 X24.467005076142133 Y14.695431472081218
G1 X24.467005076142133 Y12.210659898477157
G1 X24.467005076142133 Y9.725888324873097
G1 X24.467005076142133 Y7.241116751269035
G1 X24.467005076142133 Y4.756345177664975
G1 X77.78934010152284 Y4.756345177664975
G1 X131.11421319796955 Y4.756345177664975
G1 X131.11421319796955 Y7.241116751269035
G1 X131.11421319796955 Y9.725888324873097
G1 X131.11421319796955 Y12.210659898477157
G1 X131.11421319796955 Y14.695431472081218
G1 X131.11421319796955 Y17.18020304568528
G1 X131.11421319796955 Y19.66497461928934
G1 X131.14213197969542 Y21.941624365482234
G1 X124.50253807106598 Y21.936548223350254
G1 X122.7741116751269 Y20.52030456852792
G2 X122.34517766497461 Y20.129441624365484 I-4.180203045685279 J4.152284263959391
G2 X121.92131979695432 Y19.817258883248734 I-3.0406091370558377 J3.682741116751269
G2 X121.50507614213198 Y19.571065989847718 I-2.6954314720812182 J4.1091370558375635
G2 X120.9746192893401 Y19.32233502538071 I-3.3248730964467006 J6.3604060913705585
G0 Z10
G0 X120.9751269035533 Y19.32208121827411
G1 Z-5.2 F800
G2 X120.43908629441624 Y19.126903553299492 I-2.2436548223350252 J5.302030456852792 F1500
G2 X119.88578680203047 Y18.98477157360406 I-1.7081218274111676 J5.5
G2 X119.30710659898477 Y18.895939086294415 I-1.1573604060913705 J5.65989847715736
G2 X118.71827411167513 Y18.865482233502537 I-0.5888324873096447 J5.852791878172589
G2 X116.49746192893402 Y19.30710659898477 I0 J5.799492385786802
G2 X114.61675126903555 Y20.565989847715738 I2.220812182741117 J5.3578680203045685
G2 X113.35786802030456 Y22.446700507614214 I4.101522842639594 J4.101522842639594
G2 X112.91878172588832 Y24.66751269035533 I5.3578680203045685 J2.220812182741117
G2 X113.35786802030456 Y26.885786802030456 I5.799492385786802 J0
G2 X114.61675126903555 Y28.76649746192893 I5.3578680203045685 J-2.220812182741117
G2 X116.49746192893402 Y30.0253807106599 I4.101522842639594 J-4.101522842639594
G2 X118.71827411167513 Y30.467005076142133 I2.220812182741117 J-5.3578680203045685
G2 X119.30710659898477 Y30.436548223350254 I0 J-5.883248730964467
G2 X119.88578680203047 Y30.34771573604061 I-0.5786802030456852 J-5.748730964467005
G2 X120.43908629441624 Y30.205583756345177 I-1.1548223350253808 J-5.6421319796954315
G2 X120.9746192893401 Y30.01015228426396 I-1.7055837563451774 J-5.49746192893401
G2 X121.4796954314721 Y29.766497461928935 I-2.248730964467005 J-5.314720812182742
G2 X121.95939086294416 Y29.474619289340104 I-2.769035532994924 J-5.101522842639595
G2 X122.40609137055839 Y29.14213197969543 I-3.2588832487309642 J-4.822335025380711
G2 X122.81979695431473 Y28.76649746192893 I-3.713197969543147 J-4.50253807106599
G1 X123.61928934010152 Y28.12944162436548
G1 X124.50253807106598 Y27.535532994923855
G1 X131.14213197969542 Y27.49238578680203
G1 X131.11421319796955 Y29.604060913705585
G1 X131.11421319796955 Y32.088832487309645
G1 X131.11421319796955 Y34.57360406091371
G1 X131.11421319796955 Y37.058375634517766
G1 X131.11421319796955 Y39.54314720812183
G1 X131.11421319796955 Y42.027918781725894
G1 X131.11421319796955 Y44.51269035532995
G1 X77.78934010152284 Y44.51269035532995
G1 X24.467005076142133 Y44.51269035532995
G1 X24.467005076142133 Y42.027918781725894
G1 X24.467005076142133 Y39.54314720812183
G1 X24.467005076142133 Y37.058375634517766
G1 X24.467005076142133 Y34.57360406091371
G1 X24.467005076142133 Y32.088832487309645
G1 X24.467005076142133 Y29.604060913705585
G1 X24.428934010152282 Y27.49238578680203
G1 X17.65228426395939 Y27.5
G1 X16.769035532994923 Y28.096446700507617
G1 X15.969543147208123 Y28.73350253807107
G3 X15.555837563451778 Y29.106598984771573 I-4.126903553299492 J-4.126903553299492
G3 X15.109137055837563 Y29.441624365482234 I-3.7030456852791875 J-4.48984771573604
G3 X14.629441624365482 Y29.733502538071065 I-3.248730964467005 J-4.809644670050762
G3 X14.124365482233504 Y29.9746192893401 I-2.753807106598985 J-5.071065989847716
G3 X13.588832487309645 Y30.17258883248731 I-2.2436548223350252 J-5.302030456852792
G3 X13.035532994923857 Y30.314720812182742 I-1.7081218274111676 J-5.5
G3 X12.456852791878173 Y30.4010152284264 I-1.1573604060913705 J-5.65989847715736
G3 X11.868020304568528 Y30.431472081218274 I-0.5888324873096447 J-5.852791878172589
G3 X9.647208121827411 Y29.98984771573604 I0 J-5.799492385786802
G3 X7.7664974619289335 Y28.73350253807107 I2.220812182741117 J-5.3578680203045685
G3 X6.50761421319797 Y26.850253807106597 I4.101522842639594 J-4.101522842639594
G3 X6.068527918781726 Y24.631979695431472 I5.3578680203045685 J-2.220812182741117
G3 X6.50761421319797 Y22.411167512690355 I5.799492385786802 J0
G3 X7.7664974619289335 Y20.530456852791875 I5.3578680203045685 J2.220812182741117
G3 X9.647208121827411 Y19.274111675126903 I4.101522842639594 J4.101522842639594
G3 X11.868020304568528 Y18.83248730964467 I2.220812182741117 J5.3578680203045685
G3 X12.456852791878173 Y18.860406091370557 I0 J5.883248730964467
G3 X13.035532994923857 Y18.949238578680202 I-0.5786802030456852 J5.748730964467005
G3 X13.588832487309645 Y19.091370558375637 I-1.1548223350253808 J5.6421319796954315
G3 X14.124365482233504 Y19.286802030456855 I-1.7055837563451774 J5.49746192893401
G3 X14.631979695431472 Y19.527918781725887 I-2.6319796954314723 J6.220812182741117
G3 X14.99492385786802 Y19.743654822335024 I-1.7690355329949239 J3.368020304568528
G3 X15.32994923857868 Y19.99492385786802 I-2.380710659898477 J3.5228426395939088
G3 X15.83502538071066 Y20.441624365482234 I-7.058375634517766 J8.50507614213198
G1 X17.65228426395939 Y21.903553299492383
G1 X24.428934010152282 Y21.911167512690355
G1 X24.467005076142133 Y19.66497461928934
G1 X24.467005076142133 Y17.18020304568528
G1 X24.467005076142133 Y14.695431472081218
G1 X24.467005076142133 Y12.210659898477157
G1 X24.467005076142133 Y9.725888324873097
G1 X24.467005076142133 Y7.241116751269035
G1 X24.467005076142133 Y4.756345177664975
G1 X77.78934010152284 Y4.756345177664975
G1 X131.11421319796955 Y4.756345177664975
G1 X131.11421319796955 Y7.241116751269035
G1 X131.11421319796955 Y9.725888324873097
G1 X131.11421319796955 Y12.210659898477157
G1 X131.11421319796955 Y14.695431472081218
G1 X131.11421319796955 Y17.18020304568528
G1 X131.11421319796955 Y19.66497461928934
G1 X131.14213197969542 Y21.941624365482234
G1 X124.50253807106598 Y21.936548223350254
G1 X122.7741116751269 Y20.52030456852792
G2 X122.34517766497461 Y20.129441624365484 I-4.180203045685279 J4.152284263959391
G2 X121.92131979695432 Y19.817258883248734 I-3.0406091370558377 J3.682741116751269
G2 X121.50507614213198 Y19.571065989847718 I-2.6954314720812182 J4.1091370558375635
G2 X120.9746192893401 Y19.32233502538071 I-3.3248730964467006 J6.3604060913705585

(RBot track)
G0 Z10
G0 X256.35939086294417 Y13.327157360406092
G1 Z-1 F800
G1 X152.66243654822335 Y13.32741116751269 F1500
G1 X152.66243654822335 Y10.928934010152284
G1 X256.3604060913706 Y10.928934010152284
G1 X256.3604060913706 Y13.32741116751269
G0 Z10
G0 X256.35939086294417 Y13.327157360406092
G1 Z-2 F800
G1 X152.66243654822335 Y13.32741116751269 F1500
G1 X152.66243654822335 Y10.928934010152284
G1 X256.3604060913706 Y10.928934010152284
G1 X256.3604060913706 Y13.32741116751269
G0 Z10
G0 X256.35939086294417 Y13.327157360406092
G1 Z-3 F800
G1 X152.66243654822335 Y13.32741116751269 F1500
G1 X152.66243654822335 Y10.928934010152284
G1 X256.3604060913706 Y10.928934010152284
G1 X256.3604060913706 Y13.32741116751269
G0 Z10
G0 X256.35939086294417 Y13.327157360406092
G1 Z-3.2 F800
G1 X152.66243654822335 Y13.32741116751269 F1500
G1 X152.66243654822335 Y10.928934010152284
G1 X256.3604060913706 Y10.928934010152284
G1 X256.3604060913706 Y13.32741116751269

(RTop track)
G0 Z10
G0 X256.36497461928934 Y37.70812182741117
G1 Z-1 F800
G1 X152.66751269035532 Y37.70812182741117 F1500
G1 X152.66751269035532 Y35.31218274111675
G1 X256.3654822335025 Y35.31218274111675
G1 X256.3654822335025 Y37.70812182741117
G0 Z10
G0 X256.36497461928934 Y37.70812182741117
G1 Z-2 F800
G1 X152.66751269035532 Y37.70812182741117 F1500
G1 X152.66751269035532 Y35.31218274111675
G1 X256.3654822335025 Y35.31218274111675
G1 X256.3654822335025 Y37.70812182741117
G0 Z10
G0 X256.36497461928934 Y37.70812182741117
G1 Z-3 F800
G1 X152.66751269035532 Y37.70812182741117 F1500
G1 X152.66751269035532 Y35.31218274111675
G1 X256.3654822335025 Y35.31218274111675
G1 X256.3654822335025 Y37.70812182741117
G0 Z10
G0 X256.36497461928934 Y37.70812182741117
G1 Z-3.2 F800
G1 X152.66751269035532 Y37.70812182741117 F1500
G1 X152.66751269035532 Y35.31218274111675
G1 X256.3654822335025 Y35.31218274111675
G1 X256.3654822335025 Y37.70812182741117

(right outline)
G0 Z10
G0 X247.6253807106599 Y19.088832487309645
G1 Z-1 F800
G2 X247.08883248730962 Y18.893401015228427 I-2.2436548223350252 J5.302030456852792 F1500
G2 X246.53553299492387 Y18.751269035532996 I-1.7081218274111676 J5.5
G2 X245.95685279187816 Y18.66243654822335 I-1.1573604060913705 J5.65989847715736
G2 X245.36802030456852 Y18.631979695431472 I-0.5888324873096447 J5.852791878172589
G2 X243.14720812182742 Y19.073604060913706 I0 J5.799492385786802
G2 X241.26649746192894 Y20.33248730964467 I2.220812182741117 J5.3578680203045685
G2 X240.01015228426397 Y22.21319796954315 I4.101522842639594 J4.101522842639594
G2 X239.56852791878174 Y24.434010152284262 I5.3578680203045685 J2.220812182741117
G2 X240.01015228426397 Y26.652284263959388 I5.799492385786802 J0
G2 X241.26649746192894 Y28.53553299492386 I5.3578680203045685 J-2.220812182741117
G2 X243.14720812182742 Y29.79187817258883 I4.101522842639594 J-4.101522842639594
G2 X245.36802030456852 Y30.233502538071065 I2.220812182741117 J-5.3578680203045685
G2 X245.95685279187816 Y30.20304568527919 I0 J-5.883248730964467
G2 X246.53553299492387 Y30.11421319796954 I-0.5786802030456852 J-5.748730964467005
G2 X247.08883248730962 Y29.972081218274113 I-1.1548223350253808 J-5.6421319796954315
G2 X247.6243654822335 Y29.77664974619289 I-1.7055837563451774 J-5.49746192893401
G2 X248.12944162436548 Y29.532994923857867 I-2.248730964467005 J-5.314720812182742
G2 X248.61167512690355 Y29.243654822335024 I-2.769035532994924 J-5.101522842639595
G2 X249.05583756345177 Y28.908629441624363 I-3.2588832487309642 J-4.822335025380711
G2 X249.46954314720813 Y28.53553299492386 I-3.713197969543147 J-4.50253807106599
G1 X250.26903553299493 Y27.898477157360407
G1 X251.15228426395936 Y27.30203045685279
G1 X257.79187817258884 Y27.261421319796955
G1 X257.76395939086296 Y29.37055837563452
G1 X257.76395939086296 Y31.855329949238577
G1 X257.76395939086296 Y34.340101522842644
G1 X257.76395939086296 Y36.8248730964467
G1 X257.76395939086296 Y39.309644670050766
G1 X257.76395939086296 Y41.79441624365482
G1 X257.76395939086296 Y44.27918781725889
G1 X204.43908629441623 Y44.27918781725889
G1 X151.11675126903552 Y44.27918781725889
G1 X151.11675126903552 Y41.79441624365482
G1 X151.11675126903552 Y39.309644670050766
G1 X151.11675126903552 Y36.8248730964467
G1 X151.11675126903552 Y34.340101522842644
G1 X151.11675126903552 Y31.855329949238577
G1 X151.11675126903552 Y29.37055837563452
G1 X151.07868020304568 Y27.261421319796955
G1 X144.30203045685278 Y27.266497461928935
G1 X143.41878172588832 Y27.86294416243655
G1 X142.61928934010152 Y28.5
G3 X142.20558375634516 Y28.875634517766496 I-4.126903553299492 J-4.126903553299492
G3 X141.76142131979697 Y29.208121827411166 I-3.7030456852791875 J-4.48984771573604
G3 X141.2791878172589 Y29.5 I-3.248730964467005 J-4.809644670050762
G3 X140.7741116751269 Y29.743654822335024 I-2.753807106598985 J-5.071065989847716
G3 X140.23857868020303 Y29.939086294416242 I-2.2436548223350252 J-5.302030456852792
G3 X139.68527918781726 Y30.081218274111677 I-1.7081218274111676 J-5.5
G3 X139.10659898477155 Y30.16751269035533 I-1.1573604060913705 J-5.65989847715736
G3 X138.51776649746193 Y30.19796954314721 I-0.5888324873096447 J-5.852791878172589
G3 X136.2969543147208 Y29.756345177664976 I0 J-5.799492385786802
G3 X134.41624365482232 Y28.5 I2.220812182741117 J-5.3578680203045685
G3 X133.15989847715736 Y26.616751269035532 I4.101522842639594 J-4.101522842639594
G3 X132.71827411167513 Y24.398477157360404 I5.3578680203045685 J-2.220812182741117
G3 X133.15989847715736 Y22.17766497461929 I5.799492385786802 J0
G3 X134.41624365482232 Y20.296954314720814 I5.3578680203045685 J2.220812182741117
G3 X136.2969543147208 Y19.04060913705584 I4.101522842639594 J4.101522842639594
G3 X138.51776649746193 Y18.598984771573605 I2.220812182741117 J5.3578680203045685
G3 X139.10659898477155 Y18.626903553299492 I0 J5.883248730964467
G3 X139.68527918781726 Y18.715736040609137 I-0.5786802030456852 J5.748730964467005
G3 X140.23857868020303 Y18.85786802030457 I-1.1548223350253808 J5.6421319796954315
G3 X140.7741116751269 Y19.053299492385786 I-1.7055837563451774 J5.49746192893401
G3 X141.28172588832487 Y19.294416243654823 I-2.6319796954314723 J6.220812182741117
G3 X141.64467005076142 Y19.51015228426396 I-1.7690355329949239 J3.368020304568528
G3 X141.97969543147207 Y19.761421319796955 I-2.380710659898477 J3.5228426395939088
G3 X142.48477157360406 Y20.20812182741117 I-7.058375634517766 J8.50507614213198
G1 X144.30203045685278 Y21.67005076142132
G1 X151.07868020304568 Y21.67766497461929
G1 X151.11675126903552 Y19.431472081218274
G1 X151.11675126903552 Y16.946700507614214
G1 X151.11675126903552 Y14.461928934010153
G1 X151.11675126903552 Y11.977157360406093
G1 X151.11675126903552 Y9.49238578680203
G1 X151.11675126903552 Y7.01015228426396
G1 X151.11675126903552 Y4.525380710659899
G1 X204.43908629441623 Y4.525380710659899
G1 X257.76395939086296 Y4.525380710659899
G1 X257.76395939086296 Y7.01015228426396
G1 X257.76395939086296 Y9.49238578680203
G1 X257.76395939086296 Y11.977157360406093
G1 X257.76395939086296 Y14.461928934010153
G1 X257.76395939086296 Y16.946700507614214
G1 X257.76395939086296 Y19.431472081218274
G1 X257.79187817258884 Y21.708121827411166
G1 X251.15228426395936 Y21.703045685279186
G1 X249.42385786802032 Y20.28680203045685
G2 X248.99492385786803 Y19.895939086294415 I-4.180203045685279 J4.152284263959391
G2 X248.5736040609137 Y19.583756345177665 I-3.0406091370558377 J3.682741116751269
G2 X248.1548223350254 Y19.33756345177665 I-2.6954314720812182 J4.1091370558375635
G2 X247.6243654822335 Y19.088832487309645 I-3.3248730964467006 J6.3604060913705585
G0 Z10
G0 X247.6253807106599 Y19.088832487309645
G1 Z-2 F800
G2 X247.08883248730962 Y18.893401015228427 I-2.2436548223350252 J5.302030456852792 F1500
G2 X246.53553299492387 Y18.751269035532996 I-1.7081218274111676 J5.5
G2 X245.95685279187816 Y18.66243654822335 I-1.1573604060913705 J5.65989847715736
G2 X245.36802030456852 Y18.631979695431472 I-0.5888324873096447 J5.852791878172589
G2 X243.14720812182742 Y19.073604060913706 I0 J5.799492385786802
G2 X241.26649746192894 Y20.33248730964467 I2.220812182741117 J5.3578680203045685
G2 X240.01015228426397 Y22.21319796954315 I4.101522842639594 J4.101522842639594
G2 X239.56852791878174 Y24.434010152284262 I5.3578680203045685 J2.220812182741117
G2 X240.01015228426397 Y26.652284263959388 I5.799492385786802 J0
G2 X241.26649746192894 Y28.53553299492386 I5.3578680203045685 J-2.220812182741117
G2 X243.14720812182742 Y29.79187817258883 I4.101522842639594 J-4.101522842639594
G2 X245.36802030456852 Y30.233502538071065 I2.220812182741117 J-5.3578680203045685
G2 X245.95685279187816 Y30.20304568527919 I0 J-5.883248730964467
G2 X246.53553299492387 Y30.11421319796954 I-0.5786802030456852 J-5.748730964467005
G2 X247.08883248730962 Y29.972081218274113 I-1.1548223350253808 J-5.6421319796954315
G2 X247.6243654822335 Y29.77664974619289 I-1.7055837563451774 J-5.49746192893401
G2 X248.12944162436548 Y29.532994923857867 I-2.248730964467005 J-5.314720812182742
G2 X248.61167512690355 Y29.243654822335024 I-2.769035532994924 J-5.101522842639595
G2 X249.05583756345177 Y28.908629441624363 I-3.2588832487309642 J-4.822335025380711
G2 X249.46954314720813 Y28.53553299492386 I-3.713197969543147 J-4.50253807106599
G1 X250.26903553299493 Y27.898477157360407
G1 X251.15228426395936 Y27.30203045685279
G1 X257.79187817258884 Y27.261421319796955
G1 X257.76395939086296 Y29.37055837563452
G1 X257.76395939086296 Y31.855329949238577
G1 X257.76395939086296 Y34.340101522842644
G1 X257.76395939086296 Y36.8248730964467
G1 X257.76395939086296 Y39.309644670050766
G1 X257.76395939086296 Y41.79441624365482
G1 X257.76395939086296 Y44.27918781725889
G1 X204.43908629441623 Y44.27918781725889
G1 X151.11675126903552 Y44.27918781725889
G1 X151.11675126903552 Y41.79441624365482
G1 X151.11675126903552 Y39.309644670050766
G1 X151.11675126903552 Y36.8248730964467
G1 X151.11675126903552 Y34.340101522842644
G1 X151.11675126903552 Y31.855329949238577
G1 X151.11675126903552 Y29.37055837563452
G1 X151.07868020304568 Y27.261421319796955
G1 X144.30203045685278 Y27.266497461928935
G1 X143.41878172588832 Y27.86294416243655
G1 X142.61928934010152 Y28.5
G3 X142.20558375634516 Y28.875634517766496 I-4.126903553299492 J-4.126903553299492
G3 X141.76142131979697 Y29.208121827411166 I-3.7030456852791875 J-4.48984771573604
G3 X141.2791878172589 Y29.5 I-3.248730964467005 J-4.809644670050762
G3 X140.7741116751269 Y29.743654822335024 I-2.753807106598985 J-5.071065989847716
G3 X140.23857868020303 Y29.939086294416242 I-2.2436548223350252 J-5.302030456852792
G3 X139.68527918781726 Y30.081218274111677 I-1.7081218274111676 J-5.5
G3 X139.10659898477155 Y30.16751269035533 I-1.1573604060913705 J-5.65989847715736
G3 X138.51776649746193 Y30.19796954314721 I-0.5888324873096447 J-5.852791878172589
G3 X136.2969543147208 Y29.756345177664976 I0 J-5.799492385786802
G3 X134.41624365482232 Y28.5 I2.220812182741117 J-5.3578680203045685
G3 X133.15989847715736 Y26.616751269035532 I4.101522842639594 J-4.101522842639594
G3 X132.71827411167513 Y24.398477157360404 I5.3578680203045685 J-2.220812182741117
G3 X133.15989847715736 Y22.17766497461929 I5.799492385786802 J0
G3 X134.41624365482232 Y20.296954314720814 I5.3578680203045685 J2.220812182741117
G3 X136.2969543147208 Y19.04060913705584 I4.101522842639594 J4.101522842639594
G3 X138.51776649746193 Y18.598984771573605 I2.220812182741117 J5.3578680203045685
G3 X139.10659898477155 Y18.626903553299492 I0 J5.883248730964467
G3 X139.68527918781726 Y18.715736040609137 I-0.5786802030456852 J5.748730964467005
G3 X140.23857868020303 Y18.85786802030457 I-1.1548223350253808 J5.6421319796954315
G3 X140.7741116751269 Y19.053299492385786 I-1.7055837563451774 J5.49746192893401
G3 X141.28172588832487 Y19.294416243654823 I-2.6319796954314723 J6.220812182741117
G3 X141.64467005076142 Y19.51015228426396 I-1.7690355329949239 J3.368020304568528
G3 X141.97969543147207 Y19.761421319796955 I-2.380710659898477 J3.5228426395939088
G3 X142.48477157360406 Y20.20812182741117 I-7.058375634517766 J8.50507614213198
G1 X144.30203045685278 Y21.67005076142132
G1 X151.07868020304568 Y21.67766497461929
G1 X151.11675126903552 Y19.431472081218274
G1 X151.11675126903552 Y16.946700507614214
G1 X151.11675126903552 Y14.461928934010153
G1 X151.11675126903552 Y11.977157360406093
G1 X151.11675126903552 Y9.49238578680203
G1 X151.11675126903552 Y7.01015228426396
G1 X151.11675126903552 Y4.525380710659899
G1 X204.43908629441623 Y4.525380710659899
G1 X257.76395939086296 Y4.525380710659899
G1 X257.76395939086296 Y7.01015228426396
G1 X257.76395939086296 Y9.49238578680203
G1 X257.76395939086296 Y11.977157360406093
G1 X257.76395939086296 Y14.461928934010153
G1 X257.76395939086296 Y16.946700507614214
G1 X257.76395939086296 Y19.431472081218274
G1 X257.79187817258884 Y21.708121827411166
G1 X251.15228426395936 Y21.703045685279186
G1 X249.42385786802032 Y20.28680203045685
G2 X248.99492385786803 Y19.895939086294415 I-4.180203045685279 J4.152284263959391
G2 X248.5736040609137 Y19.583756345177665 I-3.0406091370558377 J3.682741116751269
G2 X248.1548223350254 Y19.33756345177665 I-2.6954314720812182 J4.1091370558375635
G2 X247.6243654822335 Y19.088832487309645 I-3.3248730964467006 J6.3604060913705585
G0 Z10
G0 X247.6253807106599 Y19.088832487309645
G1 Z-3 F800
G2 X247.08883248730962 Y18.893401015228427 I-2.2436548223350252 J5.302030456852792 F1500
G2 X246.53553299492387 Y18.751269035532996 I-1.7081218274111676 J5.5
G2 X245.95685279187816 Y18.66243654822335 I-1.1573604060913705 J5.65989847715736
G2 X245.36802030456852 Y18.631979695431472 I-0.5888324873096447 J5.852791878172589
G2 X243.14720812182742 Y19.073604060913706 I0 J5.799492385786802
G2 X241.26649746192894 Y20.33248730964467 I2.220812182741117 J5.3578680203045685
G2 X240.01015228426397 Y22.21319796954315 I4.101522842639594 J4.101522842639594
G2 X239.56852791878174 Y24.434010152284262 I5.3578680203045685 J2.220812182741117
G2 X240.01015228426397 Y26.652284263959388 I5.799492385786802 J0
G2 X241.26649746192894 Y28.53553299492386 I5.3578680203045685 J-2.220812182741117
G2 X243.14720812182742 Y29.79187817258883 I4.101522842639594 J-4.101522842639594
G2 X245.36802030456852 Y30.233502538071065 I2.220812182741117 J-5.3578680203045685
G2 X245.95685279187816 Y30.20304568527919 I0 J-5.883248730964467
G2 X246.53553299492387 Y30.11421319796954 I-0.5786802030456852 J-5.748730964467005
G2 X247.08883248730962 Y29.972081218274113 I-1.1548223350253808 J-5.6421319796954315
G2 X247.6243654822335 Y29.77664974619289 I-1.7055837563451774 J-5.49746192893401
G2 X248.12944162436548 Y29.532994923857867 I-2.248730964467005 J-5.314720812182742
G2 X248.61167512690355 Y29.243654822335024 I-2.769035532994924 J-5.101522842639595
G2 X249.05583756345177 Y28.908629441624363 I-3.2588832487309642 J-4.822335025380711
G2 X249.46954314720813 Y28.53553299492386 I-3.713197969543147 J-4.50253807106599
G1 X250.26903553299493 Y27.898477157360407
G1 X251.15228426395936 Y27.30203045685279
G1 X257.79187817258884 Y27.261421319796955
G1 X257.76395939086296 Y29.37055837563452
G1 X257.76395939086296 Y31.855329949238577
G1 X257.76395939086296 Y34.340101522842644
G1 X257.76395939086296 Y36.8248730964467
G1 X257.76395939086296 Y39.309644670050766
G1 X257.76395939086296 Y41.79441624365482
G1 X257.76395939086296 Y44.27918781725889
G1 X204.43908629441623 Y44.27918781725889
G1 X151.11675126903552 Y44.27918781725889
G1 X151.11675126903552 Y41.79441624365482
G1 X151.11675126903552 Y39.309644670050766
G1 X151.11675126903552 Y36.8248730964467
G1 X151.11675126903552 Y34.340101522842644
G1 X151.11675126903552 Y31.855329949238577
G1 X151.11675126903552 Y29.37055837563452
G1 X151.07868020304568 Y27.261421319796955
G1 X144.30203045685278 Y27.266497461928935
G1 X143.41878172588832 Y27.86294416243655
G1 X142.61928934010152 Y28.5
G3 X142.20558375634516 Y28.875634517766496 I-4.126903553299492 J-4.126903553299492
G3 X141.76142131979697 Y29.208121827411166 I-3.7030456852791875 J-4.48984771573604
G3 X141.2791878172589 Y29.5 I-3.248730964467005 J-4.809644670050762
G3 X140.7741116751269 Y29.743654822335024 I-2.753807106598985 J-5.071065989847716
G3 X140.23857868020303 Y29.939086294416242 I-2.2436548223350252 J-5.302030456852792
G3 X139.68527918781726 Y30.081218274111677 I-1.7081218274111676 J-5.5
G3 X139.10659898477155 Y30.16751269035533 I-1.1573604060913705 J-5.65989847715736
G3 X138.51776649746193 Y30.19796954314721 I-0.5888324873096447 J-5.852791878172589
G3 X136.2969543147208 Y29.756345177664976 I0 J-5.799492385786802
G3 X134.41624365482232 Y28.5 I2.220812182741117 J-5.3578680203045685
G3 X133.15989847715736 Y26.616751269035532 I4.101522842639594 J-4.101522842639594
G3 X132.71827411167513 Y24.398477157360404 I5.3578680203045685 J-2.220812182741117
G3 X133.15989847715736 Y22.17766497461929 I5.799492385786802 J0
G3 X134.41624365482232 Y20.296954314720814 I5.3578680203045685 J2.220812182741117
G3 X136.2969543147208 Y19.04060913705584 I4.101522842639594 J4.101522842639594
G3 X138.51776649746193 Y18.598984771573605 I2.220812182741117 J5.3578680203045685
G3 X139.10659898477155 Y18.626903553299492 I0 J5.883248730964467
G3 X139.68527918781726 Y18.715736040609137 I-0.5786802030456852 J5.748730964467005
G3 X140.23857868020303 Y18.85786802030457 I-1.1548223350253808 J5.6421319796954315
G3 X140.7741116751269 Y19.053299492385786 I-1.7055837563451774 J5.49746192893401
G3 X141.28172588832487 Y19.294416243654823 I-2.6319796954314723 J6.220812182741117
G3 X141.64467005076142 Y19.51015228426396 I-1.7690355329949239 J3.368020304568528
G3 X141.97969543147207 Y19.761421319796955 I-2.380710659898477 J3.5228426395939088
G3 X142.48477157360406 Y20.20812182741117 I-7.058375634517766 J8.50507614213198
G1 X144.30203045685278 Y21.67005076142132
G1 X151.07868020304568 Y21.67766497461929
G1 X151.11675126903552 Y19.431472081218274
G1 X151.11675126903552 Y16.946700507614214
G1 X151.11675126903552 Y14.461928934010153
G1 X151.11675126903552 Y11.977157360406093
G1 X151.11675126903552 Y9.49238578680203
G1 X151.11675126903552 Y7.01015228426396
G1 X151.11675126903552 Y4.525380710659899
G1 X204.43908629441623 Y4.525380710659899
G1 X257.76395939086296 Y4.525380710659899
G1 X257.76395939086296 Y7.01015228426396
G1 X257.76395939086296 Y9.49238578680203
G1 X257.76395939086296 Y11.977157360406093
G1 X257.76395939086296 Y14.461928934010153
G1 X257.76395939086296 Y16.946700507614214
G1 X257.76395939086296 Y19.431472081218274
G1 X257.79187817258884 Y21.708121827411166
G1 X251.15228426395936 Y21.703045685279186
G1 X249.42385786802032 Y20.28680203045685
G2 X248.99492385786803 Y19.895939086294415 I-4.180203045685279 J4.152284263959391
G2 X248.5736040609137 Y19.583756345177665 I-3.0406091370558377 J3.682741116751269
G2 X248.1548223350254 Y19.33756345177665 I-2.6954314720812182 J4.1091370558375635
G2 X247.6243654822335 Y19.088832487309645 I-3.3248730964467006 J6.3604060913705585
G0 Z10
G0 X247.6253807106599 Y19.088832487309645
G1 Z-4 F800
G2 X247.08883248730962 Y18.893401015228427 I-2.2436548223350252 J5.302030456852792 F1500
G2 X246.53553299492387 Y18.751269035532996 I-1.7081218274111676 J5.5
G2 X245.95685279187816 Y18.66243654822335 I-1.1573604060913705 J5.65989847715736
G2 X245.36802030456852 Y18.631979695431472 I-0.5888324873096447 J5.852791878172589
G2 X243.14720812182742 Y19.073604060913706 I0 J5.799492385786802
G2 X241.26649746192894 Y20.33248730964467 I2.220812182741117 J5.3578680203045685
G2 X240.01015228426397 Y22.21319796954315 I4.101522842639594 J4.101522842639594
G2 X239.56852791878174 Y24.434010152284262 I5.3578680203045685 J2.220812182741117
G2 X240.01015228426397 Y26.652284263959388 I5.799492385786802 J0
G2 X241.26649746192894 Y28.53553299492386 I5.3578680203045685 J-2.220812182741117
G2 X243.14720812182742 Y29.79187817258883 I4.101522842639594 J-4.101522842639594
G2 X245.36802030456852 Y30.233502538071065 I2.220812182741117 J-5.3578680203045685
G2 X245.95685279187816 Y30.20304568527919 I0 J-5.883248730964467
G2 X246.53553299492387 Y30.11421319796954 I-0.5786802030456852 J-5.748730964467005
G2 X247.08883248730962 Y29.972081218274113 I-1.1548223350253808 J-5.6421319796954315
G2 X247.6243654822335 Y29.77664974619289 I-1.7055837563451774 J-5.49746192893401
G2 X248.12944162436548 Y29.532994923857867 I-2.248730964467005 J-5.314720812182742
G2 X248.61167512690355 Y29.243654822335024 I-2.769035532994924 J-5.101522842639595
G2 X249.05583756345177 Y28.908629441624363 I-3.2588832487309642 J-4.822335025380711
G2 X249.46954314720813 Y28.53553299492386 I-3.713197969543147 J-4.50253807106599
G1 X250.26903553299493 Y27.898477157360407
G1 X251.15228426395936 Y27.30203045685279
G1 X257.79187817258884 Y27.261421319796955
G1 X257.76395939086296 Y29.37055837563452
G1 X257.76395939086296 Y31.855329949238577
G1 X257.76395939086296 Y34.340101522842644
G1 X257.76395939086296 Y36.8248730964467
G1 X257.76395939086296 Y39.309644670050766
G1 X257.76395939086296 Y41.79441624365482
G1 X257.76395939086296 Y44.27918781725889
G1 X204.43908629441623 Y44.27918781725889
G1 X151.11675126903552 Y44.27918781725889
G1 X151.11675126903552 Y41.79441624365482
G1 X151.11675126903552 Y39.309644670050766
G1 X151.11675126903552 Y36.8248730964467
G1 X151.11675126903552 Y34.340101522842644
G1 X151.11675126903552 Y31.855329949238577
G1 X151.11675126903552 Y29.37055837563452
G1 X151.07868020304568 Y27.261421319796955
G1 X144.30203045685278 Y27.266497461928935
G1 X143.41878172588832 Y27.86294416243655
G1 X142.61928934010152 Y28.5
G3 X142.20558375634516 Y28.875634517766496 I-4.126903553299492 J-4.126903553299492
G3 X141.76142131979697 Y29.208121827411166 I-3.7030456852791875 J-4.48984771573604
G3 X141.2791878172589 Y29.5 I-3.248730964467005 J-4.809644670050762
G3 X140.7741116751269 Y29.743654822335024 I-2.753807106598985 J-5.071065989847716
G3 X140.23857868020303 Y29.939086294416242 I-2.2436548223350252 J-5.302030456852792
G3 X139.68527918781726 Y30.081218274111677 I-1.7081218274111676 J-5.5
G3 X139.10659898477155 Y30.16751269035533 I-1.1573604060913705 J-5.65989847715736
G3 X138.51776649746193 Y30.19796954314721 I-0.5888324873096447 J-5.852791878172589
G3 X136.2969543147208 Y29.756345177664976 I0 J-5.799492385786802
G3 X134.41624365482232 Y28.5 I2.220812182741117 J-5.3578680203045685
G3 X133.15989847715736 Y26.616751269035532 I4.101522842639594 J-4.101522842639594
G3 X132.71827411167513 Y24.398477157360404 I5.3578680203045685 J-2.220812182741117
G3 X133.15989847715736 Y22.17766497461929 I5.799492385786802 J0
G3 X134.41624365482232 Y20.296954314720814 I5.3578680203045685 J2.220812182741117
G3 X136.2969543147208 Y19.04060913705584 I4.101522842639594 J4.101522842639594
G3 X138.51776649746193 Y18.598984771573605 I2.220812182741117 J5.3578680203045685
G3 X139.10659898477155 Y18.626903553299492 I0 J5.883248730964467
G3 X139.68527918781726 Y18.715736040609137 I-0.5786802030456852 J5.748730964467005
G3 X140.23857868020303 Y18.85786802030457 I-1.1548223350253808 J5.6421319796954315
G3 X140.7741116751269 Y19.053299492385786 I-1.7055837563451774 J5.49746192893401
G3 X141.28172588832487 Y19.294416243654823 I-2.6319796954314723 J6.220812182741117
G3 X141.64467005076142 Y19.51015228426396 I-1.7690355329949239 J3.368020304568528
G3 X141.97969543147207 Y19.761421319796955 I-2.380710659898477 J3.5228426395939088
G3 X142.48477157360406 Y20.20812182741117 I-7.058375634517766 J8.50507614213198
G1 X144.30203045685278 Y21.67005076142132
G1 X151.07868020304568 Y21.67766497461929
G1 X151.11675126903552 Y19.431472081218274
G1 X151.11675126903552 Y16.946700507614214
G1 X151.11675126903552 Y14.461928934010153
G1 X151.11675126903552 Y11.977157360406093
G1 X151.11675126903552 Y9.49238578680203
G1 X151.11675126903552 Y7.01015228426396
G1 X151.11675126903552 Y4.525380710659899
G1 X204.43908629441623 Y4.525380710659899
G1 X257.76395939086296 Y4.525380710659899
G1 X257.76395939086296 Y7.01015228426396
G1 X257.76395939086296 Y9.49238578680203
G1 X257.76395939086296 Y11.977157360406093
G1 X257.76395939086296 Y14.461928934010153
G1 X257.76395939086296 Y16.946700507614214
G1 X257.76395939086296 Y19.431472081218274
G1 X257.79187817258884 Y21.708121827411166
G1 X251.15228426395936 Y21.703045685279186
G1 X249.42385786802032 Y20.28680203045685
G2 X248.99492385786803 Y19.895939086294415 I-4.180203045685279 J4.152284263959391
G2 X248.5736040609137 Y19.583756345177665 I-3.0406091370558377 J3.682741116751269
G2 X248.1548223350254 Y19.33756345177665 I-2.6954314720812182 J4.1091370558375635
G2 X247.6243654822335 Y19.088832487309645 I-3.3248730964467006 J6.3604060913705585
G0 Z10
G0 X247.6253807106599 Y19.088832487309645
G1 Z-5 F800
G2 X247.08883248730962 Y18.893401015228427 I-2.2436548223350252 J5.302030456852792 F1500
G2 X246.53553299492387 Y18.751269035532996 I-1.7081218274111676 J5.5
G2 X245.95685279187816 Y18.66243654822335 I-1.1573604060913705 J5.65989847715736
G2 X245.36802030456852 Y18.631979695431472 I-0.5888324873096447 J5.852791878172589
G2 X243.14720812182742 Y19.073604060913706 I0 J5.799492385786802
G2 X241.26649746192894 Y20.33248730964467 I2.220812182741117 J5.3578680203045685
G2 X240.01015228426397 Y22.21319796954315 I4.101522842639594 J4.101522842639594
G2 X239.56852791878174 Y24.434010152284262 I5.3578680203045685 J2.220812182741117
G2 X240.01015228426397 Y26.652284263959388 I5.799492385786802 J0
G2 X241.26649746192894 Y28.53553299492386 I5.3578680203045685 J-2.220812182741117
G2 X243.14720812182742 Y29.79187817258883 I4.101522842639594 J-4.101522842639594
G2 X245.36802030456852 Y30.233502538071065 I2.220812182741117 J-5.3578680203045685
G2 X245.95685279187816 Y30.20304568527919 I0 J-5.883248730964467
G2 X246.53553299492387 Y30.11421319796954 I-0.5786802030456852 J-5.748730964467005
G2 X247.08883248730962 Y29.972081218274113 I-1.1548223350253808 J-5.6421319796954315
G2 X247.6243654822335 Y29.77664974619289 I-1.7055837563451774 J-5.49746192893401
G2 X248.12944162436548 Y29.532994923857867 I-2.248730964467005 J-5.314720812182742
G2 X248.61167512690355 Y29.243654822335024 I-2.769035532994924 J-5.101522842639595
G2 X249.05583756345177 Y28.908629441624363 I-3.2588832487309642 J-4.822335025380711
G2 X249.46954314720813 Y28.53553299492386 I-3.713197969543147 J-4.50253807106599
G1 X250.26903553299493 Y27.898477157360407
G1 X251.15228426395936 Y27.30203045685279
G1 X257.79187817258884 Y27.261421319796955
G1 X257.76395939086296 Y29.37055837563452
G1 X257.76395939086296 Y31.855329949238577
G1 X257.76395939086296 Y34.340101522842644
G1 X257.76395939086296 Y36.8248730964467
G1 X257.76395939086296 Y39.309644670050766
G1 X257.76395939086296 Y41.79441624365482
G1 X257.76395939086296 Y44.27918781725889
G1 X204.43908629441623 Y44.27918781725889
G1 X151.11675126903552 Y44.27918781725889
G1 X151.11675126903552 Y41.79441624365482
G1 X151.11675126903552 Y39.309644670050766
G1 X151.11675126903552 Y36.8248730964467
G1 X151.11675126903552 Y34.340101522842644
G1 X151.11675126903552 Y31.855329949238577
G1 X151.11675126903552 Y29.37055837563452
G1 X151.07868020304568 Y27.261421319796955
G1 X144.30203045685278 Y27.266497461928935
G1 X143.41878172588832 Y27.86294416243655
G1 X142.61928934010152 Y28.5
G3 X142.20558375634516 Y28.875634517766496 I-4.126903553299492 J-4.126903553299492
G3 X141.76142131979697 Y29.208121827411166 I-3.7030456852791875 J-4.48984771573604
G3 X141.2791878172589 Y29.5 I-3.248730964467005 J-4.809644670050762
G3 X140.7741116751269 Y29.743654822335024 I-2.753807106598985 J-5.071065989847716
G3 X140.23857868020303 Y29.939086294416242 I-2.2436548223350252 J-5.302030456852792
G3 X139.68527918781726 Y30.081218274111677 I-1.7081218274111676 J-5.5
G3 X139.10659898477155 Y30.16751269035533 I-1.1573604060913705 J-5.65989847715736
G3 X138.51776649746193 Y30.19796954314721 I-0.5888324873096447 J-5.852791878172589
G3 X136.2969543147208 Y29.756345177664976 I0 J-5.799492385786802
G3 X134.41624365482232 Y28.5 I2.220812182741117 J-5.3578680203045685
G3 X133.15989847715736 Y26.616751269035532 I4.101522842639594 J-4.101522842639594
G3 X132.71827411167513 Y24.398477157360404 I5.3578680203045685 J-2.220812182741117
G3 X133.15989847715736 Y22.17766497461929 I5.799492385786802 J0
G3 X134.41624365482232 Y20.296954314720814 I5.3578680203045685 J2.220812182741117
G3 X136.2969543147208 Y19.04060913705584 I4.101522842639594 J4.101522842639594
G3 X138.51776649746193 Y18.598984771573605 I2.220812182741117 J5.3578680203045685
G3 X139.10659898477155 Y18.626903553299492 I0 J5.883248730964467
G3 X139.68527918781726 Y18.715736040609137 I-0.5786802030456852 J5.748730964467005
G3 X140.23857868020303 Y18.85786802030457 I-1.1548223350253808 J5.6421319796954315
G3 X140.7741116751269 Y19.053299492385786 I-1.7055837563451774 J5.49746192893401
G3 X141.28172588832487 Y19.294416243654823 I-2.6319796954314723 J6.220812182741117
G3 X141.64467005076142 Y19.51015228426396 I-1.7690355329949239 J3.368020304568528
G3 X141.97969543147207 Y19.761421319796955 I-2.380710659898477 J3.5228426395939088
G3 X142.48477157360406 Y20.20812182741117 I-7.058375634517766 J8.50507614213198
G1 X144.30203045685278 Y21.67005076142132
G1 X151.07868020304568 Y21.67766497461929
G1 X151.11675126903552 Y19.431472081218274
G1 X151.11675126903552 Y16.946700507614214
G1 X151.11675126903552 Y14.461928934010153
G1 X151.11675126903552 Y11.977157360406093
G1 X151.11675126903552 Y9.49238578680203
G1 X151.11675126903552 Y7.01015228426396
G1 X151.11675126903552 Y4.525380710659899
G1 X204.43908629441623 Y4.525380710659899
G1 X257.76395939086296 Y4.525380710659899
G1 X257.76395939086296 Y7.01015228426396
G1 X257.76395939086296 Y9.49238578680203
G1 X257.76395939086296 Y11.977157360406093
G1 X257.76395939086296 Y14.461928934010153
G1 X257.76395939086296 Y16.946700507614214
G1 X257.76395939086296 Y19.431472081218274
G1 X257.79187817258884 Y21.708121827411166
G1 X251.15228426395936 Y21.703045685279186
G1 X249.42385786802032 Y20.28680203045685
G2 X248.99492385786803 Y19.895939086294415 I-4.180203045685279 J4.152284263959391
G2 X248.5736040609137 Y19.583756345177665 I-3.0406091370558377 J3.682741116751269
G2 X248.1548223350254 Y19.33756345177665 I-2.6954314720812182 J4.1091370558375635
G2 X247.6243654822335 Y19.088832487309645 I-3.3248730964467006 J6.3604060913705585
G0 Z10
G0 X247.6253807106599 Y19.088832487309645
G1 Z-5.2 F800
G2 X247.08883248730962 Y18.893401015228427 I-2.2436548223350252 J5.302030456852792 F1500
G2 X246.53553299492387 Y18.751269035532996 I-1.7081218274111676 J5.5
G2 X245.95685279187816 Y18.66243654822335 I-1.1573604060913705 J5.65989847715736
G2 X245.36802030456852 Y18.631979695431472 I-0.5888324873096447 J5.852791878172589
G2 X243.14720812182742 Y19.073604060913706 I0 J5.799492385786802
G2 X241.26649746192894 Y20.33248730964467 I2.220812182741117 J5.3578680203045685
G2 X240.01015228426397 Y22.21319796954315 I4.101522842639594 J4.101522842639594
G2 X239.56852791878174 Y24.434010152284262 I5.3578680203045685 J2.220812182741117
G2 X240.01015228426397 Y26.652284263959388 I5.799492385786802 J0
G2 X241.26649746192894 Y28.53553299492386 I5.3578680203045685 J-2.220812182741117
G2 X243.14720812182742 Y29.79187817258883 I4.101522842639594 J-4.101522842639594
G2 X245.36802030456852 Y30.233502538071065 I2.220812182741117 J-5.3578680203045685
G2 X245.95685279187816 Y30.20304568527919 I0 J-5.883248730964467
G2 X246.53553299492387 Y30.11421319796954 I-0.5786802030456852 J-5.748730964467005
G2 X247.08883248730962 Y29.972081218274113 I-1.1548223350253808 J-5.6421319796954315
G2 X247.6243654822335 Y29.77664974619289 I-1.7055837563451774 J-5.49746192893401
G2 X248.12944162436548 Y29.532994923857867 I-2.248730964467005 J-5.314720812182742
G2 X248.61167512690355 Y29.243654822335024 I-2.769035532994924 J-5.101522842639595
G2 X249.05583756345177 Y28.908629441624363 I-3.2588832487309642 J-4.822335025380711
G2 X249.46954314720813 Y28.53553299492386 I-3.713197969543147 J-4.50253807106599
G1 X250.26903553299493 Y27.898477157360407
G1 X251.15228426395936 Y27.30203045685279
G1 X257.79187817258884 Y27.261421319796955
G1 X257.76395939086296 Y29.37055837563452
G1 X257.76395939086296 Y31.855329949238577
G1 X257.76395939086296 Y34.340101522842644
G1 X257.76395939086296 Y36.8248730964467
G1 X257.76395939086296 Y39.309644670050766
G1 X257.76395939086296 Y41.79441624365482
G1 X257.76395939086296 Y44.27918781725889
G1 X204.43908629441623 Y44.27918781725889
G1 X151.11675126903552 Y44.27918781725889
G1 X151.11675126903552 Y41.79441624365482
G1 X151.11675126903552 Y39.309644670050766
G1 X151.11675126903552 Y36.8248730964467
G1 X151.11675126903552 Y34.340101522842644
G1 X151.11675126903552 Y31.855329949238577
G1 X151.11675126903552 Y29.37055837563452
G1 X151.07868020304568 Y27.261421319796955
G1 X144.30203045685278 Y27.266497461928935
G1 X143.41878172588832 Y27.86294416243655
G1 X142.61928934010152 Y28.5
G3 X142.20558375634516 Y28.875634517766496 I-4.126903553299492 J-4.126903553299492
G3 X141.76142131979697 Y29.208121827411166 I-3.7030456852791875 J-4.48984771573604
G3 X141.2791878172589 Y29.5 I-3.248730964467005 J-4.809644670050762
G3 X140.7741116751269 Y29.743654822335024 I-2.753807106598985 J-5.071065989847716
G3 X140.23857868020303 Y29.939086294416242 I-2.2436548223350252 J-5.302030456852792
G3 X139.68527918781726 Y30.081218274111677 I-1.7081218274111676 J-5.5
G3 X139.10659898477155 Y30.16751269035533 I-1.1573604060913705 J-5.65989847715736
G3 X138.51776649746193 Y30.19796954314721 I-0.5888324873096447 J-5.852791878172589
G3 X136.2969543147208 Y29.756345177664976 I0 J-5.799492385786802
G3 X134.41624365482232 Y28.5 I2.220812182741117 J-5.3578680203045685
G3 X133.15989847715736 Y26.616751269035532 I4.101522842639594 J-4.101522842639594
G3 X132.71827411167513 Y24.398477157360404 I5.3578680203045685 J-2.220812182741117
G3 X133.15989847715736 Y22.17766497461929 I5.799492385786802 J0
G3 X134.41624365482232 Y20.296954314720814 I5.3578680203045685 J2.220812182741117
G3 X136.2969543147208 Y19.04060913705584 I4.101522842639594 J4.101522842639594
G3 X138.51776649746193 Y18.598984771573605 I2.220812182741117 J5.3578680203045685
G3 X139.10659898477155 Y18.626903553299492 I0 J5.883248730964467
G3 X139.68527918781726 Y18.715736040609137 I-0.5786802030456852 J5.748730964467005
G3 X140.23857868020303 Y18.85786802030457 I-1.1548223350253808 J5.6421319796954315
G3 X140.7741116751269 Y19.053299492385786 I-1.7055837563451774 J5.49746192893401
G3 X141.28172588832487 Y19.294416243654823 I-2.6319796954314723 J6.220812182741117
G3 X141.64467005076142 Y19.51015228426396 I-1.7690355329949239 J3.368020304568528
G3 X141.97969543147207 Y19.761421319796955 I-2.380710659898477 J3.5228426395939088
G3 X142.48477157360406 Y20.20812182741117 I-7.058375634517766 J8.50507614213198
G1 X144.30203045685278 Y21.67005076142132
G1 X151.07868020304568 Y21.67766497461929
G1 X151.11675126903552 Y19.431472081218274
G1 X151.11675126903552 Y16.946700507614214
G1 X151.11675126903552 Y14.461928934010153
G1 X151.11675126903552 Y11.977157360406093
G1 X151.11675126903552 Y9.49238578680203
G1 X151.11675126903552 Y7.01015228426396
G1 X151.11675126903552 Y4.525380710659899
G1 X204.43908629441623 Y4.525380710659899
G1 X257.76395939086296 Y4.525380710659899
G1 X257.76395939086296 Y7.01015228426396
G1 X257.76395939086296 Y9.49238578680203
G1 X257.76395939086296 Y11.977157360406093
G1 X257.76395939086296 Y14.461928934010153
G1 X257.76395939086296 Y16.946700507614214
G1 X257.76395939086296 Y19.431472081218274
G1 X257.79187817258884 Y21.708121827411166
G1 X251.15228426395936 Y21.703045685279186
G1 X249.42385786802032 Y20.28680203045685
G2 X248.99492385786803 Y19.895939086294415 I-4.180203045685279 J4.152284263959391
G2 X248.5736040609137 Y19.583756345177665 I-3.0406091370558377 J3.682741116751269
G2 X248.1548223350254 Y19.33756345177665 I-2.6954314720812182 J4.1091370558375635
G2 X247.6243654822335 Y19.088832487309645 I-3.3248730964467006 J6.3604060913705585
G0 Z10
M5
M30
